Example Targets Read/ArgyllCMS printtarg targets/Size A4/A4-High Quality Target Plus Grays (1 page - 504 patches)-SS/A4-High Quality Target Plus Grays (1 page - 504 patches)-SS.ti1
CTI1

DESCRIPTOR "Argyll Calibration Target chart information 1"
ORIGINATOR "read_image_patch_colors.py (colormath backend)"
CREATED "Wed Nov 19 22:44:31 2025"
ACCURATE_EXPECTED_VALUES "true"
WHITE_COLOR_PATCHES "9"
BLACK_COLOR_PATCHES "9"
APPROX_WHITE_POINT "96.420986 99.999714 82.531487"
COLOR_REP "iRGB"

NUMBER_OF_FIELDS 7
BEGIN_DATA_FORMAT
SAMPLE_ID RGB_R RGB_G RGB_B XYZ_X XYZ_Y XYZ_Z
END_DATA_FORMAT

NUMBER_OF_SETS 504
BEGIN_DATA
1 0.000000 0.000000 0.000000 0.000000 0.000000 0.000000
2 0.000000 0.000000 25.098039 0.733673 0.310825 3.662067
3 0.000000 0.000000 50.196078 3.088994 1.308672 15.418450
4 0.000000 0.000000 75.294118 7.543092 3.195680 37.650697
5 0.000000 0.000000 100.000000 14.310141 6.062584 71.427844
6 25.098039 0.000000 0.000000 2.235556 1.140678 0.071424
7 25.098039 0.000000 25.098039 2.969229 1.451503 3.733491
8 25.098039 0.000000 50.196078 5.324550 2.449350 15.489874
9 25.098039 0.000000 75.294118 9.778647 4.336358 37.722121
10 25.098039 0.000000 100.000000 16.545696 7.203262 71.499268
11 50.196078 0.000000 0.000000 9.412390 4.802612 0.300717
12 50.196078 0.000000 25.098039 10.146063 5.113438 3.962784
13 50.196078 0.000000 50.196078 12.501384 6.111285 15.719168
14 50.196078 0.000000 75.294118 16.955482 7.998292 37.951414
15 50.196078 0.000000 100.000000 23.722531 10.865196 71.728561
16 0.000000 25.098039 0.000000 1.974223 3.675428 0.497854
17 0.000000 25.098039 25.098039 2.707896 3.986253 4.159921
18 0.000000 25.098039 50.196078 5.063217 4.984100 15.916304
19 0.000000 25.098039 75.294118 9.517315 6.871107 38.148551
20 0.000000 25.098039 100.000000 16.284364 9.738012 71.925698
21 25.098039 25.098039 0.000000 4.209779 4.816106 0.569278
22 25.098039 25.098039 25.098039 4.943452 5.126931 4.231345
23 25.098039 25.098039 50.196078 7.298773 6.124778 15.987728
24 25.098039 25.098039 75.294118 11.752870 8.011785 38.219975
25 25.098039 25.098039 100.000000 18.519919 10.878690 71.997122
26 50.196078 25.098039 0.000000 11.386613 8.478040 0.798571
27 50.196078 25.098039 25.098039 12.120286 8.788865 4.460638
28 50.196078 25.098039 50.196078 14.475607 9.786712 16.217021
29 50.196078 25.098039 75.294118 18.929705 11.673720 38.449268
30 50.196078 25.098039 100.000000 25.696754 14.540624 72.226415
31 0.000000 50.196078 0.000000 8.312098 15.474704 2.096120
32 0.000000 50.196078 25.098039 9.045771 15.785529 5.758187
33 0.000000 50.196078 50.196078 11.401092 16.783376 17.514571
34 0.000000 50.196078 75.294118 15.855190 18.670383 39.746817
35 0.000000 50.196078 100.000000 22.622239 21.537288 73.523964
36 25.098039 50.196078 0.000000 10.547654 16.615382 2.167544
37 25.098039 50.196078 25.098039 11.281327 16.926207 5.829611
38 25.098039 50.196078 50.196078 13.636648 17.924054 17.585995
39 25.098039 50.196078 75.294118 18.090745 19.811061 39.818241
40 25.098039 50.196078 100.000000 24.857794 22.677966 73.595388
41 50.196078 50.196078 0.000000 17.724488 20.277316 2.396838
42 50.196078 50.196078 25.098039 18.458161 20.588141 6.058905
43 50.196078 50.196078 50.196078 20.813482 21.585988 17.815288
44 50.196078 50.196078 75.294118 25.267580 23.472996 40.047535
45 50.196078 50.196078 100.000000 32.034629 26.339900 73.824682
46 0.000000 75.294118 0.000000 20.297519 37.788064 5.118569
47 0.000000 75.294118 25.098039 21.031192 38.098889 8.780636
48 0.000000 75.294118 50.196078 23.386513 39.096736 20.537019
49 0.000000 75.294118 75.294118 27.840611 40.983744 42.769266
50 0.000000 75.294118 100.000000 34.607660 43.850648 76.546413
51 25.098039 75.294118 0.000000 22.533075 38.928742 5.189993
52 25.098039 75.294118 25.098039 23.266748 39.239567 8.852060
53 25.098039 75.294118 50.196078 25.622069 40.237414 20.608443
54 25.098039 75.294118 75.294118 30.076166 42.124422 42.840690
55 25.098039 75.294118 100.000000 36.843216 44.991326 76.617837
56 50.196078 75.294118 0.000000 29.709909 42.590676 5.419286
57 50.196078 75.294118 25.098039 30.443582 42.901501 9.081353
58 50.196078 75.294118 50.196078 32.798903 43.899348 20.837736
59 50.196078 75.294118 75.294118 37.253001 45.786356 43.069983
60 50.196078 75.294118 100.000000 44.020050 48.653260 76.847130
61 0.000000 100.000000 0.000000 38.506805 71.688445 9.710533
62 0.000000 100.000000 25.098039 39.240478 71.999271 13.372600
63 0.000000 100.000000 50.196078 41.595799 72.997118 25.128983
64 0.000000 100.000000 75.294118 46.049897 74.884125 47.361230
65 0.000000 100.000000 100.000000 52.816946 77.751029 81.138377
66 25.098039 100.000000 0.000000 40.742360 72.829123 9.781957
67 25.098039 100.000000 25.098039 41.476034 73.139949 13.444024
68 25.098039 100.000000 50.196078 43.831355 74.137796 25.200407
69 25.098039 100.000000 75.294118 48.285452 76.024803 47.432654
70 25.098039 100.000000 100.000000 55.052501 78.891707 81.209801
71 50.196078 100.000000 0.000000 47.919195 76.491058 10.011250
72 50.196078 100.000000 25.098039 48.652868 76.801883 13.673317
73 50.196078 100.000000 50.196078 51.008189 77.799730 25.429700
74 50.196078 100.000000 75.294118 55.462286 79.686737 47.661947
75 50.196078 100.000000 100.000000 62.229336 82.553641 81.439094
76 75.294118 0.000000 0.000000 22.984349 11.727618 0.734329
77 75.294118 0.000000 25.098039 23.718022 12.038444 4.396396
78 75.294118 0.000000 50.196078 26.073343 13.036291 16.152779
79 75.294118 0.000000 75.294118 30.527441 14.923298 38.385026
80 75.294118 0.000000 100.000000 37.294490 17.790202 72.162173
81 100.000000 0.000000 0.000000 43.604040 22.248685 1.393110
82 100.000000 0.000000 25.098039 44.337713 22.559510 5.055177
83 100.000000 0.000000 50.196078 46.693034 23.557357 16.811560
84 100.000000 0.000000 75.294118 51.147132 25.444364 39.043807
85 100.000000 0.000000 100.000000 57.914181 28.311269 72.820954
86 0.000000 0.000000 12.549020 0.206693 0.087567 1.031693
87 0.000000 12.549020 0.000000 0.556186 1.035457 0.140257
88 0.000000 12.549020 12.549020 0.762880 1.123024 1.171950
89 0.000000 12.549020 25.098039 1.289859 1.346282 3.802324
90 0.000000 25.098039 12.549020 2.180916 3.762995 1.529546
91 75.294118 25.098039 0.000000 24.958572 15.403046 1.232183
92 75.294118 25.098039 25.098039 25.692245 15.713871 4.894250
93 75.294118 25.098039 50.196078 28.047566 16.711718 16.650633
94 75.294118 25.098039 75.294118 32.501664 18.598726 38.882880
95 75.294118 25.098039 100.000000 39.268713 21.465630 72.660027
96 100.000000 25.098039 0.000000 45.578263 25.924112 1.890964
97 100.000000 25.098039 25.098039 46.311936 26.234938 5.553031
98 100.000000 25.098039 50.196078 48.667257 27.232785 17.309414
99 100.000000 25.098039 75.294118 53.121355 29.119792 39.541661
100 100.000000 25.098039 100.000000 59.888404 31.986696 73.318808
101 12.549020 0.000000 0.000000 0.629810 0.321357 0.020122
102 12.549020 0.000000 12.549020 0.836503 0.408924 1.051814
103 12.549020 12.549020 0.000000 1.185996 1.356813 0.160379
104 12.549020 12.549020 12.549020 1.392690 1.444380 1.192072
105 12.549020 25.098039 25.098039 3.337706 4.307610 4.180042
106 75.294118 50.196078 0.000000 31.296447 27.202322 2.830450
107 75.294118 50.196078 25.098039 32.030121 27.513147 6.492517
108 75.294118 50.196078 50.196078 34.385441 28.510994 18.248900
109 75.294118 50.196078 75.294118 38.839539 30.398002 40.481147
110 75.294118 50.196078 100.000000 45.606588 33.264906 74.258294
111 100.000000 50.196078 0.000000 51.916138 37.723388 3.489230
112 100.000000 50.196078 25.098039 52.649812 38.034214 7.151297
113 100.000000 50.196078 50.196078 55.005133 39.032061 18.907681
114 100.000000 50.196078 75.294118 59.459230 40.919068 41.139927
115 100.000000 50.196078 100.000000 66.226279 43.785972 74.917074
116 25.098039 0.000000 12.549020 2.442249 1.228245 1.103117
117 25.098039 12.549020 0.000000 2.791742 2.176135 0.211681
118 25.098039 12.549020 12.549020 2.998435 2.263702 1.243374
119 37.647059 37.647059 37.647059 11.278427 11.697033 9.653763
120 62.745098 62.745098 62.745098 33.895120 35.153159 29.012508
121 75.294118 75.294118 0.000000 43.281868 49.515682 5.852898
122 75.294118 75.294118 25.098039 44.015542 49.826507 9.514965
123 75.294118 75.294118 50.196078 46.370863 50.824354 21.271348
124 75.294118 75.294118 75.294118 50.824960 52.711362 43.503595
125 75.294118 75.294118 100.000000 57.592009 55.578266 77.280742
126 100.000000 75.294118 0.000000 63.901560 60.036748 6.511679
127 100.000000 75.294118 25.098039 64.635233 60.347574 10.173746
128 100.000000 75.294118 50.196078 66.990554 61.345421 21.930129
129 100.000000 75.294118 75.294118 71.444651 63.232428 44.162376
130 100.000000 75.294118 100.000000 78.211700 66.099332 77.939523
131 75.294118 87.843137 87.843137 62.354323 69.683563 61.215217
132 75.294118 87.843137 100.000000 65.997624 71.227071 79.400445
133 75.294118 100.000000 87.843137 72.157993 87.935139 63.687478
134 87.843137 87.843137 87.843137 71.872609 74.540208 61.519318
135 87.843137 87.843137 100.000000 75.515910 76.083716 79.704546
136 75.294118 100.000000 0.000000 61.491154 83.416063 10.444862
137 75.294118 100.000000 25.098039 62.224827 83.726889 14.106929
138 75.294118 100.000000 50.196078 64.580148 84.724736 25.863312
139 75.294118 100.000000 75.294118 69.034246 86.611743 48.095559
140 75.294118 100.000000 100.000000 75.801295 89.478647 81.872706
141 100.000000 100.000000 0.000000 82.110845 93.937130 11.103643
142 100.000000 100.000000 25.098039 82.844518 94.247955 14.765710
143 100.000000 100.000000 50.196078 85.199839 95.245802 26.522093
144 100.000000 100.000000 75.294118 89.653937 97.132810 48.754340
145 100.000000 100.000000 100.000000 96.420986 99.999714 82.531487
146 87.843137 100.000000 87.843137 81.676279 92.791784 63.991579
147 87.843137 100.000000 100.000000 85.319581 94.335292 82.176807
148 100.000000 87.843137 87.843137 82.974014 80.204629 61.873998
149 100.000000 87.843137 100.000000 86.617316 81.748137 80.059226
150 100.000000 100.000000 87.843137 92.777684 98.456205 64.346258
151 0.000000 0.000000 37.647059 1.673867 0.709144 8.354963
152 0.000000 12.549020 37.647059 2.230053 1.744601 8.495220
153 0.000000 25.098039 37.647059 3.648090 4.384572 8.852816
154 0.000000 37.647059 0.000000 4.504167 8.385445 1.135848
155 0.000000 37.647059 12.549020 4.710860 8.473012 2.167540
156 37.647059 37.647059 50.196078 12.693555 12.296561 16.717251
157 37.647059 50.196078 25.098039 14.146165 18.387973 5.921140
158 37.647059 50.196078 37.647059 15.086359 18.786292 10.614036
159 37.647059 50.196078 50.196078 16.501486 19.385820 17.677524
160 50.196078 37.647059 37.647059 15.590423 13.897202 9.791528
161 75.294118 75.294118 87.843137 53.948708 54.034758 59.095514
162 75.294118 87.843137 62.745098 56.717965 67.295683 33.081817
163 75.294118 87.843137 75.294118 59.230575 68.360167 45.623298
164 75.294118 100.000000 62.745098 66.521635 85.547259 35.554078
165 87.843137 62.745098 62.745098 51.069513 43.916285 29.561215
166 0.000000 37.647059 25.098039 5.237840 8.696271 4.797914
167 0.000000 37.647059 37.647059 6.178033 9.094590 9.490810
168 12.549020 0.000000 25.098039 1.363483 0.632182 3.682189
169 12.549020 12.549020 25.098039 1.919669 1.667639 3.822446
170 12.549020 25.098039 0.000000 2.604033 3.996784 0.517976
171 50.196078 37.647059 50.196078 17.005551 14.496730 16.855015
172 50.196078 37.647059 62.745098 18.947038 15.319253 26.545781
173 50.196078 50.196078 37.647059 19.398355 20.986460 10.751801
174 50.196078 50.196078 62.745098 22.754969 22.408512 27.506054
175 50.196078 62.745098 37.647059 24.622654 30.712582 12.069249
176 87.843137 62.745098 75.294118 53.582124 44.980768 42.102696
177 87.843137 62.745098 87.843137 56.705872 46.304164 57.694615
178 87.843137 62.745098 100.000000 60.349173 47.847673 75.879843
179 87.843137 75.294118 62.745098 57.830635 56.503523 31.266214
180 87.843137 75.294118 75.294118 60.343246 57.568007 43.807696
181 12.549020 25.098039 12.549020 2.810726 4.084351 1.549668
182 12.549020 37.647059 37.647059 6.807843 9.415946 9.510932
183 25.098039 0.000000 37.647059 3.909422 1.849823 8.426387
184 25.098039 12.549020 25.098039 3.525415 2.486960 3.873748
185 25.098039 12.549020 37.647059 4.465609 2.885279 8.566644
186 50.196078 62.745098 50.196078 26.037781 31.312110 19.132736
187 50.196078 62.745098 62.745098 27.979268 32.134634 28.823502
188 62.745098 50.196078 50.196078 26.729334 24.604514 18.004294
189 62.745098 50.196078 62.745098 28.670821 25.427037 27.695060
190 62.745098 50.196078 75.294118 31.183431 26.491521 40.236541
191 87.843137 75.294118 87.843137 63.466994 58.891403 59.399614
192 87.843137 75.294118 100.000000 67.110295 60.434911 77.584843
193 87.843137 87.843137 62.745098 66.236251 72.152328 33.385918
194 87.843137 87.843137 75.294118 68.748861 73.216812 45.927399
195 87.843137 100.000000 62.745098 76.039921 90.403904 35.858179
196 25.098039 25.098039 12.549020 4.416472 4.903673 1.600970
197 25.098039 25.098039 37.647059 5.883645 5.525250 8.924240
198 25.098039 37.647059 0.000000 6.739722 9.526123 1.207272
199 25.098039 37.647059 12.549020 6.946416 9.613690 2.238964
200 25.098039 37.647059 25.098039 7.473395 9.836949 4.869338
201 62.745098 62.745098 50.196078 31.953633 34.330636 19.321743
202 62.745098 62.745098 75.294118 36.407731 36.217643 41.553989
203 62.745098 75.294118 50.196078 38.714755 46.917874 21.026742
204 62.745098 75.294118 62.745098 40.656242 47.740398 30.717508
205 62.745098 75.294118 75.294118 43.168853 48.804882 43.258989
206 87.843137 100.000000 75.294118 78.552532 91.468388 48.399660
207 100.000000 62.745098 62.745098 62.170919 49.580706 29.915895
208 100.000000 62.745098 75.294118 64.683529 50.645190 42.457376
209 100.000000 62.745098 87.843137 67.807277 51.968586 58.049294
210 100.000000 62.745098 100.000000 71.450578 53.512094 76.234523
211 25.098039 37.647059 37.647059 8.413589 10.235268 9.562234
212 37.647059 25.098039 25.098039 7.808290 6.588697 4.322874
213 37.647059 25.098039 37.647059 8.748483 6.987016 9.015769
214 37.647059 25.098039 50.196078 10.163611 7.586544 16.079257
215 37.647059 37.647059 25.098039 10.338234 11.298714 4.960867
216 75.294118 62.745098 62.745098 41.551227 39.059640 29.257114
217 75.294118 62.745098 75.294118 44.063838 40.124123 41.798595
218 75.294118 62.745098 87.843137 47.187586 41.447519 57.390514
219 75.294118 62.745098 100.000000 50.830887 42.991028 75.575742
220 75.294118 75.294118 62.745098 48.312349 51.646878 30.962114
221 100.000000 75.294118 62.745098 68.932041 62.167944 31.620894
222 100.000000 75.294118 87.843137 74.568399 64.555824 59.754294
223 100.000000 87.843137 62.745098 77.337656 77.816749 33.740598
224 100.000000 87.843137 75.294118 79.850266 78.881233 46.282079
225 100.000000 100.000000 62.745098 87.141326 96.068326 36.212859
226 0.000000 0.000000 0.000000 0.000000 0.000000 0.000000
227 0.000000 0.000000 0.000000 0.000000 0.000000 0.000000
228 3.137255 3.137255 3.137255 0.234131 0.242821 0.200404
229 6.274510 6.274510 6.274510 0.499607 0.518150 0.427638
230 9.411765 9.411765 9.411765 0.880715 0.913403 0.753847
231 12.549020 12.549020 12.549020 1.392690 1.444380 1.192072
232 15.686275 15.686275 15.686275 2.045958 2.121895 1.751236
233 18.823529 18.823529 18.823529 2.849899 2.955675 2.439369
234 21.960784 21.960784 21.960784 3.813087 3.954612 3.263810
235 25.098039 25.098039 25.098039 4.943452 5.126931 4.231345
236 28.235294 28.235294 28.235294 6.248395 6.480308 5.348310
237 31.372549 31.372549 31.372549 7.734874 8.021959 6.620661
238 34.509804 34.509804 34.509804 9.409468 9.758707 8.054029
239 37.647059 37.647059 37.647059 11.278427 11.697033 9.653763
240 40.784314 40.784314 40.784314 13.347713 13.843122 11.424967
241 43.921569 43.921569 43.921569 15.623032 16.202891 13.372525
242 47.058824 47.058824 47.058824 18.109864 18.782023 15.501128
243 50.196078 50.196078 50.196078 20.813482 21.585988 17.815288
244 53.333333 53.333333 53.333333 23.738975 24.620062 20.319362
245 56.470588 56.470588 56.470588 26.891260 27.889347 23.017558
246 59.607843 59.607843 59.607843 30.275101 31.398781 25.913955
247 62.745098 62.745098 62.745098 33.895120 35.153159 29.012508
248 65.882353 65.882353 65.882353 37.755804 39.157136 32.317059
249 69.019608 69.019608 69.019608 41.861522 43.415239 35.831345
250 72.156863 72.156863 72.156863 46.216525 47.931881 39.559007
251 75.294118 75.294118 75.294118 50.824960 52.711362 43.503595
252 78.431373 78.431373 78.431373 55.690876 57.757879 47.668573
253 81.568627 81.568627 81.568627 60.818225 63.075533 52.057324
254 84.705882 84.705882 84.705882 66.210875 68.668335 56.673160
255 87.843137 87.843137 87.843137 71.872609 74.540208 61.519318
256 90.980392 90.980392 90.980392 77.807132 80.694995 66.598970
257 94.117647 94.117647 94.117647 84.018077 87.136463 71.915224
258 97.254902 97.254902 97.254902 90.509003 93.868304 77.471129
259 100.000000 100.000000 100.000000 96.420986 99.999714 82.531487
260 3.137255 0.000000 0.000000 0.105880 0.054025 0.003383
261 9.411765 6.274510 6.274510 0.671954 0.606089 0.433145
262 15.686275 12.549020 12.549020 1.688114 1.595119 1.201510
263 21.960784 18.823529 18.823529 3.285477 3.177926 2.453286
264 28.235294 25.098039 25.098039 5.533580 5.428041 4.250199
265 34.509804 31.372549 31.372549 8.492169 8.408364 6.644856
266 40.784314 37.647059 37.647059 12.214211 12.174511 9.683661
267 47.058824 43.921569 43.921569 16.747641 16.776716 13.408456
268 53.333333 50.196078 50.196078 22.136465 22.261032 17.857556
269 59.607843 56.470588 56.470588 28.421520 28.670152 23.066449
270 65.882353 62.745098 62.745098 35.641020 36.043994 29.068288
271 72.156863 69.019608 69.019608 43.830966 44.420136 35.894267
272 78.431373 75.294118 75.294118 53.025452 53.834149 43.573899
273 84.705882 81.568627 81.568627 63.256919 64.319861 52.135238
274 90.980392 87.843137 87.843137 74.556352 75.909571 61.605061
275 97.254902 94.117647 94.117647 86.953440 88.634213 72.009006
276 100.000000 97.254902 97.254902 93.182553 95.232466 77.556546
277 100.000000 94.117647 94.117647 89.626990 89.998375 72.094424
278 94.117647 87.843137 87.843137 77.365101 77.342717 61.694798
279 87.843137 81.568627 81.568627 65.817301 65.626280 52.217040
280 81.568627 75.294118 75.294118 55.344171 55.017260 43.647980
281 75.294118 69.019608 69.019608 45.915018 45.483510 35.960851
282 69.019608 62.745098 62.745098 37.497731 36.991369 29.127608
283 62.745098 56.470588 56.470588 30.058585 29.505454 23.118751
284 56.470588 50.196078 50.196078 23.562009 22.988407 17.903101
285 50.196078 43.921569 43.921569 17.970287 17.400563 13.447518
286 43.921569 37.647059 37.647059 13.243169 12.699530 9.716535
287 37.647059 31.372549 31.372549 9.337360 8.839617 6.671859
288 31.372549 25.098039 25.098039 6.205804 5.771039 4.271676
289 25.098039 18.823529 18.823529 3.796657 3.438752 2.469618
290 18.823529 12.549020 12.549020 2.051677 1.780624 1.213126
291 12.549020 6.274510 6.274510 0.903482 0.724225 0.440542
292 6.274510 0.000000 0.000000 0.225935 0.115282 0.007218
293 6.274510 0.000000 0.000000 0.225935 0.115282 0.007218
294 0.000000 3.137255 0.000000 0.093503 0.174075 0.023579
295 6.274510 9.411765 6.274510 0.651807 0.801502 0.466020
296 12.549020 15.686275 12.549020 1.653580 1.930081 1.257862
297 18.823529 21.960784 18.823529 3.234559 3.671800 2.536372
298 25.098039 28.235294 25.098039 5.464595 6.097149 4.362765
299 31.372549 34.509804 31.372549 8.403642 9.267010 6.789309
300 37.647059 40.784314 37.647059 12.104820 13.235535 9.862160
301 43.921569 47.058824 43.921569 16.616176 18.051836 13.622973
302 50.196078 53.333333 50.196078 21.981811 23.761075 18.109914
303 56.470588 59.607843 56.470588 28.242635 30.405213 23.358344
304 62.745098 65.882353 62.745098 35.436928 38.023556 29.401317
305 69.019608 72.156863 69.019608 43.600741 46.653159 36.269936
306 75.294118 78.431373 75.294118 52.768218 56.329142 43.993640
307 81.568627 84.705882 81.568627 62.971840 67.084937 52.600417
308 87.843137 90.980392 87.843137 74.242628 78.952492 62.116982
309 94.117647 97.254902 94.117647 86.610301 91.962429 72.568924
310 97.254902 100.000000 97.254902 92.870020 98.263829 78.066523
311 94.117647 100.000000 94.117647 88.971318 96.357954 73.164318
312 87.843137 94.117647 87.843137 76.723038 83.570293 62.742485
313 81.568627 87.843137 81.568627 65.232917 71.294404 53.170609
314 75.294118 81.568627 75.294118 54.815883 60.141296 44.510014
315 69.019608 75.294118 69.019608 45.441172 50.079504 36.734051
316 62.745098 69.019608 62.745098 37.076592 41.076133 29.814802
317 56.470588 62.745098 56.470588 29.688330 33.096676 23.722915
318 50.196078 56.470588 50.196078 23.240711 26.104781 18.427379
319 43.921569 50.196078 43.921569 17.695897 20.061961 13.895254
320 37.647059 43.921569 37.647059 13.013494 14.927222 10.091307
321 31.372549 37.647059 31.372549 9.150032 10.656570 6.977531
322 25.098039 31.372549 25.098039 6.058238 7.202338 4.512468
323 18.823529 25.098039 18.823529 3.685983 4.512219 2.650211
324 12.549020 18.823529 12.549020 1.974643 2.527807 1.338827
325 6.274510 12.549020 6.274510 0.856270 1.182152 0.517580
326 0.000000 6.274510 0.000000 0.199524 0.371455 0.050315
327 0.000000 6.274510 0.000000 0.199524 0.371455 0.050315
328 0.000000 0.000000 3.137255 0.034748 0.014721 0.173442
329 6.274510 6.274510 9.411765 0.556168 0.542113 0.709960
330 12.549020 12.549020 15.686275 1.489643 1.485455 1.676007
331 18.823529 18.823529 21.960784 2.992849 3.016237 3.152891
332 25.098039 25.098039 28.235294 5.137122 5.208981 5.198035
333 31.372549 31.372549 34.509804 7.983406 8.127251 7.861186
334 37.647059 37.647059 40.784314 11.585536 11.827142 11.186672
335 43.921569 43.921569 47.058824 15.992111 16.359254 15.214749
336 50.196078 50.196078 53.333333 21.247664 21.769932 19.982468
337 56.470588 56.470588 59.607843 27.393466 28.102110 25.524279
338 62.745098 62.745098 65.882353 34.468096 35.395904 31.872470
339 69.019608 69.019608 72.156863 42.507861 43.689065 39.057494
340 75.294118 75.294118 78.431373 51.547126 53.017312 47.108224
341 81.568627 81.568627 84.705882 61.618565 63.414602 56.052153
342 87.843137 87.843137 90.980392 72.753370 74.913348 65.915562
343 94.117647 94.117647 97.254902 84.981416 87.544587 76.723647
344 97.254902 97.254902 100.000000 91.386419 94.240027 81.850675
345 94.117647 94.117647 100.000000 85.858831 87.916310 81.103193
346 87.843137 87.843137 94.117647 73.675156 75.303868 70.516577
347 81.568627 81.568627 87.843137 62.458841 63.770591 60.246318
348 75.294118 75.294118 81.568627 52.308092 53.339700 50.906520
349 69.019608 69.019608 75.294118 43.191814 43.978826 42.471384
350 62.745098 62.745098 69.019608 35.077439 35.654056 34.913951
351 56.470588 56.470588 62.745098 27.930725 28.329723 28.205958
352 50.196078 50.196078 56.470588 21.715504 21.968136 22.317654
353 43.921569 43.921569 50.196078 16.393363 16.529247 17.217566
354 37.647059 37.647059 43.921569 11.923224 11.970206 12.872209
355 31.372549 31.372549 37.647059 8.260784 8.244764 9.245695
356 25.098039 25.098039 31.372549 5.357735 5.302445 6.299207
357 18.823529 18.823529 25.098039 3.160610 3.087310 3.990255
358 12.549020 12.549020 18.823529 1.608959 1.536004 2.271560
359 6.274510 6.274510 12.549020 0.632152 0.574304 1.089226
360 0.000000 0.000000 6.274510 0.074148 0.031413 0.370105
361 0.000000 0.000000 6.274510 0.074148 0.031413 0.370105
362 0.000000 3.137255 3.137255 0.128251 0.188796 0.197021
363 6.274510 9.411765 9.411765 0.708368 0.825464 0.748341
364 12.549020 15.686275 15.686275 1.750533 1.971156 1.741798
365 18.823529 21.960784 21.960784 3.377509 3.732361 3.249893
366 25.098039 28.235294 28.235294 5.658266 6.179199 5.329456
367 31.372549 34.509804 34.509804 8.652174 9.372302 8.029834
368 37.647059 40.784314 40.784314 12.411929 13.365644 11.395070
369 43.921569 47.058824 47.058824 16.985255 18.208199 15.465197
370 50.196078 53.333333 53.333333 22.415992 23.945019 20.277093
371 56.470588 59.607843 59.607843 28.744842 30.617976 25.865065
372 62.745098 65.882353 65.882353 36.009904 38.266301 32.261279
373 69.019608 72.156863 72.156863 44.247081 46.926985 39.496085
374 75.294118 78.431373 78.431373 53.490384 56.635092 47.598269
375 81.568627 84.705882 84.705882 63.772180 67.424006 56.595246
376 87.843137 90.980392 90.980392 75.123389 79.325632 66.513226
