Example Targets Read/SpyderPrint Targets/Expert Target (3-pages, 729-patches)/Expert Target Page 2 of 3 (243-patches).ti2
CTI2

DESCRIPTOR "Argyll Calibration Target chart information 2"
ORIGINATOR "read_image_patch_colors.py"
CREATED "Mon Dec  1 04:06:09 2025"
ACCURATE_EXPECTED_VALUES "true"
APPROX_WHITE_POINT "95.053991 99.997087 108.929552"
COLOR_REP "iRGB"
STEPS_IN_PASS "14"
PASSES_IN_STRIPS2 "18"
STRIP_INDEX_PATTERN "0-9,@-9;1-99"
PATCH_INDEX_PATTERN "A-Z, A-Z"
INDEX_ORDER "STRIP_THEN_PATCH"

NUMBER_OF_FIELDS 8
BEGIN_DATA_FORMAT
SAMPLE_ID SAMPLE_LOC RGB_R RGB_G RGB_B XYZ_X XYZ_Y XYZ_Z
END_DATA_FORMAT

NUMBER_OF_SETS 243
BEGIN_DATA
1 "A1" 37.647059 0.000000 0.000000 4.823861 2.487204 0.226034
2 "B1" 37.647059 0.000000 12.549020 5.084573 2.591473 1.599216
3 "C1" 37.647059 0.000000 25.098039 5.749303 2.857324 5.100375
4 "D1" 37.647059 0.000000 37.647059 6.935256 3.331632 11.346839
5 "E1" 37.647059 0.000000 50.196078 8.720384 4.045573 20.749177
6 "F1" 37.647059 0.000000 62.745098 11.169451 5.025048 33.648509
7 "G1" 37.647059 0.000000 75.294118 14.339029 6.292684 50.342807
8 "H1" 37.647059 0.000000 87.843137 18.279322 7.868557 71.096485
9 "I1" 37.647059 0.000000 100.000000 22.875060 9.706569 95.302423
10 "J1" 50.196078 0.000000 0.000000 8.902304 4.590068 0.417140
11 "K1" 50.196078 0.000000 12.549020 9.163017 4.694337 1.790322
12 "L1" 50.196078 0.000000 25.098039 9.827746 4.960188 5.291481
13 "M1" 50.196078 0.000000 37.647059 11.013700 5.434496 11.537945
14 "N1" 50.196078 0.000000 50.196078 12.798827 6.148437 20.940283
15 "O1" 50.196078 0.000000 62.745098 15.247894 7.127912 33.839615
16 "P1" 50.196078 0.000000 75.294118 18.417473 8.395548 50.533913
17 "Q1" 50.196078 0.000000 87.843137 22.357765 9.971421 71.287591
18 "R1" 50.196078 0.000000 100.000000 26.953504 11.809433 95.493529
19 "A2" 62.745098 0.000000 0.000000 14.497636 7.475046 0.679324
20 "B2" 62.745098 0.000000 12.549020 14.758348 7.579315 2.052506
21 "C2" 62.745098 0.000000 25.098039 15.423078 7.845166 5.553664
22 "D2" 62.745098 0.000000 37.647059 16.609031 8.319474 11.800128
23 "E2" 62.745098 0.000000 50.196078 18.394159 9.033414 21.202467
24 "F2" 62.745098 0.000000 62.745098 20.843225 10.012890 34.101799
25 "G2" 62.745098 0.000000 75.294118 24.012804 11.280525 50.796096
26 "H2" 62.745098 0.000000 87.843137 27.953097 12.856399 71.549775
27 "I2" 62.745098 0.000000 100.000000 32.548835 14.694410 95.755713
28 "J2" 37.647059 12.549020 0.000000 5.340363 3.520070 0.398204
29 "K2" 37.647059 12.549020 12.549020 5.601075 3.624339 1.771386
30 "L2" 37.647059 12.549020 25.098039 6.265805 3.890190 5.272545
31 "M2" 37.647059 12.549020 37.647059 7.451759 4.364498 11.519009
32 "N2" 37.647059 12.549020 50.196078 9.236886 5.078439 20.921347
33 "O2" 37.647059 12.549020 62.745098 11.685953 6.057914 33.820679
34 "P2" 37.647059 12.549020 75.294118 14.855532 7.325550 50.514976
35 "Q2" 37.647059 12.549020 87.843137 18.795824 8.901423 71.268655
36 "R2" 37.647059 12.549020 100.000000 23.391563 10.739435 95.474593
37 "A3" 50.196078 12.549020 0.000000 9.418807 5.622934 0.589310
38 "B3" 50.196078 12.549020 12.549020 9.679519 5.727203 1.962492
39 "C3" 50.196078 12.549020 25.098039 10.344249 5.993054 5.463651
40 "D3" 50.196078 12.549020 37.647059 11.530202 6.467362 11.710115
41 "E3" 50.196078 12.549020 50.196078 13.315330 7.181302 21.112453
42 "F3" 50.196078 12.549020 62.745098 15.764396 8.160778 34.011785
43 "G3" 50.196078 12.549020 75.294118 18.933975 9.428413 50.706082
44 "H3" 50.196078 12.549020 87.843137 22.874268 11.004287 71.459761
45 "I3" 50.196078 12.549020 100.000000 27.470006 12.842298 95.665699
46 "J3" 62.745098 12.549020 0.000000 15.014138 8.507912 0.851494
47 "K3" 62.745098 12.549020 12.549020 15.274850 8.612181 2.224676
48 "L3" 62.745098 12.549020 25.098039 15.939580 8.878031 5.725834
49 "M3" 62.745098 12.549020 37.647059 17.125533 9.352340 11.972298
50 "N3" 62.745098 12.549020 50.196078 18.910661 10.066280 21.374637
51 "O3" 62.745098 12.549020 62.745098 21.359728 11.045756 34.273969
52 "P3" 62.745098 12.549020 75.294118 24.529306 12.313391 50.968266
53 "Q3" 62.745098 12.549020 87.843137 28.469599 13.889265 71.721945
54 "R3" 62.745098 12.549020 100.000000 33.065337 15.727276 95.927883
55 "A4" 37.647059 25.098039 0.000000 6.657273 6.153535 0.837180
56 "B4" 37.647059 25.098039 12.549020 6.917985 6.257804 2.210362
57 "C4" 37.647059 25.098039 25.098039 7.582715 6.523655 5.711521
58 "D4" 37.647059 25.098039 37.647059 8.768668 6.997963 11.957985
59 "E4" 37.647059 25.098039 50.196078 10.553796 7.711904 21.360323
60 "F4" 37.647059 25.098039 62.745098 13.002862 8.691379 34.259655
61 "G4" 37.647059 25.098039 75.294118 16.172441 9.959015 50.953953
62 "H4" 37.647059 25.098039 87.843137 20.112734 11.534888 71.707631
63 "I4" 37.647059 25.098039 100.000000 24.708472 13.372900 95.913569
64 "J4" 50.196078 25.098039 0.000000 10.735716 8.256399 1.028286
65 "K4" 50.196078 25.098039 12.549020 10.996429 8.360668 2.401468
66 "L4" 50.196078 25.098039 25.098039 11.661158 8.626519 5.902627
67 "M4" 50.196078 25.098039 37.647059 12.847112 9.100827 12.149091
68 "N4" 50.196078 25.098039 50.196078 14.632239 9.814768 21.551429
69 "O4" 50.196078 25.098039 62.745098 17.081306 10.794243 34.450761
70 "P4" 50.196078 25.098039 75.294118 20.250885 12.061879 51.145059
71 "Q4" 50.196078 25.098039 87.843137 24.191177 13.637752 71.898737
72 "R4" 50.196078 25.098039 100.000000 28.786916 15.475764 96.104675
73 "A5" 62.745098 25.098039 0.000000 16.331048 11.141377 1.290470
74 "B5" 62.745098 25.098039 12.549020 16.591760 11.245646 2.663652
75 "C5" 62.745098 25.098039 25.098039 17.256490 11.511497 6.164810
76 "D5" 62.745098 25.098039 37.647059 18.442443 11.985805 12.411274
77 "E5" 62.745098 25.098039 50.196078 20.227571 12.699745 21.813613
78 "F5" 62.745098 25.098039 62.745098 22.676637 13.679221 34.712945
79 "G5" 62.745098 25.098039 75.294118 25.846216 14.946856 51.407242
80 "H5" 62.745098 25.098039 87.843137 29.786509 16.522730 72.160921
81 "I5" 62.745098 25.098039 100.000000 34.382247 18.360741 96.366859
82 "J5" 37.647059 37.647059 0.000000 9.006789 10.851936 1.620364
83 "K5" 37.647059 37.647059 12.549020 9.267501 10.956205 2.993546
84 "L5" 37.647059 37.647059 25.098039 9.932231 11.222056 6.494704
85 "M5" 37.647059 37.647059 37.647059 11.118184 11.696364 12.741168
86 "N5" 37.647059 37.647059 50.196078 12.903312 12.410305 22.143506
87 "O5" 37.647059 37.647059 62.745098 15.352379 13.389780 35.042838
88 "P5" 37.647059 37.647059 75.294118 18.521957 14.657416 51.737136
89 "Q5" 37.647059 37.647059 87.843137 22.462250 16.233289 72.490815
90 "R5" 37.647059 37.647059 100.000000 27.057988 18.071301 96.696752
91 "A6" 50.196078 37.647059 0.000000 13.085233 12.954800 1.811470
92 "B6" 50.196078 37.647059 12.549020 13.345945 13.059069 3.184652
93 "C6" 50.196078 37.647059 25.098039 14.010675 13.324919 6.685810
94 "D6" 50.196078 37.647059 37.647059 15.196628 13.799228 12.932274
95 "E6" 50.196078 37.647059 50.196078 16.981756 14.513168 22.334612
96 "F6" 50.196078 37.647059 62.745098 19.430822 15.492644 35.233944
97 "G6" 50.196078 37.647059 75.294118 22.600401 16.760279 51.928242
98 "H6" 50.196078 37.647059 87.843137 26.540694 18.336153 72.681921
99 "I6" 50.196078 37.647059 100.000000 31.136432 20.174164 96.887858
100 "J6" 62.745098 37.647059 0.000000 18.680564 15.839778 2.073653
101 "K6" 62.745098 37.647059 12.549020 18.941276 15.944047 3.446835
102 "L6" 62.745098 37.647059 25.098039 19.606006 16.209897 6.947993
103 "M6" 62.745098 37.647059 37.647059 20.791959 16.684205 13.194457
104 "N6" 62.745098 37.647059 50.196078 22.577087 17.398146 22.596796
105 "O6" 62.745098 37.647059 62.745098 25.026153 18.377622 35.496128
106 "P6" 62.745098 37.647059 75.294118 28.195732 19.645257 52.190425
107 "Q6" 62.745098 37.647059 87.843137 32.136025 21.221131 72.944104
108 "R6" 62.745098 37.647059 100.000000 36.731763 23.059142 97.150042
109 "A7" 37.647059 50.196078 0.000000 12.543341 17.924090 2.799231
110 "B7" 37.647059 50.196078 12.549020 12.804053 18.028359 4.172413
111 "C7" 37.647059 50.196078 25.098039 13.468783 18.294210 7.673571
112 "D7" 37.647059 50.196078 37.647059 14.654737 18.768518 13.920035
113 "E7" 37.647059 50.196078 50.196078 16.439864 19.482458 23.322374
114 "F7" 37.647059 50.196078 62.745098 18.888931 20.461934 36.221706
115 "G7" 37.647059 50.196078 75.294118 22.058510 21.729569 52.916003
116 "H7" 37.647059 50.196078 87.843137 25.998802 23.305443 73.669682
117 "I7" 37.647059 50.196078 100.000000 30.594541 25.143454 97.875620
118 "J7" 50.196078 50.196078 0.000000 16.621785 20.026954 2.990337
119 "K7" 50.196078 50.196078 12.549020 16.882497 20.131223 4.363519
120 "L7" 50.196078 50.196078 25.098039 17.547227 20.397073 7.864677
121 "M7" 50.196078 50.196078 37.647059 18.733180 20.871381 14.111141
122 "N7" 50.196078 50.196078 50.196078 20.518308 21.585322 23.513480
123 "O7" 50.196078 50.196078 62.745098 22.967374 22.564798 36.412812
124 "P7" 50.196078 50.196078 75.294118 26.136953 23.832433 53.107109
125 "Q7" 50.196078 50.196078 87.843137 30.077246 25.408307 73.860788
126 "R7" 50.196078 50.196078 100.000000 34.672984 27.246318 98.066726
127 "A8" 62.745098 50.196078 0.000000 22.217116 22.911932 3.252521
128 "B8" 62.745098 50.196078 12.549020 22.477828 23.016200 4.625703
129 "C8" 62.745098 50.196078 25.098039 23.142558 23.282051 8.126861
130 "D8" 62.745098 50.196078 37.647059 24.328511 23.756359 14.373325
131 "E8" 62.745098 50.196078 50.196078 26.113639 24.470300 23.775663
132 "F8" 62.745098 50.196078 62.745098 28.562706 25.449775 36.674995
133 "G8" 62.745098 50.196078 75.294118 31.732284 26.717411 53.369293
134 "H8" 62.745098 50.196078 87.843137 35.672577 28.293285 74.122972
135 "I8" 62.745098 50.196078 100.000000 40.268315 30.131296 98.328909
136 "J8" 37.647059 62.745098 0.000000 17.395237 27.626576 4.416552
137 "K8" 37.647059 62.745098 12.549020 17.655949 27.730845 5.789734
138 "L8" 37.647059 62.745098 25.098039 18.320679 27.996696 9.290893
139 "M8" 37.647059 62.745098 37.647059 19.506632 28.471004 15.537357
140 "N8" 37.647059 62.745098 50.196078 21.291760 29.184945 24.939695
141 "O8" 37.647059 62.745098 62.745098 23.740826 30.164420 37.839027
142 "P8" 37.647059 62.745098 75.294118 26.910405 31.432056 54.533324
143 "Q8" 37.647059 62.745098 87.843137 30.850698 33.007930 75.287003
144 "R8" 37.647059 62.745098 100.000000 35.446436 34.845941 99.492941
145 "A9" 50.196078 62.745098 0.000000 21.473680 29.729440 4.607658
146 "B9" 50.196078 62.745098 12.549020 21.734392 29.833709 5.980840
147 "C9" 50.196078 62.745098 25.098039 22.399122 30.099560 9.481999
148 "D9" 50.196078 62.745098 37.647059 23.585076 30.573868 15.728463
149 "E9" 50.196078 62.745098 50.196078 25.370203 31.287809 25.130801
150 "F9" 50.196078 62.745098 62.745098 27.819270 32.267284 38.030133
151 "G9" 50.196078 62.745098 75.294118 30.988848 33.534920 54.724430
152 "H9" 50.196078 62.745098 87.843137 34.929141 35.110793 75.478109
153 "I9" 50.196078 62.745098 100.000000 39.524879 36.948805 99.684047
154 "J9" 62.745098 62.745098 0.000000 27.069011 32.614418 4.869842
155 "K9" 62.745098 62.745098 12.549020 27.329724 32.718687 6.243024
156 "L9" 62.745098 62.745098 25.098039 27.994453 32.984538 9.744182
157 "M9" 62.745098 62.745098 37.647059 29.180407 33.458846 15.990646
158 "N9" 62.745098 62.745098 50.196078 30.965534 34.172787 25.392985
159 "O9" 62.745098 62.745098 62.745098 33.414601 35.152262 38.292317
160 "P9" 62.745098 62.745098 75.294118 36.584180 36.419898 54.986614
161 "Q9" 62.745098 62.745098 87.843137 40.524472 37.995771 75.740293
162 "R9" 62.745098 62.745098 100.000000 45.120211 39.833783 99.946231
163 "A10" 37.647059 75.294118 0.000000 23.674553 40.183521 6.509687
164 "B10" 37.647059 75.294118 12.549020 23.935265 40.287790 7.882869
165 "C10" 37.647059 75.294118 25.098039 24.599995 40.553640 11.384028
166 "D10" 37.647059 75.294118 37.647059 25.785948 41.027949 17.630492
167 "E10" 37.647059 75.294118 50.196078 27.571076 41.741889 27.032830
168 "F10" 37.647059 75.294118 62.745098 30.020142 42.721365 39.932162
169 "G10" 37.647059 75.294118 75.294118 33.189721 43.989000 56.626459
170 "H10" 37.647059 75.294118 87.843137 37.130014 45.564874 77.380138
171 "I10" 37.647059 75.294118 100.000000 41.725752 47.402885 101.586076
172 "J10" 50.196078 75.294118 0.000000 27.752996 42.286385 6.700793
173 "K10" 50.196078 75.294118 12.549020 28.013709 42.390653 8.073975
174 "L10" 50.196078 75.294118 25.098039 28.678438 42.656504 11.575134
175 "M10" 50.196078 75.294118 37.647059 29.864392 43.130812 17.821598
176 "N10" 50.196078 75.294118 50.196078 31.649519 43.844753 27.223936
177 "O10" 50.196078 75.294118 62.745098 34.098586 44.824228 40.123268
178 "P10" 50.196078 75.294118 75.294118 37.268165 46.091864 56.817565
179 "Q10" 50.196078 75.294118 87.843137 41.208457 47.667738 77.571244
180 "R10" 50.196078 75.294118 100.000000 45.804196 49.505749 101.777182
181 "A11" 62.745098 75.294118 0.000000 33.348328 45.171362 6.962977
182 "B11" 62.745098 75.294118 12.549020 33.609040 45.275631 8.336159
183 "C11" 62.745098 75.294118 25.098039 34.273770 45.541482 11.837317
184 "D11" 62.745098 75.294118 37.647059 35.459723 46.015790 18.083781
185 "E11" 62.745098 75.294118 50.196078 37.244851 46.729731 27.486120
186 "F11" 62.745098 75.294118 62.745098 39.693917 47.709206 40.385452
187 "G11" 62.745098 75.294118 75.294118 42.863496 48.976842 57.079749
188 "H11" 62.745098 75.294118 87.843137 46.803789 50.552716 77.833428
189 "I11" 62.745098 75.294118 100.000000 51.399527 52.390727 102.039366
190 "J11" 37.647059 87.843137 0.000000 31.480746 55.793809 9.111789
191 "K11" 37.647059 87.843137 12.549020 31.741458 55.898078 10.484971
192 "L11" 37.647059 87.843137 25.098039 32.406188 56.163929 13.986129
193 "M11" 37.647059 87.843137 37.647059 33.592141 56.638237 20.232593
194 "N11" 37.647059 87.843137 50.196078 35.377269 57.352177 29.634931
195 "O11" 37.647059 87.843137 62.745098 37.826336 58.331653 42.534263
196 "P11" 37.647059 87.843137 75.294118 40.995914 59.599288 59.228561
197 "Q11" 37.647059 87.843137 87.843137 44.936207 61.175162 79.982240
198 "R11" 37.647059 87.843137 100.000000 49.531945 63.013173 104.188177
199 "A12" 50.196078 87.843137 0.000000 35.559190 57.896673 9.302895
200 "B12" 50.196078 87.843137 12.549020 35.819902 58.000941 10.676077
201 "C12" 50.196078 87.843137 25.098039 36.484632 58.266792 14.177235
202 "D12" 50.196078 87.843137 37.647059 37.670585 58.741100 20.423699
203 "E12" 50.196078 87.843137 50.196078 39.455713 59.455041 29.826037
204 "F12" 50.196078 87.843137 62.745098 41.904779 60.434517 42.725369
205 "G12" 50.196078 87.843137 75.294118 45.074358 61.702152 59.419667
206 "H12" 50.196078 87.843137 87.843137 49.014650 63.278026 80.173346
207 "I12" 50.196078 87.843137 100.000000 53.610389 65.116037 104.379283
208 "J12" 62.745098 87.843137 0.000000 41.154521 60.781651 9.565078
209 "K12" 62.745098 87.843137 12.549020 41.415233 60.885919 10.938260
210 "L12" 62.745098 87.843137 25.098039 42.079963 61.151770 14.439419
211 "M12" 62.745098 87.843137 37.647059 43.265916 61.626078 20.685883
212 "N12" 62.745098 87.843137 50.196078 45.051044 62.340019 30.088221
213 "O12" 62.745098 87.843137 62.745098 47.500110 63.319494 42.987553
214 "P12" 62.745098 87.843137 75.294118 50.669689 64.587130 59.681850
215 "Q12" 62.745098 87.843137 87.843137 54.609982 66.163004 80.435529
216 "R12" 62.745098 87.843137 100.000000 59.205720 68.001015 104.641467
217 "A13" 37.647059 100.000000 0.000000 40.585456 74.000781 12.146735
218 "B13" 37.647059 100.000000 12.549020 40.846168 74.105050 13.519917
219 "C13" 37.647059 100.000000 25.098039 41.510898 74.370901 17.021075
220 "D13" 37.647059 100.000000 37.647059 42.696851 74.845209 23.267539
221 "E13" 37.647059 100.000000 50.196078 44.481979 75.559150 32.669877
222 "F13" 37.647059 100.000000 62.745098 46.931046 76.538625 45.569210
223 "G13" 37.647059 100.000000 75.294118 50.100624 77.806261 62.263507
224 "H13" 37.647059 100.000000 87.843137 54.040917 79.382134 83.017186
225 "I13" 37.647059 100.000000 100.000000 58.636655 81.220146 107.223124
226 "J13" 50.196078 100.000000 0.000000 44.663899 76.103645 12.337841
227 "K13" 50.196078 100.000000 12.549020 44.924612 76.207914 13.711023
228 "L13" 50.196078 100.000000 25.098039 45.589341 76.473765 17.212181
229 "M13" 50.196078 100.000000 37.647059 46.775295 76.948073 23.458645
230 "N13" 50.196078 100.000000 50.196078 48.560422 77.662014 32.860983
231 "O13" 50.196078 100.000000 62.745098 51.009489 78.641489 45.760316
232 "P13" 50.196078 100.000000 75.294118 54.179068 79.909125 62.454613
233 "Q13" 50.196078 100.000000 87.843137 58.119360 81.484998 83.208292
234 "R13" 50.196078 100.000000 100.000000 62.715099 83.323010 107.414230
235 "A14" 62.745098 100.000000 0.000000 50.259231 78.988623 12.600025
236 "B14" 62.745098 100.000000 12.549020 50.519943 79.092892 13.973207
237 "C14" 62.745098 100.000000 25.098039 51.184673 79.358743 17.474365
238 "D14" 62.745098 100.000000 37.647059 52.370626 79.833051 23.720829
239 "E14" 62.745098 100.000000 50.196078 54.155754 80.546991 33.123167
240 "F14" 62.745098 100.000000 62.745098 56.604820 81.526467 46.022499
241 "G14" 62.745098 100.000000 75.294118 59.774399 82.794102 62.716797
242 "H14" 62.745098 100.000000 87.843137 63.714692 84.369976 83.470476
243 "I14" 62.745098 100.000000 100.000000 68.310430 86.207988 107.676413
END_DATA
