Example Targets Read/ArgyllCMS printtarg targets/Size A4/A4-Expert Target Plus Grays (2 pages - 1012 patches)-i1/A4-Expert Target Plus Grays (2 pages - 1012 patches)-i1.ti1
CTI1

DESCRIPTOR "Argyll Calibration Target chart information 1"
ORIGINATOR "read_image_patch_colors.py (colormath backend)"
CREATED "Wed Nov 19 22:32:35 2025"
ACCURATE_EXPECTED_VALUES "true"
WHITE_COLOR_PATCHES "24"
BLACK_COLOR_PATCHES "26"
APPROX_WHITE_POINT "96.420986 99.999714 82.531487"
COLOR_REP "iRGB"

NUMBER_OF_FIELDS 7
BEGIN_DATA_FORMAT
SAMPLE_ID RGB_R RGB_G RGB_B XYZ_X XYZ_Y XYZ_Z
END_DATA_FORMAT

NUMBER_OF_SETS 1012
BEGIN_DATA
1 0.000000 0.000000 0.000000 0.000000 0.000000 0.000000
2 0.000000 0.000000 12.549020 0.206693 0.087567 1.031693
3 0.000000 0.000000 25.098039 0.733673 0.310825 3.662067
4 0.000000 0.000000 37.647059 1.673867 0.709144 8.354963
5 0.000000 0.000000 50.196078 3.088994 1.308672 15.418450
6 0.000000 0.000000 62.745098 5.030481 2.131196 25.109216
7 0.000000 0.000000 75.294118 7.543092 3.195680 37.650697
8 0.000000 0.000000 87.843137 10.666839 4.519076 53.242616
9 0.000000 0.000000 100.000000 14.310141 6.062584 71.427844
10 12.549020 0.000000 0.000000 0.629810 0.321357 0.020122
11 12.549020 0.000000 12.549020 0.836503 0.408924 1.051814
12 12.549020 0.000000 25.098039 1.363483 0.632182 3.682189
13 12.549020 0.000000 37.647059 2.303677 1.030501 8.375084
14 12.549020 0.000000 50.196078 3.718804 1.630029 15.438572
15 12.549020 0.000000 62.745098 5.660291 2.452552 25.129338
16 12.549020 0.000000 75.294118 8.172902 3.517036 37.670819
17 12.549020 0.000000 87.843137 11.296649 4.840432 53.262737
18 12.549020 0.000000 100.000000 14.939951 6.383940 71.447966
19 25.098039 0.000000 0.000000 2.235556 1.140678 0.071424
20 25.098039 0.000000 12.549020 2.442249 1.228245 1.103117
21 25.098039 0.000000 25.098039 2.969229 1.451503 3.733491
22 25.098039 0.000000 37.647059 3.909422 1.849823 8.426387
23 25.098039 0.000000 50.196078 5.324550 2.449350 15.489874
24 25.098039 0.000000 62.745098 7.266037 3.271874 25.180640
25 25.098039 0.000000 75.294118 9.778647 4.336358 37.722121
26 25.098039 0.000000 87.843137 12.902395 5.659754 53.314040
27 25.098039 0.000000 100.000000 16.545696 7.203262 71.499268
28 0.000000 12.549020 0.000000 0.556186 1.035457 0.140257
29 0.000000 12.549020 12.549020 0.762880 1.123024 1.171950
30 0.000000 12.549020 25.098039 1.289859 1.346282 3.802324
31 0.000000 12.549020 37.647059 2.230053 1.744601 8.495220
32 0.000000 12.549020 50.196078 3.645180 2.344129 15.558708
33 0.000000 12.549020 62.745098 5.586667 3.166653 25.249473
34 0.000000 12.549020 75.294118 8.099278 4.231136 37.790954
35 0.000000 12.549020 87.843137 11.223025 5.554532 53.382873
36 0.000000 12.549020 100.000000 14.866327 7.098041 71.568101
37 12.549020 12.549020 0.000000 1.185996 1.356813 0.160379
38 12.549020 12.549020 12.549020 1.392690 1.444380 1.192072
39 12.549020 12.549020 25.098039 1.919669 1.667639 3.822446
40 12.549020 12.549020 37.647059 2.859863 2.065958 8.515342
41 12.549020 12.549020 50.196078 4.274990 2.665486 15.578829
42 12.549020 12.549020 62.745098 6.216477 3.488009 25.269595
43 12.549020 12.549020 75.294118 8.729088 4.552493 37.811076
44 12.549020 12.549020 87.843137 11.852835 5.875889 53.402995
45 12.549020 12.549020 100.000000 15.496137 7.419397 71.588223
46 25.098039 12.549020 0.000000 2.791742 2.176135 0.211681
47 25.098039 12.549020 12.549020 2.998435 2.263702 1.243374
48 25.098039 12.549020 25.098039 3.525415 2.486960 3.873748
49 25.098039 12.549020 37.647059 4.465609 2.885279 8.566644
50 25.098039 12.549020 50.196078 5.880736 3.484807 15.630132
51 25.098039 12.549020 62.745098 7.822223 4.307331 25.320897
52 25.098039 12.549020 75.294118 10.334833 5.371814 37.862378
53 25.098039 12.549020 87.843137 13.458581 6.695210 53.454297
54 25.098039 12.549020 100.000000 17.101883 8.238719 71.639525
55 0.000000 25.098039 0.000000 1.974223 3.675428 0.497854
56 0.000000 25.098039 12.549020 2.180916 3.762995 1.529546
57 0.000000 25.098039 25.098039 2.707896 3.986253 4.159921
58 0.000000 25.098039 37.647059 3.648090 4.384572 8.852816
59 0.000000 25.098039 50.196078 5.063217 4.984100 15.916304
60 0.000000 25.098039 62.745098 7.004704 5.806624 25.607069
61 0.000000 25.098039 75.294118 9.517315 6.871107 38.148551
62 0.000000 25.098039 87.843137 12.641062 8.194503 53.740469
63 0.000000 25.098039 100.000000 16.284364 9.738012 71.925698
64 12.549020 25.098039 0.000000 2.604033 3.996784 0.517976
65 12.549020 25.098039 12.549020 2.810726 4.084351 1.549668
66 12.549020 25.098039 25.098039 3.337706 4.307610 4.180042
67 12.549020 25.098039 37.647059 4.277900 4.705929 8.872938
68 12.549020 25.098039 50.196078 5.693027 5.305457 15.936426
69 12.549020 25.098039 62.745098 7.634514 6.127980 25.627191
70 12.549020 25.098039 75.294118 10.147125 7.192464 38.168673
71 12.549020 25.098039 87.843137 13.270872 8.515860 53.760591
72 12.549020 25.098039 100.000000 16.914174 10.059368 71.945820
73 25.098039 25.098039 0.000000 4.209779 4.816106 0.569278
74 25.098039 25.098039 12.549020 4.416472 4.903673 1.600970
75 25.098039 25.098039 25.098039 4.943452 5.126931 4.231345
76 25.098039 25.098039 37.647059 5.883645 5.525250 8.924240
77 25.098039 25.098039 50.196078 7.298773 6.124778 15.987728
78 25.098039 25.098039 62.745098 9.240260 6.947302 25.678493
79 25.098039 25.098039 75.294118 11.752870 8.011785 38.219975
80 25.098039 25.098039 87.843137 14.876618 9.335181 53.811893
81 25.098039 25.098039 100.000000 18.519919 10.878690 71.997122
82 0.000000 37.647059 0.000000 4.504167 8.385445 1.135848
83 0.000000 37.647059 12.549020 4.710860 8.473012 2.167540
84 0.000000 37.647059 25.098039 5.237840 8.696271 4.797914
85 0.000000 37.647059 37.647059 6.178033 9.094590 9.490810
86 0.000000 37.647059 50.196078 7.593161 9.694118 16.554298
87 0.000000 37.647059 62.745098 9.534648 10.516641 26.245063
88 0.000000 37.647059 75.294118 12.047258 11.581125 38.786544
89 0.000000 37.647059 87.843137 15.171006 12.904521 54.378463
90 0.000000 37.647059 100.000000 18.814307 14.448029 72.563691
91 12.549020 37.647059 0.000000 5.133977 8.706802 1.155969
92 12.549020 37.647059 12.549020 5.340670 8.794369 2.187662
93 12.549020 37.647059 25.098039 5.867650 9.017627 4.818036
94 12.549020 37.647059 37.647059 6.807843 9.415946 9.510932
95 12.549020 37.647059 50.196078 8.222971 10.015474 16.574420
96 12.549020 37.647059 62.745098 10.164458 10.837998 26.265185
97 12.549020 37.647059 75.294118 12.677068 11.902482 38.806666
98 12.549020 37.647059 87.843137 15.800816 13.225877 54.398585
99 12.549020 37.647059 100.000000 19.444117 14.769386 72.583813
100 25.098039 37.647059 0.000000 6.739722 9.526123 1.207272
101 25.098039 37.647059 12.549020 6.946416 9.613690 2.238964
102 25.098039 37.647059 25.098039 7.473395 9.836949 4.869338
103 25.098039 37.647059 37.647059 8.413589 10.235268 9.562234
104 25.098039 37.647059 50.196078 9.828716 10.834796 16.625722
105 25.098039 37.647059 62.745098 11.770203 11.657319 26.316487
106 25.098039 37.647059 75.294118 14.282814 12.721803 38.857968
107 25.098039 37.647059 87.843137 17.406561 14.045199 54.449887
108 25.098039 37.647059 100.000000 21.049863 15.588707 72.635115
109 0.000000 50.196078 0.000000 8.312098 15.474704 2.096120
110 0.000000 50.196078 12.549020 8.518792 15.562271 3.127813
111 0.000000 50.196078 25.098039 9.045771 15.785529 5.758187
112 0.000000 50.196078 37.647059 9.985965 16.183848 10.451083
113 0.000000 50.196078 50.196078 11.401092 16.783376 17.514571
114 0.000000 50.196078 62.745098 13.342579 17.605900 27.205336
115 0.000000 50.196078 75.294118 15.855190 18.670383 39.746817
116 0.000000 50.196078 87.843137 18.978937 19.993779 55.338736
117 0.000000 50.196078 100.000000 22.622239 21.537288 73.523964
118 12.549020 50.196078 0.000000 8.941908 15.796060 2.116242
119 12.549020 50.196078 12.549020 9.148602 15.883627 3.147935
120 12.549020 50.196078 25.098039 9.675581 16.106886 5.778309
121 12.549020 50.196078 37.647059 10.615775 16.505205 10.471205
122 12.549020 50.196078 50.196078 12.030902 17.104733 17.534692
123 12.549020 50.196078 62.745098 13.972389 17.927256 27.225458
124 12.549020 50.196078 75.294118 16.485000 18.991740 39.766939
125 12.549020 50.196078 87.843137 19.608747 20.315136 55.358858
126 12.549020 50.196078 100.000000 23.252049 21.858644 73.544086
127 25.098039 50.196078 0.000000 10.547654 16.615382 2.167544
128 25.098039 50.196078 12.549020 10.754347 16.702949 3.199237
129 25.098039 50.196078 25.098039 11.281327 16.926207 5.829611
130 25.098039 50.196078 37.647059 12.221520 17.324526 10.522507
131 25.098039 50.196078 50.196078 13.636648 17.924054 17.585995
132 25.098039 50.196078 62.745098 15.578135 18.746578 27.276760
133 25.098039 50.196078 75.294118 18.090745 19.811061 39.818241
134 25.098039 50.196078 87.843137 21.214493 21.134457 55.410160
135 25.098039 50.196078 100.000000 24.857794 22.677966 73.595388
136 0.000000 62.745098 0.000000 13.536397 25.200826 3.413569
137 0.000000 62.745098 12.549020 13.743091 25.288393 4.445261
138 0.000000 62.745098 25.098039 14.270070 25.511651 7.075636
139 0.000000 62.745098 37.647059 15.210264 25.909970 11.768531
140 0.000000 62.745098 50.196078 16.625391 26.509498 18.832019
141 0.000000 62.745098 62.745098 18.566878 27.332021 28.522785
142 0.000000 62.745098 75.294118 21.079489 28.396505 41.064266
143 0.000000 62.745098 87.843137 24.203236 29.719901 56.656184
144 0.000000 62.745098 100.000000 27.846538 31.263410 74.841413
145 12.549020 62.745098 0.000000 14.166207 25.522182 3.433691
146 12.549020 62.745098 12.549020 14.372901 25.609749 4.465383
147 12.549020 62.745098 25.098039 14.899880 25.833007 7.095758
148 12.549020 62.745098 37.647059 15.840074 26.231327 11.788653
149 12.549020 62.745098 50.196078 17.255201 26.830854 18.852141
150 12.549020 62.745098 62.745098 19.196688 27.653378 28.542906
151 12.549020 62.745098 75.294118 21.709299 28.717862 41.084388
152 12.549020 62.745098 87.843137 24.833046 30.041258 56.676306
153 12.549020 62.745098 100.000000 28.476348 31.584766 74.861535
154 25.098039 62.745098 0.000000 15.771953 26.341504 3.484993
155 25.098039 62.745098 12.549020 15.978646 26.429071 4.516685
156 25.098039 62.745098 25.098039 16.505626 26.652329 7.147060
157 25.098039 62.745098 37.647059 17.445819 27.050648 11.839955
158 25.098039 62.745098 50.196078 18.860947 27.650176 18.903443
159 25.098039 62.745098 62.745098 20.802434 28.472699 28.594209
160 25.098039 62.745098 75.294118 23.315044 29.537183 41.135690
161 25.098039 62.745098 87.843137 26.438792 30.860579 56.727608
162 25.098039 62.745098 100.000000 30.082094 32.404088 74.912837
163 0.000000 75.294118 0.000000 20.297519 37.788064 5.118569
164 0.000000 75.294118 12.549020 20.504213 37.875631 6.150261
165 0.000000 75.294118 25.098039 21.031192 38.098889 8.780636
166 0.000000 75.294118 37.647059 21.971386 38.497208 13.473531
167 0.000000 75.294118 50.196078 23.386513 39.096736 20.537019
168 0.000000 75.294118 62.745098 25.328000 39.919260 30.227784
169 0.000000 75.294118 75.294118 27.840611 40.983744 42.769266
170 0.000000 75.294118 87.843137 30.964358 42.307139 58.361184
171 0.000000 75.294118 100.000000 34.607660 43.850648 76.546413
172 12.549020 75.294118 0.000000 20.927329 38.109420 5.138691
173 12.549020 75.294118 12.549020 21.134023 38.196987 6.170383
174 12.549020 75.294118 25.098039 21.661002 38.420246 8.800758
175 12.549020 75.294118 37.647059 22.601196 38.818565 13.493653
176 12.549020 75.294118 50.196078 24.016323 39.418093 20.557141
177 12.549020 75.294118 62.745098 25.957810 40.240616 30.247906
178 12.549020 75.294118 75.294118 28.470421 41.305100 42.789388
179 12.549020 75.294118 87.843137 31.594168 42.628496 58.381306
180 12.549020 75.294118 100.000000 35.237470 44.172004 76.566535
181 25.098039 75.294118 0.000000 22.533075 38.928742 5.189993
182 25.098039 75.294118 12.549020 22.739768 39.016309 6.221685
183 25.098039 75.294118 25.098039 23.266748 39.239567 8.852060
184 25.098039 75.294118 37.647059 24.206942 39.637886 13.544955
185 25.098039 75.294118 50.196078 25.622069 40.237414 20.608443
186 25.098039 75.294118 62.745098 27.563556 41.059938 30.299208
187 25.098039 75.294118 75.294118 30.076166 42.124422 42.840690
188 25.098039 75.294118 87.843137 33.199914 43.447817 58.432608
189 25.098039 75.294118 100.000000 36.843216 44.991326 76.617837
190 0.000000 87.843137 0.000000 28.703134 53.436869 7.238272
191 0.000000 87.843137 12.549020 28.909828 53.524436 8.269965
192 0.000000 87.843137 25.098039 29.436808 53.747694 10.900339
193 0.000000 87.843137 37.647059 30.377001 54.146013 15.593235
194 0.000000 87.843137 50.196078 31.792129 54.745541 22.656722
195 0.000000 87.843137 62.745098 33.733615 55.568065 32.347488
196 0.000000 87.843137 75.294118 36.246226 56.632549 44.888969
197 0.000000 87.843137 87.843137 39.369974 57.955945 60.480888
198 0.000000 87.843137 100.000000 43.013275 59.499453 78.666116
199 12.549020 87.843137 0.000000 29.332944 53.758225 7.258394
200 12.549020 87.843137 12.549020 29.539638 53.845792 8.290087
201 12.549020 87.843137 25.098039 30.066618 54.069051 10.920461
202 12.549020 87.843137 37.647059 31.006811 54.467370 15.613357
203 12.549020 87.843137 50.196078 32.421939 55.066898 22.676844
204 12.549020 87.843137 62.745098 34.363425 55.889421 32.367610
205 12.549020 87.843137 75.294118 36.876036 56.953905 44.909091
206 12.549020 87.843137 87.843137 39.999784 58.277301 60.501010
207 12.549020 87.843137 100.000000 43.643085 59.820809 78.686238
208 25.098039 87.843137 0.000000 30.938690 54.577547 7.309696
209 25.098039 87.843137 12.549020 31.145383 54.665114 8.341389
210 25.098039 87.843137 25.098039 31.672363 54.888372 10.971763
211 25.098039 87.843137 37.647059 32.612557 55.286691 15.664659
212 25.098039 87.843137 50.196078 34.027684 55.886219 22.728146
213 25.098039 87.843137 62.745098 35.969171 56.708743 32.418912
214 25.098039 87.843137 75.294118 38.481782 57.773227 44.960393
215 25.098039 87.843137 87.843137 41.605529 59.096623 60.552312
216 25.098039 87.843137 100.000000 45.248831 60.640131 78.737540
217 0.000000 100.000000 0.000000 38.506805 71.688445 9.710533
218 0.000000 100.000000 12.549020 38.713498 71.776012 10.742226
219 0.000000 100.000000 25.098039 39.240478 71.999271 13.372600
220 0.000000 100.000000 37.647059 40.180672 72.397590 18.065496
221 0.000000 100.000000 50.196078 41.595799 72.997118 25.128983
222 0.000000 100.000000 62.745098 43.537286 73.819641 34.819749
223 0.000000 100.000000 75.294118 46.049897 74.884125 47.361230
224 0.000000 100.000000 87.843137 49.173644 76.207521 62.953149
225 0.000000 100.000000 100.000000 52.816946 77.751029 81.138377
226 12.549020 100.000000 0.000000 39.136615 72.009802 9.730655
227 12.549020 100.000000 12.549020 39.343308 72.097369 10.762347
228 12.549020 100.000000 25.098039 39.870288 72.320627 13.392722
229 12.549020 100.000000 37.647059 40.810482 72.718946 18.085617
230 12.549020 100.000000 50.196078 42.225609 73.318474 25.149105
231 12.549020 100.000000 62.745098 44.167096 74.140998 34.839870
232 12.549020 100.000000 75.294118 46.679706 75.205482 47.381352
233 12.549020 100.000000 87.843137 49.803454 76.528877 62.973270
234 12.549020 100.000000 100.000000 53.446756 78.072386 81.158499
235 25.098039 100.000000 0.000000 40.742360 72.829123 9.781957
236 25.098039 100.000000 12.549020 40.949054 72.916690 10.813650
237 25.098039 100.000000 25.098039 41.476034 73.139949 13.444024
238 25.098039 100.000000 37.647059 42.416227 73.538268 18.136920
239 25.098039 100.000000 50.196078 43.831355 74.137796 25.200407
240 25.098039 100.000000 62.745098 45.772841 74.960319 34.891173
241 25.098039 100.000000 75.294118 48.285452 76.024803 47.432654
242 25.098039 100.000000 87.843137 51.409200 77.348199 63.024573
243 25.098039 100.000000 100.000000 55.052501 78.891707 81.209801
244 37.647059 0.000000 0.000000 5.100394 2.602443 0.162953
245 37.647059 0.000000 12.549020 5.307087 2.690011 1.194646
246 37.647059 0.000000 25.098039 5.834067 2.913269 3.825020
247 37.647059 0.000000 37.647059 6.774260 3.311588 8.517916
248 37.647059 0.000000 50.196078 8.189388 3.911116 15.581403
249 37.647059 0.000000 62.745098 10.130875 4.733639 25.272169
250 37.647059 0.000000 75.294118 12.643485 5.798123 37.813650
251 37.647059 0.000000 87.843137 15.767233 7.121519 53.405569
252 37.647059 0.000000 100.000000 19.410534 8.665027 71.590797
253 50.196078 0.000000 0.000000 9.412390 4.802612 0.300717
254 50.196078 0.000000 12.549020 9.619083 4.890179 1.332410
255 50.196078 0.000000 25.098039 10.146063 5.113438 3.962784
256 50.196078 0.000000 37.647059 11.086257 5.511757 8.655680
257 50.196078 0.000000 50.196078 12.501384 6.111285 15.719168
258 50.196078 0.000000 62.745098 14.442871 6.933808 25.409933
259 50.196078 0.000000 75.294118 16.955482 7.998292 37.951414
260 50.196078 0.000000 87.843137 20.079229 9.321688 53.543333
261 50.196078 0.000000 100.000000 23.722531 10.865196 71.728561
262 62.745098 0.000000 0.000000 15.328242 7.821138 0.489724
263 62.745098 0.000000 12.549020 15.534935 7.908705 1.521416
264 62.745098 0.000000 25.098039 16.061915 8.131963 4.151790
265 62.745098 0.000000 37.647059 17.002108 8.530282 8.844686
266 62.745098 0.000000 50.196078 18.417236 9.129810 15.908174
267 62.745098 0.000000 62.745098 20.358723 9.952334 25.598939
268 62.745098 0.000000 75.294118 22.871333 11.016818 38.140421
269 62.745098 0.000000 87.843137 25.995081 12.340214 53.732339
270 62.745098 0.000000 100.000000 29.638382 13.883722 71.917568
271 37.647059 12.549020 0.000000 5.656580 3.637900 0.303210
272 37.647059 12.549020 12.549020 5.863273 3.725467 1.334903
273 37.647059 12.549020 25.098039 6.390253 3.948726 3.965277
274 37.647059 12.549020 37.647059 7.330447 4.347045 8.658173
275 37.647059 12.549020 50.196078 8.745574 4.946573 15.721661
276 37.647059 12.549020 62.745098 10.687061 5.769096 25.412426
277 37.647059 12.549020 75.294118 13.199672 6.833580 37.953907
278 37.647059 12.549020 87.843137 16.323419 8.156976 53.545826
279 37.647059 12.549020 100.000000 19.966721 9.700484 71.731054
280 50.196078 12.549020 0.000000 9.968576 5.838069 0.440975
281 50.196078 12.549020 12.549020 10.175270 5.925636 1.472667
282 50.196078 12.549020 25.098039 10.702249 6.148894 4.103042
283 50.196078 12.549020 37.647059 11.642443 6.547213 8.795937
284 50.196078 12.549020 50.196078 13.057570 7.146741 15.859425
285 50.196078 12.549020 62.745098 14.999057 7.969265 25.550191
286 50.196078 12.549020 75.294118 17.511668 9.033749 38.091672
287 50.196078 12.549020 87.843137 20.635415 10.357144 53.683590
288 50.196078 12.549020 100.000000 24.278717 11.900653 71.868819
289 62.745098 12.549020 0.000000 15.884428 8.856595 0.629981
290 62.745098 12.549020 12.549020 16.091121 8.944162 1.661674
291 62.745098 12.549020 25.098039 16.618101 9.167420 4.292048
292 62.745098 12.549020 37.647059 17.558295 9.565739 8.984944
293 62.745098 12.549020 50.196078 18.973422 10.165267 16.048431
294 62.745098 12.549020 62.745098 20.914909 10.987791 25.739197
295 62.745098 12.549020 75.294118 23.427520 12.052274 38.280678
296 62.745098 12.549020 87.843137 26.551267 13.375670 53.872597
297 62.745098 12.549020 100.000000 30.194569 14.919179 72.057825
298 37.647059 25.098039 0.000000 7.074617 6.277871 0.660807
299 37.647059 25.098039 12.549020 7.281310 6.365438 1.692499
300 37.647059 25.098039 25.098039 7.808290 6.588697 4.322874
301 37.647059 25.098039 37.647059 8.748483 6.987016 9.015769
302 37.647059 25.098039 50.196078 10.163611 7.586544 16.079257
303 37.647059 25.098039 62.745098 12.105098 8.409067 25.770022
304 37.647059 25.098039 75.294118 14.617708 9.473551 38.311504
305 37.647059 25.098039 87.843137 17.741456 10.796947 53.903422
306 37.647059 25.098039 100.000000 21.384758 12.340455 72.088651
307 50.196078 25.098039 0.000000 11.386613 8.478040 0.798571
308 50.196078 25.098039 12.549020 11.593306 8.565607 1.830264
309 50.196078 25.098039 25.098039 12.120286 8.788865 4.460638
310 50.196078 25.098039 37.647059 13.060480 9.187184 9.153534
311 50.196078 25.098039 50.196078 14.475607 9.786712 16.217021
312 50.196078 25.098039 62.745098 16.417094 10.609236 25.907787
313 50.196078 25.098039 75.294118 18.929705 11.673720 38.449268
314 50.196078 25.098039 87.843137 22.053452 12.997116 54.041187
315 50.196078 25.098039 100.000000 25.696754 14.540624 72.226415
316 62.745098 25.098039 0.000000 17.302465 11.496566 0.987577
317 62.745098 25.098039 12.549020 17.509158 11.584133 2.019270
318 62.745098 25.098039 25.098039 18.036138 11.807391 4.649644
319 62.745098 25.098039 37.647059 18.976331 12.205710 9.342540
320 62.745098 25.098039 50.196078 20.391459 12.805238 16.406027
321 62.745098 25.098039 62.745098 22.332946 13.627762 26.096793
322 62.745098 25.098039 75.294118 24.845556 14.692245 38.638274
323 62.745098 25.098039 87.843137 27.969304 16.015641 54.230193
324 62.745098 25.098039 100.000000 31.612605 17.559150 72.415421
325 37.647059 37.647059 0.000000 9.604560 10.987889 1.298801
326 37.647059 37.647059 12.549020 9.811254 11.075456 2.330493
327 37.647059 37.647059 25.098039 10.338234 11.298714 4.960867
328 37.647059 37.647059 37.647059 11.278427 11.697033 9.653763
329 37.647059 37.647059 50.196078 12.693555 12.296561 16.717251
330 37.647059 37.647059 62.745098 14.635041 13.119085 26.408016
331 37.647059 37.647059 75.294118 17.147652 14.183569 38.949497
332 37.647059 37.647059 87.843137 20.271400 15.506964 54.541416
333 37.647059 37.647059 100.000000 23.914701 17.050473 72.726644
334 50.196078 37.647059 0.000000 13.916557 13.188057 1.436565
335 50.196078 37.647059 12.549020 14.123250 13.275625 2.468258
336 50.196078 37.647059 25.098039 14.650230 13.498883 5.098632
337 50.196078 37.647059 37.647059 15.590423 13.897202 9.791528
338 50.196078 37.647059 50.196078 17.005551 14.496730 16.855015
339 50.196078 37.647059 62.745098 18.947038 15.319253 26.545781
340 50.196078 37.647059 75.294118 21.459648 16.383737 39.087262
341 50.196078 37.647059 87.843137 24.583396 17.707133 54.679181
342 50.196078 37.647059 100.000000 28.226697 19.250641 72.864409
343 62.745098 37.647059 0.000000 19.832408 16.206583 1.625571
344 62.745098 37.647059 12.549020 20.039102 16.294150 2.657264
345 62.745098 37.647059 25.098039 20.566081 16.517409 5.287638
346 62.745098 37.647059 37.647059 21.506275 16.915728 9.980534
347 62.745098 37.647059 50.196078 22.921402 17.515256 17.044021
348 62.745098 37.647059 62.745098 24.862889 18.337779 26.734787
349 62.745098 37.647059 75.294118 27.375500 19.402263 39.276268
350 62.745098 37.647059 87.843137 30.499247 20.725659 54.868187
351 62.745098 37.647059 100.000000 34.142549 22.269167 73.053415
352 37.647059 50.196078 0.000000 13.412492 18.077147 2.259073
353 37.647059 50.196078 12.549020 13.619185 18.164714 3.290766
354 37.647059 50.196078 25.098039 14.146165 18.387973 5.921140
355 37.647059 50.196078 37.647059 15.086359 18.786292 10.614036
356 37.647059 50.196078 50.196078 16.501486 19.385820 17.677524
357 37.647059 50.196078 62.745098 18.442973 20.208343 27.368289
358 37.647059 50.196078 75.294118 20.955584 21.272827 39.909770
359 37.647059 50.196078 87.843137 24.079331 22.596223 55.501689
360 37.647059 50.196078 100.000000 27.722633 24.139731 73.686917
361 50.196078 50.196078 0.000000 17.724488 20.277316 2.396838
362 50.196078 50.196078 12.549020 17.931182 20.364883 3.428531
363 50.196078 50.196078 25.098039 18.458161 20.588141 6.058905
364 50.196078 50.196078 37.647059 19.398355 20.986460 10.751801
365 50.196078 50.196078 50.196078 20.813482 21.585988 17.815288
366 50.196078 50.196078 62.745098 22.754969 22.408512 27.506054
367 50.196078 50.196078 75.294118 25.267580 23.472996 40.047535
368 50.196078 50.196078 87.843137 28.391327 24.796391 55.639453
369 50.196078 50.196078 100.000000 32.034629 26.339900 73.824682
370 62.745098 50.196078 0.000000 23.640340 23.295842 2.585844
371 62.745098 50.196078 12.549020 23.847033 23.383409 3.617537
372 62.745098 50.196078 25.098039 24.374013 23.606667 6.247911
373 62.745098 50.196078 37.647059 25.314207 24.004986 10.940807
374 62.745098 50.196078 50.196078 26.729334 24.604514 18.004294
375 62.745098 50.196078 62.745098 28.670821 25.427037 27.695060
376 62.745098 50.196078 75.294118 31.183431 26.491521 40.236541
377 62.745098 50.196078 87.843137 34.307179 27.814917 55.828460
