Example Targets Read/ArgyllCMS printtarg targets/Size Letter/Letter-Expert Target Plus Grays+LaserSoft Advanced (2 pages - 1860 patches)-i1/Letter-Expert Target Plus Grays+LaserSoft Advanced (2 pages - 1860 patches)-i1.ti2
CTI2   

DESCRIPTOR "Argyll Calibration Target chart information 2"
ORIGINATOR "Argyll printtarg"
CREATED "Fri Nov 21 21:12:05 2025"
TARGET_INSTRUMENT "GretagMacbeth i1 Pro"
ACCURATE_EXPECTED_VALUES "true"
APPROX_WHITE_POINT "96.420986 99.999714 82.531487"
COLOR_REP "iRGB"
PAPER_SIZE "215.9x279.4"
CHART_ID "1625"
STEPS_IN_PASS "31"
PASSES_IN_STRIPS2 "30,30"
STRIP_INDEX_PATTERN "A-Z, A-Z"
PATCH_INDEX_PATTERN "0-9,@-9,@-9;1-999"
INDEX_ORDER "STRIP_THEN_PATCH"

NUMBER_OF_FIELDS 8
BEGIN_DATA_FORMAT
SAMPLE_ID SAMPLE_LOC RGB_R RGB_G RGB_B XYZ_X XYZ_Y XYZ_Z 
END_DATA_FORMAT

NUMBER_OF_SETS 1860
BEGIN_DATA
1 "A1" 0.00000 0.00000 0.00000 0.00000 0.00000 0.00000 
2 "A2" 0.00000 0.00000 12.54902 0.206693 0.0875670 1.031693 
3 "A3" 0.00000 0.00000 25.09804 0.733673 0.310825 3.662067 
4 "A4" 0.00000 0.00000 37.64706 1.673867 0.709144 8.354963 
5 "A5" 0.00000 0.00000 50.19608 3.088994 1.308672 15.41845 
6 "A6" 0.00000 0.00000 62.74510 5.030481 2.131196 25.10922 
7 "A7" 0.00000 0.00000 75.29412 7.543092 3.195680 37.65070 
8 "A8" 0.00000 0.00000 87.84314 10.66684 4.519076 53.24262 
9 "A9" 0.00000 0.00000 100.0000 14.31014 6.062584 71.42784 
10 "A10" 12.54902 0.00000 0.00000 0.629810 0.321357 0.0201220 
11 "A11" 12.54902 0.00000 12.54902 0.836503 0.408924 1.051814 
12 "A12" 12.54902 0.00000 25.09804 1.363483 0.632182 3.682189 
13 "A13" 12.54902 0.00000 37.64706 2.303677 1.030501 8.375084 
14 "A14" 12.54902 0.00000 50.19608 3.718804 1.630029 15.43857 
15 "A15" 12.54902 0.00000 62.74510 5.660291 2.452552 25.12934 
16 "A16" 12.54902 0.00000 75.29412 8.172902 3.517036 37.67082 
17 "A17" 12.54902 0.00000 87.84314 11.29665 4.840432 53.26274 
18 "A18" 12.54902 0.00000 100.0000 14.93995 6.383940 71.44797 
19 "A19" 25.09804 0.00000 0.00000 2.235556 1.140678 0.0714240 
20 "A20" 25.09804 0.00000 12.54902 2.442249 1.228245 1.103117 
21 "A21" 25.09804 0.00000 25.09804 2.969229 1.451503 3.733491 
22 "A22" 25.09804 0.00000 37.64706 3.909422 1.849823 8.426387 
23 "A23" 25.09804 0.00000 50.19608 5.324550 2.449350 15.48987 
24 "A24" 25.09804 0.00000 62.74510 7.266037 3.271874 25.18064 
25 "A25" 25.09804 0.00000 75.29412 9.778647 4.336358 37.72212 
26 "A26" 25.09804 0.00000 87.84314 12.90240 5.659754 53.31404 
27 "A27" 25.09804 0.00000 100.0000 16.54570 7.203262 71.49927 
28 "A28" 0.00000 12.54902 0.00000 0.556186 1.035457 0.140257 
29 "A29" 0.00000 12.54902 12.54902 0.762880 1.123024 1.171950 
30 "A30" 0.00000 12.54902 25.09804 1.289859 1.346282 3.802324 
31 "A31" 0.00000 12.54902 37.64706 2.230053 1.744601 8.495220 
32 "B1" 0.00000 12.54902 50.19608 3.645180 2.344129 15.55871 
33 "B2" 0.00000 12.54902 62.74510 5.586667 3.166653 25.24947 
34 "B3" 0.00000 12.54902 75.29412 8.099278 4.231136 37.79095 
35 "B4" 0.00000 12.54902 87.84314 11.22302 5.554532 53.38287 
36 "B5" 0.00000 12.54902 100.0000 14.86633 7.098041 71.56810 
37 "B6" 12.54902 12.54902 0.00000 1.185996 1.356813 0.160379 
38 "B7" 12.54902 12.54902 12.54902 1.392690 1.444380 1.192072 
39 "B8" 12.54902 12.54902 25.09804 1.919669 1.667639 3.822446 
40 "B9" 12.54902 12.54902 37.64706 2.859863 2.065958 8.515342 
41 "B10" 12.54902 12.54902 50.19608 4.274990 2.665486 15.57883 
42 "B11" 12.54902 12.54902 62.74510 6.216477 3.488009 25.26959 
43 "B12" 12.54902 12.54902 75.29412 8.729088 4.552493 37.81108 
44 "B13" 12.54902 12.54902 87.84314 11.85284 5.875889 53.40299 
45 "B14" 12.54902 12.54902 100.0000 15.49614 7.419397 71.58822 
46 "B15" 25.09804 12.54902 0.00000 2.791742 2.176135 0.211681 
47 "B16" 25.09804 12.54902 12.54902 2.998435 2.263702 1.243374 
48 "B17" 25.09804 12.54902 25.09804 3.525415 2.486960 3.873748 
49 "B18" 25.09804 12.54902 37.64706 4.465609 2.885279 8.566644 
50 "B19" 25.09804 12.54902 50.19608 5.880736 3.484807 15.63013 
51 "B20" 25.09804 12.54902 62.74510 7.822223 4.307331 25.32090 
52 "B21" 25.09804 12.54902 75.29412 10.33483 5.371814 37.86238 
53 "B22" 25.09804 12.54902 87.84314 13.45858 6.695210 53.45430 
54 "B23" 25.09804 12.54902 100.0000 17.10188 8.238719 71.63953 
55 "B24" 0.00000 25.09804 0.00000 1.974223 3.675428 0.497854 
56 "B25" 0.00000 25.09804 12.54902 2.180916 3.762995 1.529546 
57 "B26" 0.00000 25.09804 25.09804 2.707896 3.986253 4.159921 
58 "B27" 0.00000 25.09804 37.64706 3.648090 4.384572 8.852816 
59 "B28" 0.00000 25.09804 50.19608 5.063217 4.984100 15.91630 
60 "B29" 0.00000 25.09804 62.74510 7.004704 5.806624 25.60707 
61 "B30" 0.00000 25.09804 75.29412 9.517315 6.871107 38.14855 
62 "B31" 0.00000 25.09804 87.84314 12.64106 8.194503 53.74047 
63 "C1" 0.00000 25.09804 100.0000 16.28436 9.738012 71.92570 
64 "C2" 12.54902 25.09804 0.00000 2.604033 3.996784 0.517976 
65 "C3" 12.54902 25.09804 12.54902 2.810726 4.084351 1.549668 
66 "C4" 12.54902 25.09804 25.09804 3.337706 4.307610 4.180042 
67 "C5" 12.54902 25.09804 37.64706 4.277900 4.705929 8.872938 
68 "C6" 12.54902 25.09804 50.19608 5.693027 5.305457 15.93643 
69 "C7" 12.54902 25.09804 62.74510 7.634514 6.127980 25.62719 
70 "C8" 12.54902 25.09804 75.29412 10.14713 7.192464 38.16867 
71 "C9" 12.54902 25.09804 87.84314 13.27087 8.515860 53.76059 
72 "C10" 12.54902 25.09804 100.0000 16.91417 10.05937 71.94582 
73 "C11" 25.09804 25.09804 0.00000 4.209779 4.816106 0.569278 
74 "C12" 25.09804 25.09804 12.54902 4.416472 4.903673 1.600970 
75 "C13" 25.09804 25.09804 25.09804 4.943452 5.126931 4.231345 
76 "C14" 25.09804 25.09804 37.64706 5.883645 5.525250 8.924240 
77 "C15" 25.09804 25.09804 50.19608 7.298773 6.124778 15.98773 
78 "C16" 25.09804 25.09804 62.74510 9.240260 6.947302 25.67849 
79 "C17" 25.09804 25.09804 75.29412 11.75287 8.011785 38.21997 
80 "C18" 25.09804 25.09804 87.84314 14.87662 9.335181 53.81189 
81 "C19" 25.09804 25.09804 100.0000 18.51992 10.87869 71.99712 
82 "C20" 0.00000 37.64706 0.00000 4.504167 8.385445 1.135848 
83 "C21" 0.00000 37.64706 12.54902 4.710860 8.473012 2.167540 
84 "C22" 0.00000 37.64706 25.09804 5.237840 8.696271 4.797914 
85 "C23" 0.00000 37.64706 37.64706 6.178033 9.094590 9.490810 
86 "C24" 0.00000 37.64706 50.19608 7.593161 9.694118 16.55430 
87 "C25" 0.00000 37.64706 62.74510 9.534648 10.51664 26.24506 
88 "C26" 0.00000 37.64706 75.29412 12.04726 11.58113 38.78654 
89 "C27" 0.00000 37.64706 87.84314 15.17101 12.90452 54.37846 
90 "C28" 0.00000 37.64706 100.0000 18.81431 14.44803 72.56369 
91 "C29" 12.54902 37.64706 0.00000 5.133977 8.706802 1.155969 
92 "C30" 12.54902 37.64706 12.54902 5.340670 8.794369 2.187662 
93 "C31" 12.54902 37.64706 25.09804 5.867650 9.017627 4.818036 
94 "D1" 12.54902 37.64706 37.64706 6.807843 9.415946 9.510932 
95 "D2" 12.54902 37.64706 50.19608 8.222971 10.01547 16.57442 
96 "D3" 12.54902 37.64706 62.74510 10.16446 10.83800 26.26518 
97 "D4" 12.54902 37.64706 75.29412 12.67707 11.90248 38.80667 
98 "D5" 12.54902 37.64706 87.84314 15.80082 13.22588 54.39858 
99 "D6" 12.54902 37.64706 100.0000 19.44412 14.76939 72.58381 
100 "D7" 25.09804 37.64706 0.00000 6.739722 9.526123 1.207272 
101 "D8" 25.09804 37.64706 12.54902 6.946416 9.613690 2.238964 
102 "D9" 25.09804 37.64706 25.09804 7.473395 9.836949 4.869338 
103 "D10" 25.09804 37.64706 37.64706 8.413589 10.23527 9.562234 
104 "D11" 25.09804 37.64706 50.19608 9.828716 10.83480 16.62572 
105 "D12" 25.09804 37.64706 62.74510 11.77020 11.65732 26.31649 
106 "D13" 25.09804 37.64706 75.29412 14.28281 12.72180 38.85797 
107 "D14" 25.09804 37.64706 87.84314 17.40656 14.04520 54.44989 
108 "D15" 25.09804 37.64706 100.0000 21.04986 15.58871 72.63511 
109 "D16" 0.00000 50.19608 0.00000 8.312098 15.47470 2.096120 
110 "D17" 0.00000 50.19608 12.54902 8.518792 15.56227 3.127813 
111 "D18" 0.00000 50.19608 25.09804 9.045771 15.78553 5.758187 
112 "D19" 0.00000 50.19608 37.64706 9.985965 16.18385 10.45108 
113 "D20" 0.00000 50.19608 50.19608 11.40109 16.78338 17.51457 
114 "D21" 0.00000 50.19608 62.74510 13.34258 17.60590 27.20534 
115 "D22" 0.00000 50.19608 75.29412 15.85519 18.67038 39.74682 
116 "D23" 0.00000 50.19608 87.84314 18.97894 19.99378 55.33874 
117 "D24" 0.00000 50.19608 100.0000 22.62224 21.53729 73.52396 
118 "D25" 12.54902 50.19608 0.00000 8.941908 15.79606 2.116242 
119 "D26" 12.54902 50.19608 12.54902 9.148602 15.88363 3.147935 
120 "D27" 12.54902 50.19608 25.09804 9.675581 16.10689 5.778309 
121 "D28" 12.54902 50.19608 37.64706 10.61577 16.50521 10.47120 
122 "D29" 12.54902 50.19608 50.19608 12.03090 17.10473 17.53469 
123 "D30" 12.54902 50.19608 62.74510 13.97239 17.92726 27.22546 
124 "D31" 12.54902 50.19608 75.29412 16.48500 18.99174 39.76694 
125 "E1" 12.54902 50.19608 87.84314 19.60875 20.31514 55.35886 
126 "E2" 12.54902 50.19608 100.0000 23.25205 21.85864 73.54409 
127 "E3" 25.09804 50.19608 0.00000 10.54765 16.61538 2.167544 
128 "E4" 25.09804 50.19608 12.54902 10.75435 16.70295 3.199237 
129 "E5" 25.09804 50.19608 25.09804 11.28133 16.92621 5.829611 
130 "E6" 25.09804 50.19608 37.64706 12.22152 17.32453 10.52251 
131 "E7" 25.09804 50.19608 50.19608 13.63665 17.92405 17.58600 
132 "E8" 25.09804 50.19608 62.74510 15.57813 18.74658 27.27676 
133 "E9" 25.09804 50.19608 75.29412 18.09074 19.81106 39.81824 
134 "E10" 25.09804 50.19608 87.84314 21.21449 21.13446 55.41016 
135 "E11" 25.09804 50.19608 100.0000 24.85779 22.67797 73.59539 
136 "E12" 0.00000 62.74510 0.00000 13.53640 25.20083 3.413569 
137 "E13" 0.00000 62.74510 12.54902 13.74309 25.28839 4.445261 
138 "E14" 0.00000 62.74510 25.09804 14.27007 25.51165 7.075636 
139 "E15" 0.00000 62.74510 37.64706 15.21026 25.90997 11.76853 
140 "E16" 0.00000 62.74510 50.19608 16.62539 26.50950 18.83202 
141 "E17" 0.00000 62.74510 62.74510 18.56688 27.33202 28.52278 
142 "E18" 0.00000 62.74510 75.29412 21.07949 28.39651 41.06427 
143 "E19" 0.00000 62.74510 87.84314 24.20324 29.71990 56.65618 
144 "E20" 0.00000 62.74510 100.0000 27.84654 31.26341 74.84141 
145 "E21" 12.54902 62.74510 0.00000 14.16621 25.52218 3.433691 
146 "E22" 12.54902 62.74510 12.54902 14.37290 25.60975 4.465383 
147 "E23" 12.54902 62.74510 25.09804 14.89988 25.83301 7.095758 
148 "E24" 12.54902 62.74510 37.64706 15.84007 26.23133 11.78865 
149 "E25" 12.54902 62.74510 50.19608 17.25520 26.83085 18.85214 
150 "E26" 12.54902 62.74510 62.74510 19.19669 27.65338 28.54291 
151 "E27" 12.54902 62.74510 75.29412 21.70930 28.71786 41.08439 
152 "E28" 12.54902 62.74510 87.84314 24.83305 30.04126 56.67631 
153 "E29" 12.54902 62.74510 100.0000 28.47635 31.58477 74.86154 
154 "E30" 25.09804 62.74510 0.00000 15.77195 26.34150 3.484993 
155 "E31" 25.09804 62.74510 12.54902 15.97865 26.42907 4.516685 
156 "F1" 25.09804 62.74510 25.09804 16.50563 26.65233 7.147060 
157 "F2" 25.09804 62.74510 37.64706 17.44582 27.05065 11.83995 
158 "F3" 25.09804 62.74510 50.19608 18.86095 27.65018 18.90344 
159 "F4" 25.09804 62.74510 62.74510 20.80243 28.47270 28.59421 
160 "F5" 25.09804 62.74510 75.29412 23.31504 29.53718 41.13569 
161 "F6" 25.09804 62.74510 87.84314 26.43879 30.86058 56.72761 
162 "F7" 25.09804 62.74510 100.0000 30.08209 32.40409 74.91284 
163 "F8" 0.00000 75.29412 0.00000 20.29752 37.78806 5.118569 
164 "F9" 0.00000 75.29412 12.54902 20.50421 37.87563 6.150261 
165 "F10" 0.00000 75.29412 25.09804 21.03119 38.09889 8.780636 
166 "F11" 0.00000 75.29412 37.64706 21.97139 38.49721 13.47353 
167 "F12" 0.00000 75.29412 50.19608 23.38651 39.09674 20.53702 
168 "F13" 0.00000 75.29412 62.74510 25.32800 39.91926 30.22778 
169 "F14" 0.00000 75.29412 75.29412 27.84061 40.98374 42.76927 
170 "F15" 0.00000 75.29412 87.84314 30.96436 42.30714 58.36118 
171 "F16" 0.00000 75.29412 100.0000 34.60766 43.85065 76.54641 
172 "F17" 12.54902 75.29412 0.00000 20.92733 38.10942 5.138691 
173 "F18" 12.54902 75.29412 12.54902 21.13402 38.19699 6.170383 
174 "F19" 12.54902 75.29412 25.09804 21.66100 38.42025 8.800758 
175 "F20" 12.54902 75.29412 37.64706 22.60120 38.81856 13.49365 
176 "F21" 12.54902 75.29412 50.19608 24.01632 39.41809 20.55714 
177 "F22" 12.54902 75.29412 62.74510 25.95781 40.24062 30.24791 
178 "F23" 12.54902 75.29412 75.29412 28.47042 41.30510 42.78939 
179 "F24" 12.54902 75.29412 87.84314 31.59417 42.62850 58.38131 
180 "F25" 12.54902 75.29412 100.0000 35.23747 44.17200 76.56654 
181 "F26" 25.09804 75.29412 0.00000 22.53308 38.92874 5.189993 
182 "F27" 25.09804 75.29412 12.54902 22.73977 39.01631 6.221685 
183 "F28" 25.09804 75.29412 25.09804 23.26675 39.23957 8.852060 
184 "F29" 25.09804 75.29412 37.64706 24.20694 39.63789 13.54495 
185 "F30" 25.09804 75.29412 50.19608 25.62207 40.23741 20.60844 
186 "F31" 25.09804 75.29412 62.74510 27.56356 41.05994 30.29921 
187 "G1" 25.09804 75.29412 75.29412 30.07617 42.12442 42.84069 
188 "G2" 25.09804 75.29412 87.84314 33.19991 43.44782 58.43261 
189 "G3" 25.09804 75.29412 100.0000 36.84322 44.99133 76.61784 
190 "G4" 0.00000 87.84314 0.00000 28.70313 53.43687 7.238272 
191 "G5" 0.00000 87.84314 12.54902 28.90983 53.52444 8.269965 
192 "G6" 0.00000 87.84314 25.09804 29.43681 53.74769 10.90034 
193 "G7" 0.00000 87.84314 37.64706 30.37700 54.14601 15.59323 
194 "G8" 0.00000 87.84314 50.19608 31.79213 54.74554 22.65672 
195 "G9" 0.00000 87.84314 62.74510 33.73362 55.56806 32.34749 
196 "G10" 0.00000 87.84314 75.29412 36.24623 56.63255 44.88897 
197 "G11" 0.00000 87.84314 87.84314 39.36997 57.95594 60.48089 
198 "G12" 0.00000 87.84314 100.0000 43.01328 59.49945 78.66612 
199 "G13" 12.54902 87.84314 0.00000 29.33294 53.75823 7.258394 
200 "G14" 12.54902 87.84314 12.54902 29.53964 53.84579 8.290087 
201 "G15" 12.54902 87.84314 25.09804 30.06662 54.06905 10.92046 
202 "G16" 12.54902 87.84314 37.64706 31.00681 54.46737 15.61336 
203 "G17" 12.54902 87.84314 50.19608 32.42194 55.06690 22.67684 
204 "G18" 12.54902 87.84314 62.74510 34.36342 55.88942 32.36761 
205 "G19" 12.54902 87.84314 75.29412 36.87604 56.95390 44.90909 
206 "G20" 12.54902 87.84314 87.84314 39.99978 58.27730 60.50101 
207 "G21" 12.54902 87.84314 100.0000 43.64308 59.82081 78.68624 
208 "G22" 25.09804 87.84314 0.00000 30.93869 54.57755 7.309696 
209 "G23" 25.09804 87.84314 12.54902 31.14538 54.66511 8.341389 
210 "G24" 25.09804 87.84314 25.09804 31.67236 54.88837 10.97176 
211 "G25" 25.09804 87.84314 37.64706 32.61256 55.28669 15.66466 
212 "G26" 25.09804 87.84314 50.19608 34.02768 55.88622 22.72815 
213 "G27" 25.09804 87.84314 62.74510 35.96917 56.70874 32.41891 
214 "G28" 25.09804 87.84314 75.29412 38.48178 57.77323 44.96039 
215 "G29" 25.09804 87.84314 87.84314 41.60553 59.09662 60.55231 
216 "G30" 25.09804 87.84314 100.0000 45.24883 60.64013 78.73754 
217 "G31" 0.00000 100.0000 0.00000 38.50680 71.68845 9.710533 
218 "H1" 0.00000 100.0000 12.54902 38.71350 71.77601 10.74223 
219 "H2" 0.00000 100.0000 25.09804 39.24048 71.99927 13.37260 
220 "H3" 0.00000 100.0000 37.64706 40.18067 72.39759 18.06550 
221 "H4" 0.00000 100.0000 50.19608 41.59580 72.99712 25.12898 
222 "H5" 0.00000 100.0000 62.74510 43.53729 73.81964 34.81975 
223 "H6" 0.00000 100.0000 75.29412 46.04990 74.88412 47.36123 
224 "H7" 0.00000 100.0000 87.84314 49.17364 76.20752 62.95315 
225 "H8" 0.00000 100.0000 100.0000 52.81695 77.75103 81.13838 
226 "H9" 12.54902 100.0000 0.00000 39.13661 72.00980 9.730655 
227 "H10" 12.54902 100.0000 12.54902 39.34331 72.09737 10.76235 
228 "H11" 12.54902 100.0000 25.09804 39.87029 72.32063 13.39272 
229 "H12" 12.54902 100.0000 37.64706 40.81048 72.71895 18.08562 
230 "H13" 12.54902 100.0000 50.19608 42.22561 73.31847 25.14910 
231 "H14" 12.54902 100.0000 62.74510 44.16710 74.14100 34.83987 
232 "H15" 12.54902 100.0000 75.29412 46.67971 75.20548 47.38135 
233 "H16" 12.54902 100.0000 87.84314 49.80345 76.52888 62.97327 
234 "H17" 12.54902 100.0000 100.0000 53.44676 78.07239 81.15850 
235 "H18" 25.09804 100.0000 0.00000 40.74236 72.82912 9.781957 
236 "H19" 25.09804 100.0000 12.54902 40.94905 72.91669 10.81365 
237 "H20" 25.09804 100.0000 25.09804 41.47603 73.13995 13.44402 
238 "H21" 25.09804 100.0000 37.64706 42.41623 73.53827 18.13692 
239 "H22" 25.09804 100.0000 50.19608 43.83136 74.13780 25.20041 
240 "H23" 25.09804 100.0000 62.74510 45.77284 74.96032 34.89117 
241 "H24" 25.09804 100.0000 75.29412 48.28545 76.02480 47.43265 
242 "H25" 25.09804 100.0000 87.84314 51.40920 77.34820 63.02457 
243 "H26" 25.09804 100.0000 100.0000 55.05250 78.89171 81.20980 
244 "H27" 37.64706 0.00000 0.00000 5.100394 2.602443 0.162953 
245 "H28" 37.64706 0.00000 12.54902 5.307087 2.690011 1.194646 
246 "H29" 37.64706 0.00000 25.09804 5.834067 2.913269 3.825020 
247 "H30" 37.64706 0.00000 37.64706 6.774260 3.311588 8.517916 
248 "H31" 37.64706 0.00000 50.19608 8.189388 3.911116 15.58140 
249 "I1" 37.64706 0.00000 62.74510 10.13087 4.733639 25.27217 
250 "I2" 37.64706 0.00000 75.29412 12.64348 5.798123 37.81365 
251 "I3" 37.64706 0.00000 87.84314 15.76723 7.121519 53.40557 
252 "I4" 37.64706 0.00000 100.0000 19.41053 8.665027 71.59080 
253 "I5" 50.19608 0.00000 0.00000 9.412390 4.802612 0.300717 
254 "I6" 50.19608 0.00000 12.54902 9.619083 4.890179 1.332410 
255 "I7" 50.19608 0.00000 25.09804 10.14606 5.113438 3.962784 
256 "I8" 50.19608 0.00000 37.64706 11.08626 5.511757 8.655680 
257 "I9" 50.19608 0.00000 50.19608 12.50138 6.111285 15.71917 
258 "I10" 50.19608 0.00000 62.74510 14.44287 6.933808 25.40993 
259 "I11" 50.19608 0.00000 75.29412 16.95548 7.998292 37.95141 
260 "I12" 50.19608 0.00000 87.84314 20.07923 9.321688 53.54333 
261 "I13" 50.19608 0.00000 100.0000 23.72253 10.86520 71.72856 
262 "I14" 62.74510 0.00000 0.00000 15.32824 7.821138 0.489724 
263 "I15" 62.74510 0.00000 12.54902 15.53493 7.908705 1.521416 
264 "I16" 62.74510 0.00000 25.09804 16.06191 8.131963 4.151790 
265 "I17" 62.74510 0.00000 37.64706 17.00211 8.530282 8.844686 
266 "I18" 62.74510 0.00000 50.19608 18.41724 9.129810 15.90817 
267 "I19" 62.74510 0.00000 62.74510 20.35872 9.952334 25.59894 
268 "I20" 62.74510 0.00000 75.29412 22.87133 11.01682 38.14042 
269 "I21" 62.74510 0.00000 87.84314 25.99508 12.34021 53.73234 
270 "I22" 62.74510 0.00000 100.0000 29.63838 13.88372 71.91757 
271 "I23" 37.64706 12.54902 0.00000 5.656580 3.637900 0.303210 
272 "I24" 37.64706 12.54902 12.54902 5.863273 3.725467 1.334903 
273 "I25" 37.64706 12.54902 25.09804 6.390253 3.948726 3.965277 
274 "I26" 37.64706 12.54902 37.64706 7.330447 4.347045 8.658173 
275 "I27" 37.64706 12.54902 50.19608 8.745574 4.946573 15.72166 
276 "I28" 37.64706 12.54902 62.74510 10.68706 5.769096 25.41243 
277 "I29" 37.64706 12.54902 75.29412 13.19967 6.833580 37.95391 
278 "I30" 37.64706 12.54902 87.84314 16.32342 8.156976 53.54583 
279 "I31" 37.64706 12.54902 100.0000 19.96672 9.700484 71.73105 
280 "J1" 50.19608 12.54902 0.00000 9.968576 5.838069 0.440975 
281 "J2" 50.19608 12.54902 12.54902 10.17527 5.925636 1.472667 
282 "J3" 50.19608 12.54902 25.09804 10.70225 6.148894 4.103042 
283 "J4" 50.19608 12.54902 37.64706 11.64244 6.547213 8.795937 
284 "J5" 50.19608 12.54902 50.19608 13.05757 7.146741 15.85942 
285 "J6" 50.19608 12.54902 62.74510 14.99906 7.969265 25.55019 
286 "J7" 50.19608 12.54902 75.29412 17.51167 9.033749 38.09167 
287 "J8" 50.19608 12.54902 87.84314 20.63541 10.35714 53.68359 
288 "J9" 50.19608 12.54902 100.0000 24.27872 11.90065 71.86882 
289 "J10" 62.74510 12.54902 0.00000 15.88443 8.856595 0.629981 
290 "J11" 62.74510 12.54902 12.54902 16.09112 8.944162 1.661674 
291 "J12" 62.74510 12.54902 25.09804 16.61810 9.167420 4.292048 
292 "J13" 62.74510 12.54902 37.64706 17.55830 9.565739 8.984944 
293 "J14" 62.74510 12.54902 50.19608 18.97342 10.16527 16.04843 
294 "J15" 62.74510 12.54902 62.74510 20.91491 10.98779 25.73920 
295 "J16" 62.74510 12.54902 75.29412 23.42752 12.05227 38.28068 
296 "J17" 62.74510 12.54902 87.84314 26.55127 13.37567 53.87260 
297 "J18" 62.74510 12.54902 100.0000 30.19457 14.91918 72.05782 
298 "J19" 37.64706 25.09804 0.00000 7.074617 6.277871 0.660807 
299 "J20" 37.64706 25.09804 12.54902 7.281310 6.365438 1.692499 
300 "J21" 37.64706 25.09804 25.09804 7.808290 6.588697 4.322874 
301 "J22" 37.64706 25.09804 37.64706 8.748483 6.987016 9.015769 
302 "J23" 37.64706 25.09804 50.19608 10.16361 7.586544 16.07926 
303 "J24" 37.64706 25.09804 62.74510 12.10510 8.409067 25.77002 
304 "J25" 37.64706 25.09804 75.29412 14.61771 9.473551 38.31150 
305 "J26" 37.64706 25.09804 87.84314 17.74146 10.79695 53.90342 
306 "J27" 37.64706 25.09804 100.0000 21.38476 12.34046 72.08865 
307 "J28" 50.19608 25.09804 0.00000 11.38661 8.478040 0.798571 
308 "J29" 50.19608 25.09804 12.54902 11.59331 8.565607 1.830264 
309 "J30" 50.19608 25.09804 25.09804 12.12029 8.788865 4.460638 
310 "J31" 50.19608 25.09804 37.64706 13.06048 9.187184 9.153534 
311 "K1" 50.19608 25.09804 50.19608 14.47561 9.786712 16.21702 
312 "K2" 50.19608 25.09804 62.74510 16.41709 10.60924 25.90779 
313 "K3" 50.19608 25.09804 75.29412 18.92970 11.67372 38.44927 
314 "K4" 50.19608 25.09804 87.84314 22.05345 12.99712 54.04119 
315 "K5" 50.19608 25.09804 100.0000 25.69675 14.54062 72.22642 
316 "K6" 62.74510 25.09804 0.00000 17.30247 11.49657 0.987577 
317 "K7" 62.74510 25.09804 12.54902 17.50916 11.58413 2.019270 
318 "K8" 62.74510 25.09804 25.09804 18.03614 11.80739 4.649644 
319 "K9" 62.74510 25.09804 37.64706 18.97633 12.20571 9.342540 
320 "K10" 62.74510 25.09804 50.19608 20.39146 12.80524 16.40603 
321 "K11" 62.74510 25.09804 62.74510 22.33295 13.62776 26.09679 
322 "K12" 62.74510 25.09804 75.29412 24.84556 14.69225 38.63827 
323 "K13" 62.74510 25.09804 87.84314 27.96930 16.01564 54.23019 
324 "K14" 62.74510 25.09804 100.0000 31.61260 17.55915 72.41542 
325 "K15" 37.64706 37.64706 0.00000 9.604560 10.98789 1.298801 
326 "K16" 37.64706 37.64706 12.54902 9.811254 11.07546 2.330493 
327 "K17" 37.64706 37.64706 25.09804 10.33823 11.29871 4.960867 
328 "K18" 37.64706 37.64706 37.64706 11.27843 11.69703 9.653763 
329 "K19" 37.64706 37.64706 50.19608 12.69355 12.29656 16.71725 
330 "K20" 37.64706 37.64706 62.74510 14.63504 13.11909 26.40802 
331 "K21" 37.64706 37.64706 75.29412 17.14765 14.18357 38.94950 
332 "K22" 37.64706 37.64706 87.84314 20.27140 15.50696 54.54142 
333 "K23" 37.64706 37.64706 100.0000 23.91470 17.05047 72.72664 
334 "K24" 50.19608 37.64706 0.00000 13.91656 13.18806 1.436565 
335 "K25" 50.19608 37.64706 12.54902 14.12325 13.27562 2.468258 
336 "K26" 50.19608 37.64706 25.09804 14.65023 13.49888 5.098632 
337 "K27" 50.19608 37.64706 37.64706 15.59042 13.89720 9.791528 
338 "K28" 50.19608 37.64706 50.19608 17.00555 14.49673 16.85502 
339 "K29" 50.19608 37.64706 62.74510 18.94704 15.31925 26.54578 
340 "K30" 50.19608 37.64706 75.29412 21.45965 16.38374 39.08726 
341 "K31" 50.19608 37.64706 87.84314 24.58340 17.70713 54.67918 
342 "L1" 50.19608 37.64706 100.0000 28.22670 19.25064 72.86441 
343 "L2" 62.74510 37.64706 0.00000 19.83241 16.20658 1.625571 
344 "L3" 62.74510 37.64706 12.54902 20.03910 16.29415 2.657264 
345 "L4" 62.74510 37.64706 25.09804 20.56608 16.51741 5.287638 
346 "L5" 62.74510 37.64706 37.64706 21.50627 16.91573 9.980534 
347 "L6" 62.74510 37.64706 50.19608 22.92140 17.51526 17.04402 
348 "L7" 62.74510 37.64706 62.74510 24.86289 18.33778 26.73479 
349 "L8" 62.74510 37.64706 75.29412 27.37550 19.40226 39.27627 
350 "L9" 62.74510 37.64706 87.84314 30.49925 20.72566 54.86819 
351 "L10" 62.74510 37.64706 100.0000 34.14255 22.26917 73.05342 
352 "L11" 37.64706 50.19608 0.00000 13.41249 18.07715 2.259073 
353 "L12" 37.64706 50.19608 12.54902 13.61918 18.16471 3.290766 
354 "L13" 37.64706 50.19608 25.09804 14.14616 18.38797 5.921140 
355 "L14" 37.64706 50.19608 37.64706 15.08636 18.78629 10.61404 
356 "L15" 37.64706 50.19608 50.19608 16.50149 19.38582 17.67752 
357 "L16" 37.64706 50.19608 62.74510 18.44297 20.20834 27.36829 
358 "L17" 37.64706 50.19608 75.29412 20.95558 21.27283 39.90977 
359 "L18" 37.64706 50.19608 87.84314 24.07933 22.59622 55.50169 
360 "L19" 37.64706 50.19608 100.0000 27.72263 24.13973 73.68692 
361 "L20" 50.19608 50.19608 0.00000 17.72449 20.27732 2.396838 
362 "L21" 50.19608 50.19608 12.54902 17.93118 20.36488 3.428531 
363 "L22" 50.19608 50.19608 25.09804 18.45816 20.58814 6.058905 
364 "L23" 50.19608 50.19608 37.64706 19.39835 20.98646 10.75180 
365 "L24" 50.19608 50.19608 50.19608 20.81348 21.58599 17.81529 
