Example Targets Read/ArgyllCMS printtarg targets/A4-Expert Target Plus Grays (1 page - 975 patches)-SS/A4-Expert Target Plus Grays (1 page - 975 patches)-SS.ti2
CTI2   

DESCRIPTOR "Argyll Calibration Target chart information 2"
ORIGINATOR "Argyll printtarg"
CREATED "Fri Dec  5 19:05:24 2025"
TARGET_INSTRUMENT "GretagMacbeth SpectroScan"
SINGLE_DIM_STEPS "9"
COMP_GREY_STEPS "38"
ACCURATE_EXPECTED_VALUES "true"
APPROX_WHITE_POINT "95.053991 99.997087 108.929552"
COLOR_REP "iRGB"
PAPER_SIZE "210.0x297.0"
CHART_ID "249"
STEPS_IN_PASS "39"
PASSES_IN_STRIPS2 "25"
STRIP_INDEX_PATTERN "A-Z, A-Z"
PATCH_INDEX_PATTERN "0-9,@-9,@-9;1-999"
INDEX_ORDER "STRIP_THEN_PATCH"

NUMBER_OF_FIELDS 8
BEGIN_DATA_FORMAT
SAMPLE_ID SAMPLE_LOC RGB_R RGB_G RGB_B XYZ_X XYZ_Y XYZ_Z 
END_DATA_FORMAT

NUMBER_OF_SETS 975
BEGIN_DATA
1 "A1" 0.00000 0.00000 0.00000 0.00000 0.00000 0.00000 
2 "A2" 0.00000 0.00000 12.54902 0.260712 0.104269 1.373182 
3 "A3" 0.00000 0.00000 25.09804 0.925442 0.370120 4.874340 
4 "A4" 0.00000 0.00000 37.64706 2.111395 0.844428 11.12080 
5 "A5" 0.00000 0.00000 50.19608 3.896523 1.558368 20.52314 
6 "A6" 0.00000 0.00000 62.74510 6.345590 2.537844 33.42247 
7 "A7" 0.00000 0.00000 75.29412 9.515168 3.805479 50.11677 
8 "A8" 0.00000 0.00000 87.84314 13.45546 5.381353 70.87045 
9 "A9" 0.00000 0.00000 100.0000 18.05120 7.219365 95.07639 
10 "A10" 12.54902 0.00000 0.00000 0.595644 0.307117 0.0279100 
11 "A11" 12.54902 0.00000 12.54902 0.856356 0.411385 1.401092 
12 "A12" 12.54902 0.00000 25.09804 1.521086 0.677236 4.902251 
13 "A13" 12.54902 0.00000 37.64706 2.707039 1.151544 11.14871 
14 "A14" 12.54902 0.00000 50.19608 4.492167 1.865485 20.55105 
15 "A15" 12.54902 0.00000 62.74510 6.941234 2.844960 33.45038 
16 "A16" 12.54902 0.00000 75.29412 10.11081 4.112596 50.14468 
17 "A17" 12.54902 0.00000 87.84314 14.05110 5.688470 70.89836 
18 "A18" 12.54902 0.00000 100.0000 18.64684 7.526481 95.10430 
19 "A19" 25.09804 0.00000 0.00000 2.114338 1.090162 0.0990730 
20 "A20" 25.09804 0.00000 12.54902 2.375050 1.194431 1.472255 
21 "A21" 25.09804 0.00000 25.09804 3.039780 1.460282 4.973413 
22 "A22" 25.09804 0.00000 37.64706 4.225733 1.934590 11.21988 
23 "A23" 25.09804 0.00000 50.19608 6.010861 2.648531 20.62222 
24 "A24" 25.09804 0.00000 62.74510 8.459928 3.628006 33.52155 
25 "A25" 25.09804 0.00000 75.29412 11.62951 4.895642 50.21585 
26 "A26" 25.09804 0.00000 87.84314 15.56980 6.471515 70.96952 
27 "A27" 25.09804 0.00000 100.0000 20.16554 8.309527 95.17546 
28 "A28" 0.00000 12.54902 0.00000 0.516502 1.032866 0.172170 
29 "A29" 0.00000 12.54902 12.54902 0.777215 1.137135 1.545352 
30 "A30" 0.00000 12.54902 25.09804 1.441944 1.402985 5.046510 
31 "A31" 0.00000 12.54902 37.64706 2.627898 1.877294 11.29297 
32 "A32" 0.00000 12.54902 50.19608 4.413025 2.591234 20.69531 
33 "A33" 0.00000 12.54902 62.74510 6.862092 3.570710 33.59464 
34 "A34" 0.00000 12.54902 75.29412 10.03167 4.838345 50.28894 
35 "A35" 0.00000 12.54902 87.84314 13.97196 6.414219 71.04262 
36 "A36" 0.00000 12.54902 100.0000 18.56770 8.252230 95.24856 
37 "A37" 12.54902 12.54902 0.00000 1.112146 1.339982 0.200080 
38 "A38" 12.54902 12.54902 12.54902 1.372858 1.444251 1.573262 
39 "A39" 12.54902 12.54902 25.09804 2.037588 1.710102 5.074421 
40 "B1" 12.54902 12.54902 37.64706 3.223542 2.184410 11.32089 
41 "B2" 12.54902 12.54902 50.19608 5.008669 2.898351 20.72322 
42 "B3" 12.54902 12.54902 62.74510 7.457736 3.877826 33.62255 
43 "B4" 12.54902 12.54902 75.29412 10.62731 5.145462 50.31685 
44 "B5" 12.54902 12.54902 87.84314 14.56761 6.721336 71.07053 
45 "B6" 12.54902 12.54902 100.0000 19.16335 8.559347 95.27647 
46 "B7" 25.09804 12.54902 0.00000 2.630840 2.123028 0.271243 
47 "B8" 25.09804 12.54902 12.54902 2.891553 2.227297 1.644425 
48 "B9" 25.09804 12.54902 25.09804 3.556282 2.493148 5.145583 
49 "B10" 25.09804 12.54902 37.64706 4.742236 2.967456 11.39205 
50 "B11" 25.09804 12.54902 50.19608 6.527363 3.681396 20.79438 
51 "B12" 25.09804 12.54902 62.74510 8.976430 4.660872 33.69372 
52 "B13" 25.09804 12.54902 75.29412 12.14601 5.928507 50.38802 
53 "B14" 25.09804 12.54902 87.84314 16.08630 7.504381 71.14169 
54 "B15" 25.09804 12.54902 100.0000 20.68204 9.342393 95.34763 
55 "B16" 0.00000 25.09804 0.00000 1.833412 3.666331 0.611146 
56 "B17" 0.00000 25.09804 12.54902 2.094124 3.770600 1.984328 
57 "B18" 0.00000 25.09804 25.09804 2.758854 4.036451 5.485486 
58 "B19" 0.00000 25.09804 37.64706 3.944807 4.510759 11.73195 
59 "B20" 0.00000 25.09804 50.19608 5.729935 5.224699 21.13429 
60 "B21" 0.00000 25.09804 62.74510 8.179002 6.204175 34.03362 
61 "B22" 0.00000 25.09804 75.29412 11.34858 7.471810 50.72792 
62 "B23" 0.00000 25.09804 87.84314 15.28887 9.047684 71.48160 
63 "B24" 0.00000 25.09804 100.0000 19.88461 10.88570 95.68753 
64 "B25" 12.54902 25.09804 0.00000 2.429056 3.973448 0.639056 
65 "B26" 12.54902 25.09804 12.54902 2.689768 4.077716 2.012238 
66 "B27" 12.54902 25.09804 25.09804 3.354498 4.343567 5.513397 
67 "B28" 12.54902 25.09804 37.64706 4.540451 4.817875 11.75986 
68 "B29" 12.54902 25.09804 50.19608 6.325579 5.531816 21.16220 
69 "B30" 12.54902 25.09804 62.74510 8.774645 6.511291 34.06153 
70 "B31" 12.54902 25.09804 75.29412 11.94422 7.778927 50.75583 
71 "B32" 12.54902 25.09804 87.84314 15.88452 9.354801 71.50951 
72 "B33" 12.54902 25.09804 100.0000 20.48025 11.19281 95.71545 
73 "B34" 25.09804 25.09804 0.00000 3.947750 4.756493 0.710219 
74 "B35" 25.09804 25.09804 12.54902 4.208462 4.860762 2.083401 
75 "B36" 25.09804 25.09804 25.09804 4.873192 5.126613 5.584559 
76 "B37" 25.09804 25.09804 37.64706 6.059145 5.600921 11.83102 
77 "B38" 25.09804 25.09804 50.19608 7.844273 6.314862 21.23336 
78 "B39" 25.09804 25.09804 62.74510 10.29334 7.294337 34.13269 
79 "C1" 25.09804 25.09804 75.29412 13.46292 8.561973 50.82699 
80 "C2" 25.09804 25.09804 87.84314 17.40321 10.13785 71.58067 
81 "C3" 25.09804 25.09804 100.0000 21.99895 11.97586 95.78661 
82 "C4" 0.00000 37.64706 0.00000 4.182928 8.364732 1.394329 
83 "C5" 0.00000 37.64706 12.54902 4.443640 8.469001 2.767511 
84 "C6" 0.00000 37.64706 25.09804 5.108370 8.734851 6.268669 
85 "C7" 0.00000 37.64706 37.64706 6.294324 9.209160 12.51513 
86 "C8" 0.00000 37.64706 50.19608 8.079451 9.923100 21.91747 
87 "C9" 0.00000 37.64706 62.74510 10.52852 10.90258 34.81680 
88 "C10" 0.00000 37.64706 75.29412 13.69810 12.17021 51.51110 
89 "C11" 0.00000 37.64706 87.84314 17.63839 13.74608 72.26478 
90 "C12" 0.00000 37.64706 100.0000 22.23413 15.58410 96.47072 
91 "C13" 12.54902 37.64706 0.00000 4.778572 8.671848 1.422240 
92 "C14" 12.54902 37.64706 12.54902 5.039284 8.776117 2.795421 
93 "C15" 12.54902 37.64706 25.09804 5.704014 9.041968 6.296580 
94 "C16" 12.54902 37.64706 37.64706 6.889967 9.516276 12.54304 
95 "C17" 12.54902 37.64706 50.19608 8.675095 10.23022 21.94538 
96 "C18" 12.54902 37.64706 62.74510 11.12416 11.20969 34.84471 
97 "C19" 12.54902 37.64706 75.29412 14.29374 12.47733 51.53901 
98 "C20" 12.54902 37.64706 87.84314 18.23403 14.05320 72.29269 
99 "C21" 12.54902 37.64706 100.0000 22.82977 15.89121 96.49863 
100 "C22" 25.09804 37.64706 0.00000 6.297266 9.454894 1.493402 
101 "C23" 25.09804 37.64706 12.54902 6.557978 9.559163 2.866584 
102 "C24" 25.09804 37.64706 25.09804 7.222708 9.825014 6.367742 
103 "C25" 25.09804 37.64706 37.64706 8.408662 10.29932 12.61421 
104 "C26" 25.09804 37.64706 50.19608 10.19379 11.01326 22.01654 
105 "C27" 25.09804 37.64706 62.74510 12.64286 11.99274 34.91588 
106 "C28" 25.09804 37.64706 75.29412 15.81243 13.26037 51.61017 
107 "C29" 25.09804 37.64706 87.84314 19.75273 14.83625 72.36385 
108 "C30" 25.09804 37.64706 100.0000 24.34847 16.67426 96.56979 
109 "C31" 0.00000 50.19608 0.00000 7.719480 15.43689 2.573197 
110 "C32" 0.00000 50.19608 12.54902 7.980193 15.54115 3.946379 
111 "C33" 0.00000 50.19608 25.09804 8.644922 15.80700 7.447537 
112 "C34" 0.00000 50.19608 37.64706 9.830876 16.28131 13.69400 
113 "C35" 0.00000 50.19608 50.19608 11.61600 16.99525 23.09634 
114 "C36" 0.00000 50.19608 62.74510 14.06507 17.97473 35.99567 
115 "C37" 0.00000 50.19608 75.29412 17.23465 19.24236 52.68997 
116 "C38" 0.00000 50.19608 87.84314 21.17494 20.81824 73.44365 
117 "C39" 0.00000 50.19608 100.0000 25.77068 22.65625 97.64959 
118 "D1" 12.54902 50.19608 0.00000 8.315124 15.74400 2.601107 
119 "D2" 12.54902 50.19608 12.54902 8.575836 15.84827 3.974289 
120 "D3" 12.54902 50.19608 25.09804 9.240566 16.11412 7.475447 
121 "D4" 12.54902 50.19608 37.64706 10.42652 16.58843 13.72191 
122 "D5" 12.54902 50.19608 50.19608 12.21165 17.30237 23.12425 
123 "D6" 12.54902 50.19608 62.74510 14.66071 18.28185 36.02358 
124 "D7" 12.54902 50.19608 75.29412 17.83029 19.54948 52.71788 
125 "D8" 12.54902 50.19608 87.84314 21.77059 21.12535 73.47156 
126 "D9" 12.54902 50.19608 100.0000 26.36632 22.96337 97.67750 
127 "D10" 25.09804 50.19608 0.00000 9.833818 16.52705 2.672269 
128 "D11" 25.09804 50.19608 12.54902 10.09453 16.63132 4.045451 
129 "D12" 25.09804 50.19608 25.09804 10.75926 16.89717 7.546610 
130 "D13" 25.09804 50.19608 37.64706 11.94521 17.37148 13.79307 
131 "D14" 25.09804 50.19608 50.19608 13.73034 18.08542 23.19541 
132 "D15" 25.09804 50.19608 62.74510 16.17941 19.06489 36.09474 
133 "D16" 25.09804 50.19608 75.29412 19.34899 20.33253 52.78904 
134 "D17" 25.09804 50.19608 87.84314 23.28928 21.90840 73.54272 
135 "D18" 25.09804 50.19608 100.0000 27.88502 23.74641 97.74866 
136 "D19" 0.00000 62.74510 0.00000 12.57138 25.13937 4.190518 
137 "D20" 0.00000 62.74510 12.54902 12.83209 25.24364 5.563700 
138 "D21" 0.00000 62.74510 25.09804 13.49682 25.50949 9.064858 
139 "D22" 0.00000 62.74510 37.64706 14.68277 25.98380 15.31132 
140 "D23" 0.00000 62.74510 50.19608 16.46790 26.69774 24.71366 
141 "D24" 0.00000 62.74510 62.74510 18.91697 27.67722 37.61299 
142 "D25" 0.00000 62.74510 75.29412 22.08654 28.94485 54.30729 
143 "D26" 0.00000 62.74510 87.84314 26.02684 30.52072 75.06097 
144 "D27" 0.00000 62.74510 100.0000 30.62258 32.35874 99.26691 
145 "D28" 12.54902 62.74510 0.00000 13.16702 25.44649 4.218428 
146 "D29" 12.54902 62.74510 12.54902 13.42773 25.55076 5.591610 
147 "D30" 12.54902 62.74510 25.09804 14.09246 25.81661 9.092769 
148 "D31" 12.54902 62.74510 37.64706 15.27842 26.29092 15.33923 
149 "D32" 12.54902 62.74510 50.19608 17.06354 27.00486 24.74157 
150 "D33" 12.54902 62.74510 62.74510 19.51261 27.98433 37.64090 
151 "D34" 12.54902 62.74510 75.29412 22.68219 29.25197 54.33520 
152 "D35" 12.54902 62.74510 87.84314 26.62248 30.82784 75.08888 
153 "D36" 12.54902 62.74510 100.0000 31.21822 32.66585 99.29482 
154 "D37" 25.09804 62.74510 0.00000 14.68571 26.22953 4.289591 
155 "D38" 25.09804 62.74510 12.54902 14.94643 26.33380 5.662773 
156 "D39" 25.09804 62.74510 25.09804 15.61116 26.59965 9.163931 
157 "E1" 25.09804 62.74510 37.64706 16.79711 27.07396 15.41039 
158 "E2" 25.09804 62.74510 50.19608 18.58224 27.78790 24.81273 
159 "E3" 25.09804 62.74510 62.74510 21.03130 28.76738 37.71207 
160 "E4" 25.09804 62.74510 75.29412 24.20088 30.03501 54.40636 
161 "E5" 25.09804 62.74510 87.84314 28.14118 31.61089 75.16004 
162 "E6" 25.09804 62.74510 100.0000 32.73691 33.44890 99.36598 
163 "E7" 0.00000 75.29412 0.00000 18.85069 37.69632 6.283653 
164 "E8" 0.00000 75.29412 12.54902 19.11140 37.80058 7.656835 
165 "E9" 0.00000 75.29412 25.09804 19.77613 38.06644 11.15799 
166 "E10" 0.00000 75.29412 37.64706 20.96209 38.54074 17.40446 
167 "E11" 0.00000 75.29412 50.19608 22.74722 39.25469 26.80680 
168 "E12" 0.00000 75.29412 62.74510 25.19628 40.23416 39.70613 
169 "E13" 0.00000 75.29412 75.29412 28.36586 41.50180 56.40042 
170 "E14" 0.00000 75.29412 87.84314 32.30615 43.07767 77.15410 
171 "E15" 0.00000 75.29412 100.0000 36.90189 44.91568 101.3600 
172 "E16" 12.54902 75.29412 0.00000 19.44634 38.00343 6.311563 
173 "E17" 12.54902 75.29412 12.54902 19.70705 38.10770 7.684745 
174 "E18" 12.54902 75.29412 25.09804 20.37178 38.37355 11.18590 
175 "E19" 12.54902 75.29412 37.64706 21.55773 38.84786 17.43237 
176 "E20" 12.54902 75.29412 50.19608 23.34286 39.56180 26.83471 
177 "E21" 12.54902 75.29412 62.74510 25.79192 40.54128 39.73404 
178 "E22" 12.54902 75.29412 75.29412 28.96150 41.80891 56.42833 
179 "E23" 12.54902 75.29412 87.84314 32.90180 43.38479 77.18201 
180 "E24" 12.54902 75.29412 100.0000 37.49753 45.22280 101.3880 
181 "E25" 25.09804 75.29412 0.00000 20.96503 38.78648 6.382726 
182 "E26" 25.09804 75.29412 12.54902 21.22574 38.89075 7.755908 
183 "E27" 25.09804 75.29412 25.09804 21.89047 39.15660 11.25707 
184 "E28" 25.09804 75.29412 37.64706 23.07643 39.63091 17.50353 
185 "E29" 25.09804 75.29412 50.19608 24.86155 40.34485 26.90587 
186 "E30" 25.09804 75.29412 62.74510 27.31062 41.32432 39.80520 
187 "E31" 25.09804 75.29412 75.29412 30.48020 42.59196 56.49950 
188 "E32" 25.09804 75.29412 87.84314 34.42049 44.16783 77.25318 
189 "E33" 25.09804 75.29412 100.0000 39.01623 46.00584 101.4591 
190 "E34" 0.00000 87.84314 0.00000 26.65688 53.30660 8.885754 
191 "E35" 0.00000 87.84314 12.54902 26.91760 53.41087 10.25894 
192 "E36" 0.00000 87.84314 25.09804 27.58233 53.67672 13.76009 
193 "E37" 0.00000 87.84314 37.64706 28.76828 54.15103 20.00656 
194 "E38" 0.00000 87.84314 50.19608 30.55341 54.86497 29.40890 
195 "E39" 0.00000 87.84314 62.74510 33.00247 55.84445 42.30823 
196 "F1" 0.00000 87.84314 75.29412 36.17205 57.11208 59.00253 
197 "F2" 0.00000 87.84314 87.84314 40.11235 58.68796 79.75620 
198 "F3" 0.00000 87.84314 100.0000 44.70808 60.52597 103.9621 
199 "F4" 12.54902 87.84314 0.00000 27.25253 53.61372 8.913665 
200 "F5" 12.54902 87.84314 12.54902 27.51324 53.71799 10.28685 
201 "F6" 12.54902 87.84314 25.09804 28.17797 53.98384 13.78801 
202 "F7" 12.54902 87.84314 37.64706 29.36392 54.45815 20.03447 
203 "F8" 12.54902 87.84314 50.19608 31.14905 55.17209 29.43681 
204 "F9" 12.54902 87.84314 62.74510 33.59812 56.15157 42.33614 
205 "F10" 12.54902 87.84314 75.29412 36.76770 57.41920 59.03044 
206 "F11" 12.54902 87.84314 87.84314 40.70799 58.99507 79.78412 
207 "F12" 12.54902 87.84314 100.0000 45.30373 60.83309 103.9901 
208 "F13" 25.09804 87.84314 0.00000 28.77122 54.39677 8.984827 
209 "F14" 25.09804 87.84314 12.54902 29.03194 54.50104 10.35801 
210 "F15" 25.09804 87.84314 25.09804 29.69666 54.76689 13.85917 
211 "F16" 25.09804 87.84314 37.64706 30.88262 55.24119 20.10563 
212 "F17" 25.09804 87.84314 50.19608 32.66775 55.95513 29.50797 
213 "F18" 25.09804 87.84314 62.74510 35.11681 56.93461 42.40730 
214 "F19" 25.09804 87.84314 75.29412 38.28639 58.20225 59.10160 
215 "F20" 25.09804 87.84314 87.84314 42.22668 59.77812 79.85528 
216 "F21" 25.09804 87.84314 100.0000 46.82242 61.61613 104.0612 
217 "F22" 0.00000 100.0000 0.00000 35.76159 71.51358 11.92070 
218 "F23" 0.00000 100.0000 12.54902 36.02231 71.61785 13.29388 
219 "F24" 0.00000 100.0000 25.09804 36.68704 71.88370 16.79504 
220 "F25" 0.00000 100.0000 37.64706 37.87299 72.35801 23.04151 
221 "F26" 0.00000 100.0000 50.19608 39.65812 73.07195 32.44384 
222 "F27" 0.00000 100.0000 62.74510 42.10719 74.05142 45.34318 
223 "F28" 0.00000 100.0000 75.29412 45.27676 75.31906 62.03747 
224 "F29" 0.00000 100.0000 87.84314 49.21706 76.89493 82.79115 
225 "F30" 0.00000 100.0000 100.0000 53.81279 78.73294 106.9971 
226 "F31" 12.54902 100.0000 0.00000 36.35724 71.82069 11.94861 
227 "F32" 12.54902 100.0000 12.54902 36.61795 71.92496 13.32179 
228 "F33" 12.54902 100.0000 25.09804 37.28268 72.19081 16.82295 
229 "F34" 12.54902 100.0000 37.64706 38.46863 72.66512 23.06941 
230 "F35" 12.54902 100.0000 50.19608 40.25376 73.37906 32.47175 
231 "F36" 12.54902 100.0000 62.74510 42.70283 74.35854 45.37109 
232 "F37" 12.54902 100.0000 75.29412 45.87241 75.62617 62.06538 
233 "F38" 12.54902 100.0000 87.84314 49.81270 77.20205 82.81906 
234 "F39" 12.54902 100.0000 100.0000 54.40844 79.04006 107.0250 
235 "G1" 25.09804 100.0000 0.00000 37.87593 72.60374 12.01977 
236 "G2" 25.09804 100.0000 12.54902 38.13665 72.70801 13.39296 
237 "G3" 25.09804 100.0000 25.09804 38.80138 72.97386 16.89411 
238 "G4" 25.09804 100.0000 37.64706 39.98733 73.44817 23.14058 
239 "G5" 25.09804 100.0000 50.19608 41.77246 74.16211 32.54292 
240 "G6" 25.09804 100.0000 62.74510 44.22152 75.14158 45.44225 
241 "G7" 25.09804 100.0000 75.29412 47.39110 76.40922 62.13654 
242 "G8" 25.09804 100.0000 87.84314 51.33139 77.98509 82.89022 
243 "G9" 25.09804 100.0000 100.0000 55.92713 79.82310 107.0962 
244 "G10" 37.64706 0.00000 0.00000 4.823861 2.487204 0.226034 
245 "G11" 37.64706 0.00000 12.54902 5.084573 2.591473 1.599216 
246 "G12" 37.64706 0.00000 25.09804 5.749303 2.857324 5.100375 
247 "G13" 37.64706 0.00000 37.64706 6.935256 3.331632 11.34684 
248 "G14" 37.64706 0.00000 50.19608 8.720384 4.045573 20.74918 
249 "G15" 37.64706 0.00000 62.74510 11.16945 5.025048 33.64851 
250 "G16" 37.64706 0.00000 75.29412 14.33903 6.292684 50.34281 
251 "G17" 37.64706 0.00000 87.84314 18.27932 7.868557 71.09649 
252 "G18" 37.64706 0.00000 100.0000 22.87506 9.706569 95.30242 
253 "G19" 50.19608 0.00000 0.00000 8.902304 4.590068 0.417140 
254 "G20" 50.19608 0.00000 12.54902 9.163017 4.694337 1.790322 
255 "G21" 50.19608 0.00000 25.09804 9.827746 4.960188 5.291481 
256 "G22" 50.19608 0.00000 37.64706 11.01370 5.434496 11.53795 
257 "G23" 50.19608 0.00000 50.19608 12.79883 6.148437 20.94028 
258 "G24" 50.19608 0.00000 62.74510 15.24789 7.127912 33.83962 
259 "G25" 50.19608 0.00000 75.29412 18.41747 8.395548 50.53391 
260 "G26" 50.19608 0.00000 87.84314 22.35777 9.971421 71.28759 
261 "G27" 50.19608 0.00000 100.0000 26.95350 11.80943 95.49353 
262 "G28" 62.74510 0.00000 0.00000 14.49764 7.475046 0.679324 
263 "G29" 62.74510 0.00000 12.54902 14.75835 7.579315 2.052506 
264 "G30" 62.74510 0.00000 25.09804 15.42308 7.845166 5.553664 
265 "G31" 62.74510 0.00000 37.64706 16.60903 8.319474 11.80013 
266 "G32" 62.74510 0.00000 50.19608 18.39416 9.033414 21.20247 
267 "G33" 62.74510 0.00000 62.74510 20.84323 10.01289 34.10180 
268 "G34" 62.74510 0.00000 75.29412 24.01280 11.28053 50.79610 
269 "G35" 62.74510 0.00000 87.84314 27.95310 12.85640 71.54977 
270 "G36" 62.74510 0.00000 100.0000 32.54883 14.69441 95.75571 
271 "G37" 37.64706 12.54902 0.00000 5.340363 3.520070 0.398204 
272 "G38" 37.64706 12.54902 12.54902 5.601075 3.624339 1.771386 
273 "G39" 37.64706 12.54902 25.09804 6.265805 3.890190 5.272545 
274 "H1" 37.64706 12.54902 37.64706 7.451759 4.364498 11.51901 
275 "H2" 37.64706 12.54902 50.19608 9.236886 5.078439 20.92135 
276 "H3" 37.64706 12.54902 62.74510 11.68595 6.057914 33.82068 
277 "H4" 37.64706 12.54902 75.29412 14.85553 7.325550 50.51498 
278 "H5" 37.64706 12.54902 87.84314 18.79582 8.901423 71.26865 
279 "H6" 37.64706 12.54902 100.0000 23.39156 10.73944 95.47459 
280 "H7" 50.19608 12.54902 0.00000 9.418807 5.622934 0.589310 
281 "H8" 50.19608 12.54902 12.54902 9.679519 5.727203 1.962492 
282 "H9" 50.19608 12.54902 25.09804 10.34425 5.993054 5.463651 
283 "H10" 50.19608 12.54902 37.64706 11.53020 6.467362 11.71012 
284 "H11" 50.19608 12.54902 50.19608 13.31533 7.181302 21.11245 
285 "H12" 50.19608 12.54902 62.74510 15.76440 8.160778 34.01179 
286 "H13" 50.19608 12.54902 75.29412 18.93398 9.428413 50.70608 
287 "H14" 50.19608 12.54902 87.84314 22.87427 11.00429 71.45976 
288 "H15" 50.19608 12.54902 100.0000 27.47001 12.84230 95.66570 
289 "H16" 62.74510 12.54902 0.00000 15.01414 8.507912 0.851494 
290 "H17" 62.74510 12.54902 12.54902 15.27485 8.612181 2.224676 
291 "H18" 62.74510 12.54902 25.09804 15.93958 8.878031 5.725834 
292 "H19" 62.74510 12.54902 37.64706 17.12553 9.352340 11.97230 
293 "H20" 62.74510 12.54902 50.19608 18.91066 10.06628 21.37464 
294 "H21" 62.74510 12.54902 62.74510 21.35973 11.04576 34.27397 
295 "H22" 62.74510 12.54902 75.29412 24.52931 12.31339 50.96827 
296 "H23" 62.74510 12.54902 87.84314 28.46960 13.88926 71.72195 
297 "H24" 62.74510 12.54902 100.0000 33.06534 15.72728 95.92788 
298 "H25" 37.64706 25.09804 0.00000 6.657273 6.153535 0.837180 
299 "H26" 37.64706 25.09804 12.54902 6.917985 6.257804 2.210362 
300 "H27" 37.64706 25.09804 25.09804 7.582715 6.523655 5.711521 
301 "H28" 37.64706 25.09804 37.64706 8.768668 6.997963 11.95799 
302 "H29" 37.64706 25.09804 50.19608 10.55380 7.711904 21.36032 
303 "H30" 37.64706 25.09804 62.74510 13.00286 8.691379 34.25966 
304 "H31" 37.64706 25.09804 75.29412 16.17244 9.959015 50.95395 
305 "H32" 37.64706 25.09804 87.84314 20.11273 11.53489 71.70763 
306 "H33" 37.64706 25.09804 100.0000 24.70847 13.37290 95.91357 
307 "H34" 50.19608 25.09804 0.00000 10.73572 8.256399 1.028286 
308 "H35" 50.19608 25.09804 12.54902 10.99643 8.360668 2.401468 
309 "H36" 50.19608 25.09804 25.09804 11.66116 8.626519 5.902627 
310 "H37" 50.19608 25.09804 37.64706 12.84711 9.100827 12.14909 
311 "H38" 50.19608 25.09804 50.19608 14.63224 9.814768 21.55143 
312 "H39" 50.19608 25.09804 62.74510 17.08131 10.79424 34.45076 
313 "I1" 50.19608 25.09804 75.29412 20.25089 12.06188 51.14506 
314 "I2" 50.19608 25.09804 87.84314 24.19118 13.63775 71.89874 
315 "I3" 50.19608 25.09804 100.0000 28.78692 15.47576 96.10468 
316 "I4" 62.74510 25.09804 0.00000 16.33105 11.14138 1.290470 
317 "I5" 62.74510 25.09804 12.54902 16.59176 11.24565 2.663652 
318 "I6" 62.74510 25.09804 25.09804 17.25649 11.51150 6.164810 
319 "I7" 62.74510 25.09804 37.64706 18.44244 11.98580 12.41127 
320 "I8" 62.74510 25.09804 50.19608 20.22757 12.69975 21.81361 
321 "I9" 62.74510 25.09804 62.74510 22.67664 13.67922 34.71294 
322 "I10" 62.74510 25.09804 75.29412 25.84622 14.94686 51.40724 
323 "I11" 62.74510 25.09804 87.84314 29.78651 16.52273 72.16092 
324 "I12" 62.74510 25.09804 100.0000 34.38225 18.36074 96.36686 
325 "I13" 37.64706 37.64706 0.00000 9.006789 10.85194 1.620364 
326 "I14" 37.64706 37.64706 12.54902 9.267501 10.95621 2.993546 
327 "I15" 37.64706 37.64706 25.09804 9.932231 11.22206 6.494704 
328 "I16" 37.64706 37.64706 37.64706 11.11818 11.69636 12.74117 
329 "I17" 37.64706 37.64706 50.19608 12.90331 12.41030 22.14351 
330 "I18" 37.64706 37.64706 62.74510 15.35238 13.38978 35.04284 
331 "I19" 37.64706 37.64706 75.29412 18.52196 14.65742 51.73714 
332 "I20" 37.64706 37.64706 87.84314 22.46225 16.23329 72.49081 
333 "I21" 37.64706 37.64706 100.0000 27.05799 18.07130 96.69675 
334 "I22" 50.19608 37.64706 0.00000 13.08523 12.95480 1.811470 
335 "I23" 50.19608 37.64706 12.54902 13.34595 13.05907 3.184652 
336 "I24" 50.19608 37.64706 25.09804 14.01068 13.32492 6.685810 
337 "I25" 50.19608 37.64706 37.64706 15.19663 13.79923 12.93227 
338 "I26" 50.19608 37.64706 50.19608 16.98176 14.51317 22.33461 
339 "I27" 50.19608 37.64706 62.74510 19.43082 15.49264 35.23394 
340 "I28" 50.19608 37.64706 75.29412 22.60040 16.76028 51.92824 
341 "I29" 50.19608 37.64706 87.84314 26.54069 18.33615 72.68192 
342 "I30" 50.19608 37.64706 100.0000 31.13643 20.17416 96.88786 
343 "I31" 62.74510 37.64706 0.00000 18.68056 15.83978 2.073653 
344 "I32" 62.74510 37.64706 12.54902 18.94128 15.94405 3.446835 
345 "I33" 62.74510 37.64706 25.09804 19.60601 16.20990 6.947993 
346 "I34" 62.74510 37.64706 37.64706 20.79196 16.68420 13.19446 
347 "I35" 62.74510 37.64706 50.19608 22.57709 17.39815 22.59680 
348 "I36" 62.74510 37.64706 62.74510 25.02615 18.37762 35.49613 
349 "I37" 62.74510 37.64706 75.29412 28.19573 19.64526 52.19042 
350 "I38" 62.74510 37.64706 87.84314 32.13602 21.22113 72.94410 
351 "I39" 62.74510 37.64706 100.0000 36.73176 23.05914 97.15004 
352 "J1" 37.64706 50.19608 0.00000 12.54334 17.92409 2.799231 
353 "J2" 37.64706 50.19608 12.54902 12.80405 18.02836 4.172413 
354 "J3" 37.64706 50.19608 25.09804 13.46878 18.29421 7.673571 
355 "J4" 37.64706 50.19608 37.64706 14.65474 18.76852 13.92004 
356 "J5" 37.64706 50.19608 50.19608 16.43986 19.48246 23.32237 
357 "J6" 37.64706 50.19608 62.74510 18.88893 20.46193 36.22171 
358 "J7" 37.64706 50.19608 75.29412 22.05851 21.72957 52.91600 
359 "J8" 37.64706 50.19608 87.84314 25.99880 23.30544 73.66968 
360 "J9" 37.64706 50.19608 100.0000 30.59454 25.14345 97.87562 
361 "J10" 50.19608 50.19608 0.00000 16.62178 20.02695 2.990337 
362 "J11" 50.19608 50.19608 12.54902 16.88250 20.13122 4.363519 
363 "J12" 50.19608 50.19608 25.09804 17.54723 20.39707 7.864677 
364 "J13" 50.19608 50.19608 37.64706 18.73318 20.87138 14.11114 
365 "J14" 50.19608 50.19608 50.19608 20.51831 21.58532 23.51348 
