Example Targets Read/ArgyllCMS printtarg targets/A4-High Quality Target Plus Grays (1 page - 483 patches)-i1/A4-High Quality Target Plus Grays (1 page - 483 patches)-i1.ti1
CTI1

DESCRIPTOR "Argyll Calibration Target chart information 1"
ORIGINATOR "read_image_patch_colors.py"
CREATED "Sat Nov 29 08:00:08 2025"
ACCURATE_EXPECTED_VALUES "true"
APPROX_WHITE_POINT "95.053991 99.997087 108.929552"
COLOR_REP "iRGB"
WHITE_COLOR_PATCHES "12"
BLACK_COLOR_PATCHES "13"
COMP_GREY_STEPS "38"
SINGLE_DIM_STEPS "5"

NUMBER_OF_FIELDS 7
BEGIN_DATA_FORMAT
SAMPLE_ID RGB_R RGB_G RGB_B XYZ_X XYZ_Y XYZ_Z
END_DATA_FORMAT

NUMBER_OF_SETS 483
BEGIN_DATA
1 0.000000 0.000000 0.000000 0.000000 0.000000 0.000000
2 0.000000 0.000000 25.098039 0.925442 0.370120 4.874340
3 0.000000 0.000000 50.196078 3.896523 1.558368 20.523143
4 0.000000 0.000000 75.294118 9.515168 3.805479 50.116772
5 0.000000 0.000000 100.000000 18.051199 7.219365 95.076389
6 25.098039 0.000000 0.000000 2.114338 1.090162 0.099073
7 25.098039 0.000000 25.098039 3.039780 1.460282 4.973413
8 25.098039 0.000000 50.196078 6.010861 2.648531 20.622215
9 25.098039 0.000000 75.294118 11.629506 4.895642 50.215845
10 25.098039 0.000000 100.000000 20.165537 8.309527 95.175461
11 50.196078 0.000000 0.000000 8.902304 4.590068 0.417140
12 50.196078 0.000000 25.098039 9.827746 4.960188 5.291481
13 50.196078 0.000000 50.196078 12.798827 6.148437 20.940283
14 50.196078 0.000000 75.294118 18.417473 8.395548 50.533913
15 50.196078 0.000000 100.000000 26.953504 11.809433 95.493529
16 0.000000 25.098039 0.000000 1.833412 3.666331 0.611146
17 0.000000 25.098039 25.098039 2.758854 4.036451 5.485486
18 0.000000 25.098039 50.196078 5.729935 5.224699 21.134289
19 0.000000 25.098039 75.294118 11.348580 7.471810 50.727918
20 0.000000 25.098039 100.000000 19.884611 10.885695 95.687535
21 25.098039 25.098039 0.000000 3.947750 4.756493 0.710219
22 25.098039 25.098039 25.098039 4.873192 5.126613 5.584559
23 25.098039 25.098039 50.196078 7.844273 6.314862 21.233361
24 25.098039 25.098039 75.294118 13.462918 8.561973 50.826991
25 25.098039 25.098039 100.000000 21.998949 11.975858 95.786607
26 50.196078 25.098039 0.000000 10.735716 8.256399 1.028286
27 50.196078 25.098039 25.098039 11.661158 8.626519 5.902627
28 50.196078 25.098039 50.196078 14.632239 9.814768 21.551429
29 50.196078 25.098039 75.294118 20.250885 12.061879 51.145059
30 50.196078 25.098039 100.000000 28.786916 15.475764 96.104675
31 0.000000 50.196078 0.000000 7.719480 15.436886 2.573197
32 0.000000 50.196078 25.098039 8.644922 15.807005 7.447537
33 0.000000 50.196078 50.196078 11.616003 16.995254 23.096339
34 0.000000 50.196078 75.294118 17.234649 19.242365 52.689969
35 0.000000 50.196078 100.000000 25.770680 22.656250 97.649585
36 25.098039 50.196078 0.000000 9.833818 16.527048 2.672269
37 25.098039 50.196078 25.098039 10.759260 16.897167 7.546610
38 25.098039 50.196078 50.196078 13.730341 18.085416 23.195412
39 25.098039 50.196078 75.294118 19.348987 20.332527 52.789041
40 25.098039 50.196078 100.000000 27.885018 23.746412 97.748658
41 50.196078 50.196078 0.000000 16.621785 20.026954 2.990337
42 50.196078 50.196078 25.098039 17.547227 20.397073 7.864677
43 50.196078 50.196078 50.196078 20.518308 21.585322 23.513480
44 50.196078 50.196078 75.294118 26.136953 23.832433 53.107109
45 50.196078 50.196078 100.000000 34.672984 27.246318 98.066726
46 0.000000 75.294118 0.000000 18.850692 37.696317 6.283653
47 0.000000 75.294118 25.098039 19.776134 38.066436 11.157993
48 0.000000 75.294118 50.196078 22.747215 39.254685 26.806796
49 0.000000 75.294118 75.294118 28.365860 41.501796 56.400425
50 0.000000 75.294118 100.000000 36.901891 44.915681 101.360042
51 25.098039 75.294118 0.000000 20.965030 38.786479 6.382726
52 25.098039 75.294118 25.098039 21.890472 39.156598 11.257066
53 25.098039 75.294118 50.196078 24.861553 40.344847 26.905868
54 25.098039 75.294118 75.294118 30.480198 42.591958 56.499498
55 25.098039 75.294118 100.000000 39.016229 46.005843 101.459114
56 50.196078 75.294118 0.000000 27.752996 42.286385 6.700793
57 50.196078 75.294118 25.098039 28.678438 42.656504 11.575134
58 50.196078 75.294118 50.196078 31.649519 43.844753 27.223936
59 50.196078 75.294118 75.294118 37.268165 46.091864 56.817565
60 50.196078 75.294118 100.000000 45.804196 49.505749 101.777182
61 0.000000 100.000000 0.000000 35.761595 71.513577 11.920700
62 0.000000 100.000000 25.098039 36.687037 71.883697 16.795041
63 0.000000 100.000000 50.196078 39.658118 73.071946 32.443843
64 0.000000 100.000000 75.294118 45.276763 75.319057 62.037473
65 0.000000 100.000000 100.000000 53.812794 78.732942 106.997089
66 25.098039 100.000000 0.000000 37.875933 72.603739 12.019773
67 25.098039 100.000000 25.098039 38.801375 72.973859 16.894113
68 25.098039 100.000000 50.196078 41.772456 74.162108 32.542916
69 25.098039 100.000000 75.294118 47.391101 76.409219 62.136545
70 25.098039 100.000000 100.000000 55.927132 79.823104 107.096162
71 50.196078 100.000000 0.000000 44.663899 76.103645 12.337841
72 50.196078 100.000000 25.098039 45.589341 76.473765 17.212181
73 50.196078 100.000000 50.196078 48.560422 77.662014 32.860983
74 50.196078 100.000000 75.294118 54.179068 79.909125 62.454613
75 50.196078 100.000000 100.000000 62.715099 83.323010 107.414230
76 75.294118 0.000000 0.000000 21.739106 11.208780 1.018642
77 75.294118 0.000000 25.098039 22.664548 11.578900 5.892982
78 75.294118 0.000000 50.196078 25.635629 12.767149 21.541784
79 75.294118 0.000000 75.294118 31.254274 15.014260 51.135414
80 75.294118 0.000000 100.000000 39.790305 18.428145 96.095031
81 100.000000 0.000000 0.000000 41.241196 21.264146 1.932463
82 100.000000 0.000000 25.098039 42.166639 21.634265 6.806803
83 100.000000 0.000000 50.196078 45.137720 22.822514 22.455605
84 100.000000 0.000000 75.294118 50.756365 25.069625 52.049235
85 100.000000 0.000000 100.000000 59.292396 28.483510 97.008851
86 0.000000 0.000000 12.549020 0.260712 0.104269 1.373182
87 0.000000 12.549020 0.000000 0.516502 1.032866 0.172170
88 0.000000 12.549020 12.549020 0.777215 1.137135 1.545352
89 0.000000 12.549020 25.098039 1.441944 1.402985 5.046510
90 0.000000 25.098039 12.549020 2.094124 3.770600 1.984328
91 75.294118 25.098039 0.000000 23.572517 14.875111 1.629788
92 75.294118 25.098039 25.098039 24.497959 15.245231 6.504128
93 75.294118 25.098039 50.196078 27.469040 16.433480 22.152930
94 75.294118 25.098039 75.294118 33.087686 18.680591 51.746560
95 75.294118 25.098039 100.000000 41.623717 22.094476 96.706176
96 100.000000 25.098039 0.000000 43.074608 24.930477 2.543609
97 100.000000 25.098039 25.098039 44.000050 25.300596 7.417949
98 100.000000 25.098039 50.196078 46.971131 26.488845 23.066751
99 100.000000 25.098039 75.294118 52.589777 28.735956 52.660381
100 100.000000 25.098039 100.000000 61.125808 32.149841 97.619997
101 12.549020 0.000000 0.000000 0.595644 0.307117 0.027910
102 12.549020 0.000000 12.549020 0.856356 0.411385 1.401092
103 12.549020 12.549020 0.000000 1.112146 1.339982 0.200080
104 12.549020 12.549020 12.549020 1.372858 1.444251 1.573262
105 12.549020 25.098039 25.098039 3.354498 4.343567 5.513397
106 75.294118 50.196078 0.000000 29.458586 26.645666 3.591838
107 75.294118 50.196078 25.098039 30.384028 27.015786 8.466179
108 75.294118 50.196078 50.196078 33.355109 28.204034 24.114981
109 75.294118 50.196078 75.294118 38.973754 30.451145 53.708611
110 75.294118 50.196078 100.000000 47.509785 33.865030 98.668227
111 100.000000 50.196078 0.000000 48.960677 36.701031 4.505659
112 100.000000 50.196078 25.098039 49.886119 37.071151 9.379999
113 100.000000 50.196078 50.196078 52.857200 38.259400 25.028802
114 100.000000 50.196078 75.294118 58.475845 40.506511 54.622431
115 100.000000 50.196078 100.000000 67.011876 43.920396 99.582048
116 25.098039 0.000000 12.549020 2.375050 1.194431 1.472255
117 25.098039 12.549020 0.000000 2.630840 2.123028 0.271243
118 25.098039 12.549020 12.549020 2.891553 2.227297 1.644425
119 37.647059 37.647059 37.647059 11.118184 11.696364 12.741168
120 62.745098 62.745098 62.745098 33.414601 35.152262 38.292317
121 75.294118 75.294118 0.000000 40.589797 48.905097 7.302295
122 75.294118 75.294118 25.098039 41.515239 49.275216 12.176635
123 75.294118 75.294118 50.196078 44.486320 50.463465 27.825437
124 75.294118 75.294118 75.294118 50.104966 52.710576 57.419067
125 75.294118 75.294118 100.000000 58.640997 56.124461 102.378683
126 100.000000 75.294118 0.000000 60.091888 58.960462 8.216116
127 100.000000 75.294118 25.098039 61.017330 59.330582 13.090456
128 100.000000 75.294118 50.196078 63.988411 60.518831 28.739258
129 100.000000 75.294118 75.294118 69.607057 62.765942 58.332888
130 100.000000 75.294118 100.000000 78.143088 66.179827 103.292504
131 75.294118 87.843137 87.843137 61.851452 69.896738 80.774847
132 75.294118 87.843137 100.000000 66.447190 71.734749 104.980785
133 75.294118 100.000000 87.843137 70.956161 88.103710 83.809793
134 87.843137 87.843137 87.843137 70.853756 74.538366 81.196673
135 87.843137 87.843137 100.000000 75.449494 76.376378 105.402611
136 75.294118 100.000000 0.000000 57.500700 82.722357 12.939342
137 75.294118 100.000000 25.098039 58.426143 83.092477 17.813683
138 75.294118 100.000000 50.196078 61.397224 84.280726 33.462485
139 75.294118 100.000000 75.294118 67.015869 86.527837 63.056114
140 75.294118 100.000000 100.000000 75.551900 89.941722 108.015731
141 100.000000 100.000000 0.000000 77.002791 92.777723 13.853163
142 100.000000 100.000000 25.098039 77.928233 93.147842 18.727503
143 100.000000 100.000000 50.196078 80.899314 94.336091 34.376306
144 100.000000 100.000000 75.294118 86.517960 96.583202 63.969935
145 100.000000 100.000000 100.000000 95.053991 99.997087 108.929552
146 87.843137 100.000000 87.843137 79.958465 92.745339 84.231620
147 87.843137 100.000000 100.000000 84.554204 94.583350 108.437557
148 100.000000 87.843137 87.843137 81.353543 79.952103 81.688668
149 100.000000 87.843137 100.000000 85.949281 81.790115 105.894606
150 100.000000 100.000000 87.843137 90.458252 98.159076 84.723614
151 0.000000 0.000000 37.647059 2.111395 0.844428 11.120804
152 0.000000 12.549020 37.647059 2.627898 1.877294 11.292974
153 0.000000 25.098039 37.647059 3.944807 4.510759 11.731950
154 0.000000 37.647059 0.000000 4.182928 8.364732 1.394329
155 0.000000 37.647059 12.549020 4.443640 8.469001 2.767511
156 37.647059 37.647059 50.196078 12.903312 12.410305 22.143506
157 37.647059 50.196078 25.098039 13.468783 18.294210 7.673571
158 37.647059 50.196078 37.647059 14.654737 18.768518 13.920035
159 37.647059 50.196078 50.196078 16.439864 19.482458 23.322374
160 50.196078 37.647059 37.647059 15.196628 13.799228 12.932274
161 75.294118 75.294118 87.843137 54.045258 54.286450 78.172746
162 75.294118 87.843137 62.745098 54.741580 67.053229 43.326871
163 75.294118 87.843137 75.294118 57.911159 68.320864 60.021168
164 75.294118 100.000000 62.745098 63.846290 85.260201 46.361817
165 87.843137 62.745098 62.745098 49.658375 43.527625 39.053461
166 0.000000 37.647059 25.098039 5.108370 8.734851 6.268669
167 0.000000 37.647059 37.647059 6.294324 9.209160 12.515133
168 12.549020 0.000000 25.098039 1.521086 0.677236 4.902251
169 12.549020 12.549020 25.098039 2.037588 1.710102 5.074421
170 12.549020 25.098039 0.000000 2.429056 3.973448 0.639056
171 50.196078 37.647059 50.196078 16.981756 14.513168 22.334612
172 50.196078 37.647059 62.745098 19.430822 15.492644 35.233944
173 50.196078 50.196078 37.647059 18.733180 20.871381 14.111141
174 50.196078 50.196078 62.745098 22.967374 22.564798 36.412812
175 50.196078 62.745098 37.647059 23.585076 30.573868 15.728463
176 87.843137 62.745098 75.294118 52.827954 44.795260 55.747758
177 87.843137 62.745098 87.843137 56.768246 46.371134 76.501437
178 87.843137 62.745098 100.000000 61.363985 48.209145 100.707375
179 87.843137 75.294118 62.745098 55.937691 56.084569 41.146596
180 87.843137 75.294118 75.294118 59.107270 57.352205 57.840893
181 12.549020 25.098039 12.549020 2.689768 4.077716 2.012238
182 12.549020 37.647059 37.647059 6.889967 9.516276 12.543044
183 25.098039 0.000000 37.647059 4.225733 1.934590 11.219877
184 25.098039 12.549020 25.098039 3.556282 2.493148 5.145583
185 25.098039 12.549020 37.647059 4.742236 2.967456 11.392047
186 50.196078 62.745098 50.196078 25.370203 31.287809 25.130801
187 50.196078 62.745098 62.745098 27.819270 32.267284 38.030133
188 62.745098 50.196078 50.196078 26.113639 24.470300 23.775663
189 62.745098 50.196078 62.745098 28.562706 25.449775 36.674995
190 62.745098 50.196078 75.294118 31.732284 26.717411 53.369293
191 87.843137 75.294118 87.843137 63.047562 58.928078 78.594572
192 87.843137 75.294118 100.000000 67.643301 60.766090 102.800510
193 87.843137 87.843137 62.745098 63.743884 71.694857 43.748697
194 87.843137 87.843137 75.294118 66.913463 72.962493 60.442994
195 87.843137 100.000000 62.745098 72.848594 89.901829 46.783643
196 25.098039 25.098039 12.549020 4.208462 4.860762 2.083401
197 25.098039 25.098039 37.647059 6.059145 5.600921 11.831023
198 25.098039 37.647059 0.000000 6.297266 9.454894 1.493402
199 25.098039 37.647059 12.549020 6.557978 9.559163 2.866584
200 25.098039 37.647059 25.098039 7.222708 9.825014 6.367742
201 62.745098 62.745098 50.196078 30.965534 34.172787 25.392985
202 62.745098 62.745098 75.294118 36.584180 36.419898 54.986614
203 62.745098 75.294118 50.196078 37.244851 46.729731 27.486120
204 62.745098 75.294118 62.745098 39.693917 47.709206 40.385452
205 62.745098 75.294118 75.294118 42.863496 48.976842 57.079749
206 87.843137 100.000000 75.294118 76.018173 91.169465 63.477941
207 100.000000 62.745098 62.745098 60.158162 48.941362 39.545455
208 100.000000 62.745098 75.294118 63.327741 50.208997 56.239753
209 100.000000 62.745098 87.843137 67.268033 51.784871 76.993432
210 100.000000 62.745098 100.000000 71.863772 53.622882 101.199369
211 25.098039 37.647059 37.647059 8.408662 10.299322 12.614206
212 37.647059 25.098039 25.098039 7.582715 6.523655 5.711521
213 37.647059 25.098039 37.647059 8.768668 6.997963 11.957985
214 37.647059 25.098039 50.196078 10.553796 7.711904 21.360323
215 37.647059 37.647059 25.098039 9.932231 11.222056 6.494704
216 75.294118 62.745098 62.745098 40.656071 38.885996 38.631634
217 75.294118 62.745098 75.294118 43.825650 40.153632 55.325932
218 75.294118 62.745098 87.843137 47.765942 41.729506 76.079611
219 75.294118 62.745098 100.000000 52.361681 43.567517 100.285548
220 75.294118 75.294118 62.745098 46.935387 51.442941 40.724769
221 100.000000 75.294118 62.745098 66.437478 61.498306 41.638590
222 100.000000 75.294118 87.843137 73.547349 64.341815 79.086567
223 100.000000 87.843137 62.745098 74.243671 77.108594 44.240692
224 100.000000 87.843137 75.294118 77.413250 78.376230 60.934989
225 100.000000 100.000000 62.745098 83.348381 95.315567 47.275638
226 0.000000 0.000000 0.000000 0.000000 0.000000 0.000000
227 0.000000 0.000000 0.000000 0.000000 0.000000 0.000000
228 3.137255 3.137255 3.137255 0.231301 0.243329 0.265065
229 6.274510 6.274510 6.274510 0.492157 0.517750 0.564000
230 9.411765 9.411765 9.411765 0.868143 0.913289 0.994870
231 12.549020 12.549020 12.549020 1.372858 1.444251 1.573262
232 15.686275 15.686275 15.686275 2.016867 2.121750 2.311280
233 18.823529 18.823529 18.823529 2.809092 2.955174 3.219151
234 21.960784 21.960784 21.960784 3.758783 3.954251 4.307474
235 25.098039 25.098039 25.098039 4.873192 5.126613 5.584559
236 28.235294 28.235294 28.235294 6.159349 6.479654 7.058463
237 31.372549 31.372549 31.372549 7.625001 8.021524 8.738065
238 34.509804 34.509804 34.509804 9.276001 9.758381 10.630070
239 37.647059 37.647059 37.647059 11.118184 11.696364 12.741168
240 40.784314 40.784314 40.784314 13.158719 13.843012 15.079570
241 43.921569 43.921569 43.921569 15.401955 16.202904 17.650265
242 47.058824 47.058824 47.058824 17.852842 18.781244 20.458921
243 50.196078 50.196078 50.196078 20.518308 21.585322 23.513480
244 53.333333 53.333333 53.333333 23.402703 24.619715 26.818926
245 56.470588 56.470588 56.470588 26.510379 27.889000 30.380247
246 59.607843 59.607843 59.607843 29.845995 31.398077 34.202781
247 62.745098 62.745098 62.745098 33.414601 35.152262 38.292317
248 65.882353 65.882353 65.882353 37.220958 39.156561 42.654309
249 69.019608 69.019608 69.019608 41.268173 43.414243 47.292318
250 72.156863 72.156863 72.156863 45.561875 47.931231 52.212796
251 75.294118 75.294118 75.294118 50.104966 52.710576 57.419067
252 78.431373 78.431373 78.431373 54.900858 57.755870 62.915043
253 81.568627 81.568627 81.568627 59.955917 63.073807 68.708017
254 84.705882 84.705882 84.705882 65.272753 68.667135 74.800981
255 87.843137 87.843137 87.843137 70.853756 74.538366 81.196673
256 90.980392 90.980392 90.980392 76.703668 80.692492 87.900530
257 94.117647 94.117647 94.117647 82.827114 87.134376 94.917850
258 97.254902 97.254902 97.254902 89.225391 93.865383 102.250119
259 100.000000 100.000000 100.000000 95.053991 99.997087 108.929552
260 3.137255 0.000000 0.000000 0.100355 0.051743 0.004702
261 9.411765 6.274510 6.274510 0.655286 0.601861 0.571644
262 15.686275 12.549020 12.549020 1.652275 1.588320 1.586355
263 21.960784 18.823529 18.823529 3.221136 3.167625 3.238458
264 28.235294 25.098039 25.098039 5.431218 5.414334 5.610707
265 34.509804 31.372549 31.372549 8.341322 8.390862 8.771630
266 40.784314 37.647059 37.647059 12.003514 12.152844 12.782652
267 47.058824 43.921569 43.921569 16.465325 16.751182 17.700092
268 53.333333 50.196078 50.196078 21.769764 22.230579 23.572120
269 59.607843 56.470588 56.470588 27.957607 28.635197 30.448061
270 65.882353 62.745098 62.745098 35.066070 36.003767 38.369701
271 72.156863 69.019608 69.019608 43.131087 44.374770 47.379610
272 78.431373 75.294118 75.294118 52.185766 53.783446 57.516568
273 84.705882 81.568627 81.568627 62.262740 64.263215 68.816109
274 90.980392 87.843137 87.843137 73.391864 75.847027 81.315603
275 97.254902 94.117647 94.117647 85.603143 88.565709 95.047928
276 100.000000 97.254902 97.254902 91.754253 95.169276 102.368616
277 100.000000 94.117647 94.117647 88.132005 89.869601 95.166424
278 94.117647 87.843137 87.843137 76.048652 77.216878 81.440094
279 87.843137 81.568627 81.568627 64.684176 65.511719 68.929571
280 81.568627 75.294118 75.294118 54.379011 54.914293 57.619338
281 75.294118 69.019608 69.019608 45.102203 45.391087 47.471971
282 69.019608 62.745098 62.745098 36.822040 36.909153 38.451981
283 62.745098 56.470588 56.470588 29.505923 29.433515 30.520611
284 56.470588 50.196078 50.196078 23.118096 22.925784 23.635299
285 50.196078 43.921569 43.921569 17.621794 17.347462 17.754281
286 43.921569 37.647059 37.647059 12.976790 12.654669 12.828258
287 37.647059 31.372549 31.372549 9.140593 8.802970 8.809082
288 31.372549 25.098039 25.098039 6.067123 5.742209 5.640504
289 25.098039 18.823529 18.823529 3.704646 3.416925 3.261115
290 18.823529 12.549020 12.549020 1.995999 1.765545 1.602461
291 12.549020 6.274510 6.274510 0.874268 0.714769 0.581904
292 6.274510 0.000000 0.000000 0.213533 0.110098 0.010006
293 6.274510 0.000000 0.000000 0.213533 0.110098 0.010006
294 0.000000 3.137255 0.000000 0.087021 0.174019 0.029007
295 6.274510 9.411765 6.274510 0.633612 0.800622 0.611152
296 12.549020 15.686275 12.549020 1.615150 1.928769 1.654027
297 18.823529 21.960784 18.823529 3.166389 3.669671 3.338252
298 25.098039 28.235294 25.098039 5.357075 6.094249 5.745856
299 31.372549 34.509804 31.372549 8.246147 9.263649 8.945116
300 37.647059 40.784314 37.647059 11.885883 13.231554 12.997071
301 43.921569 47.058824 43.921569 16.324038 18.046821 17.957630
302 50.196078 53.333333 50.196078 21.603487 23.755388 23.875211
303 56.470588 59.607843 56.470588 27.765318 30.398540 30.798566
304 62.745098 65.882353 62.745098 34.846644 38.015963 38.769671
305 69.019608 72.156863 69.019608 42.883567 46.644597 47.830790
306 75.294118 78.431373 75.294118 51.909296 56.318751 58.020519
307 81.568627 84.705882 81.568627 61.956239 67.073912 69.374800
308 87.843137 90.980392 87.843137 73.054633 78.939530 81.930309
309 94.117647 97.254902 94.117647 85.234300 91.948100 95.720256
310 97.254902 100.000000 97.254902 91.418251 98.250512 102.981083
311 94.117647 100.000000 94.117647 87.427159 96.333229 96.451220
312 87.843137 94.117647 87.843137 75.358421 83.546486 82.698250
313 81.568627 87.843137 81.568627 64.055946 71.272762 70.074712
314 75.294118 81.568627 75.294118 53.811130 60.121909 58.654473
315 69.019608 75.294118 69.019608 44.592787 50.062577 48.400538
316 62.745098 69.019608 62.745098 36.369303 41.060872 39.277231
317 56.470588 62.745098 56.470588 29.107913 33.083370 31.246104
318 50.196078 56.470588 50.196078 22.772669 26.093439 24.264944
319 43.921569 50.196078 43.921569 17.326850 20.052176 18.291905
320 37.647059 43.921569 37.647059 12.729842 14.919246 13.278395
321 31.372549 37.647059 31.372549 8.939220 10.649610 9.176144
322 25.098039 31.372549 25.098039 5.908489 7.196928 5.929663
323 18.823529 25.098039 18.823529 3.585656 4.508093 3.478009
324 12.549020 18.823529 12.549020 1.913204 2.524797 1.753380
325 6.274510 12.549020 6.274510 0.823498 1.180344 0.674448
326 0.000000 6.274510 0.000000 0.185161 0.370273 0.061721
327 0.000000 6.274510 0.000000 0.185161 0.370273 0.061721
328 0.000000 0.000000 3.137255 0.043925 0.017567 0.231356
329 6.274510 6.274510 9.411765 0.563558 0.546307 0.940074
330 12.549020 12.549020 15.686275 1.495159 1.493164 2.217422
331 18.823529 18.823529 21.960784 2.989443 3.027303 4.169066
332 25.098039 25.098039 28.235294 5.117439 5.224297 6.871019
333 31.372549 31.372549 34.509804 7.938533 8.146918 10.389454
334 37.647059 37.647059 40.784314 11.505692 11.851343 14.782183
335 43.921569 43.921569 47.058824 15.867390 16.389049 20.101729
336 50.196078 50.196078 53.333333 21.066068 21.804392 26.398554
337 56.470588 56.470588 59.607843 27.143828 28.142340 33.716649
338 62.745098 62.745098 65.882353 34.137446 35.441355 42.099571
339 69.019608 69.019608 72.156863 42.083567 43.740350 51.587032
340 75.294118 75.294118 78.431373 51.015728 53.074825 62.216090
341 81.568627 81.568627 84.705882 60.965609 63.477622 74.026106
342 87.843137 87.843137 90.980392 71.964681 74.982668 87.047964
343 94.117647 94.117647 97.254902 84.042177 87.620326 101.317635
344 97.254902 97.254902 100.000000 90.332270 94.308066 108.080092
345 94.117647 94.117647 100.000000 85.149055 88.063009 107.147607
346 87.843137 87.843137 94.117647 73.127553 75.447745 93.172853
347 81.568627 81.568627 87.843137 62.025468 63.901500 79.608423
348 75.294118 75.294118 81.568627 51.975708 53.458757 67.272340
349 69.019608 69.019608 75.294118 42.946321 44.085399 56.131193
350 62.745098 62.745098 69.019608 34.906031 35.748742 46.147739
351 56.470588 56.470588 62.745098 27.821523 28.413376 37.286096
352 50.196078 50.196078 56.470588 21.656230 22.040421 29.506963
353 43.921569 43.921569 50.196078 16.373575 16.591492 22.767823
354 37.647059 37.647059 43.921569 11.931693 12.021717 17.025948
355 31.372549 31.372549 37.647059 8.288373 8.286832 12.232071
356 25.098039 25.098039 31.372549 5.395773 5.335613 8.337016
357 18.823529 18.823529 25.098039 3.201074 3.111942 5.283737
358 12.549020 12.549020 18.823529 1.645606 1.553333 3.009834
359 6.274510 6.274510 12.549020 0.659406 0.584640 1.444909
360 0.000000 0.000000 6.274510 0.093463 0.037379 0.492273
361 0.000000 0.000000 6.274510 0.093463 0.037379 0.492273
362 0.000000 3.137255 3.137255 0.130946 0.191586 0.260363
363 6.274510 9.411765 9.411765 0.705013 0.829178 0.987226
364 12.549020 15.686275 15.686275 1.737450 1.977682 2.298187
365 18.823529 21.960784 21.960784 3.346740 3.741800 4.288166
366 25.098039 28.235294 28.235294 5.601322 6.191933 7.032315
367 31.372549 34.509804 34.509804 8.559679 9.389042 10.596505
368 37.647059 40.784314 40.784314 12.273390 13.386533 15.038086
369 43.921569 47.058824 47.058824 16.789473 18.232966 20.409094
370 50.196078 53.333333 53.333333 22.151247 23.974458 26.760286
371 56.470588 59.607843 59.607843 28.398767 30.651880 34.134968
372 62.745098 65.882353 65.882353 35.569489 38.305057 42.576925
373 69.019608 72.156863 72.156863 43.698961 46.970704 52.125504
374 75.294118 78.431373 78.431373 52.820058 56.683000 62.817541
375 81.568627 84.705882 84.705882 62.965931 67.477727 74.692889
