Example Targets Read/ArgyllCMS printtarg targets/A4-High Quality Target Plus Grays (1 page - 483 patches)-i1/A4-High Quality Target Plus Grays (1 page - 483 patches)-i1.ti2
CTI2   

DESCRIPTOR "Argyll Calibration Target chart information 2"
ORIGINATOR "Argyll printtarg"
CREATED "Sat Nov 29 08:22:25 2025"
TARGET_INSTRUMENT "GretagMacbeth i1 Pro"
ACCURATE_EXPECTED_VALUES "true"
APPROX_WHITE_POINT "95.053991 99.997087 108.929552"
COLOR_REP "iRGB"
PAPER_SIZE "210.0x297.0"
CHART_ID "13"
STEPS_IN_PASS "23"
PASSES_IN_STRIPS2 "21"
STRIP_INDEX_PATTERN "A-Z, A-Z"
PATCH_INDEX_PATTERN "0-9,@-9,@-9;1-999"
INDEX_ORDER "STRIP_THEN_PATCH"

NUMBER_OF_FIELDS 8
BEGIN_DATA_FORMAT
SAMPLE_ID SAMPLE_LOC RGB_R RGB_G RGB_B XYZ_X XYZ_Y XYZ_Z 
END_DATA_FORMAT

NUMBER_OF_SETS 483
BEGIN_DATA
1 "A1" 0.00000 0.00000 0.00000 0.00000 0.00000 0.00000 
2 "A2" 0.00000 0.00000 25.09804 0.925442 0.370120 4.874340 
3 "A3" 0.00000 0.00000 50.19608 3.896523 1.558368 20.52314 
4 "A4" 0.00000 0.00000 75.29412 9.515168 3.805479 50.11677 
5 "A5" 0.00000 0.00000 100.0000 18.05120 7.219365 95.07639 
6 "A6" 25.09804 0.00000 0.00000 2.114338 1.090162 0.0990730 
7 "A7" 25.09804 0.00000 25.09804 3.039780 1.460282 4.973413 
8 "A8" 25.09804 0.00000 50.19608 6.010861 2.648531 20.62222 
9 "A9" 25.09804 0.00000 75.29412 11.62951 4.895642 50.21585 
10 "A10" 25.09804 0.00000 100.0000 20.16554 8.309527 95.17546 
11 "A11" 50.19608 0.00000 0.00000 8.902304 4.590068 0.417140 
12 "A12" 50.19608 0.00000 25.09804 9.827746 4.960188 5.291481 
13 "A13" 50.19608 0.00000 50.19608 12.79883 6.148437 20.94028 
14 "A14" 50.19608 0.00000 75.29412 18.41747 8.395548 50.53391 
15 "A15" 50.19608 0.00000 100.0000 26.95350 11.80943 95.49353 
16 "A16" 0.00000 25.09804 0.00000 1.833412 3.666331 0.611146 
17 "A17" 0.00000 25.09804 25.09804 2.758854 4.036451 5.485486 
18 "A18" 0.00000 25.09804 50.19608 5.729935 5.224699 21.13429 
19 "A19" 0.00000 25.09804 75.29412 11.34858 7.471810 50.72792 
20 "A20" 0.00000 25.09804 100.0000 19.88461 10.88570 95.68753 
21 "A21" 25.09804 25.09804 0.00000 3.947750 4.756493 0.710219 
22 "A22" 25.09804 25.09804 25.09804 4.873192 5.126613 5.584559 
23 "A23" 25.09804 25.09804 50.19608 7.844273 6.314862 21.23336 
24 "B1" 25.09804 25.09804 75.29412 13.46292 8.561973 50.82699 
25 "B2" 25.09804 25.09804 100.0000 21.99895 11.97586 95.78661 
26 "B3" 50.19608 25.09804 0.00000 10.73572 8.256399 1.028286 
27 "B4" 50.19608 25.09804 25.09804 11.66116 8.626519 5.902627 
28 "B5" 50.19608 25.09804 50.19608 14.63224 9.814768 21.55143 
29 "B6" 50.19608 25.09804 75.29412 20.25089 12.06188 51.14506 
30 "B7" 50.19608 25.09804 100.0000 28.78692 15.47576 96.10468 
31 "B8" 0.00000 50.19608 0.00000 7.719480 15.43689 2.573197 
32 "B9" 0.00000 50.19608 25.09804 8.644922 15.80700 7.447537 
33 "B10" 0.00000 50.19608 50.19608 11.61600 16.99525 23.09634 
34 "B11" 0.00000 50.19608 75.29412 17.23465 19.24236 52.68997 
35 "B12" 0.00000 50.19608 100.0000 25.77068 22.65625 97.64959 
36 "B13" 25.09804 50.19608 0.00000 9.833818 16.52705 2.672269 
37 "B14" 25.09804 50.19608 25.09804 10.75926 16.89717 7.546610 
38 "B15" 25.09804 50.19608 50.19608 13.73034 18.08542 23.19541 
39 "B16" 25.09804 50.19608 75.29412 19.34899 20.33253 52.78904 
40 "B17" 25.09804 50.19608 100.0000 27.88502 23.74641 97.74866 
41 "B18" 50.19608 50.19608 0.00000 16.62178 20.02695 2.990337 
42 "B19" 50.19608 50.19608 25.09804 17.54723 20.39707 7.864677 
43 "B20" 50.19608 50.19608 50.19608 20.51831 21.58532 23.51348 
44 "B21" 50.19608 50.19608 75.29412 26.13695 23.83243 53.10711 
45 "B22" 50.19608 50.19608 100.0000 34.67298 27.24632 98.06673 
46 "B23" 0.00000 75.29412 0.00000 18.85069 37.69632 6.283653 
47 "C1" 0.00000 75.29412 25.09804 19.77613 38.06644 11.15799 
48 "C2" 0.00000 75.29412 50.19608 22.74722 39.25469 26.80680 
49 "C3" 0.00000 75.29412 75.29412 28.36586 41.50180 56.40042 
50 "C4" 0.00000 75.29412 100.0000 36.90189 44.91568 101.3600 
51 "C5" 25.09804 75.29412 0.00000 20.96503 38.78648 6.382726 
52 "C6" 25.09804 75.29412 25.09804 21.89047 39.15660 11.25707 
53 "C7" 25.09804 75.29412 50.19608 24.86155 40.34485 26.90587 
54 "C8" 25.09804 75.29412 75.29412 30.48020 42.59196 56.49950 
55 "C9" 25.09804 75.29412 100.0000 39.01623 46.00584 101.4591 
56 "C10" 50.19608 75.29412 0.00000 27.75300 42.28639 6.700793 
57 "C11" 50.19608 75.29412 25.09804 28.67844 42.65650 11.57513 
58 "C12" 50.19608 75.29412 50.19608 31.64952 43.84475 27.22394 
59 "C13" 50.19608 75.29412 75.29412 37.26817 46.09186 56.81757 
60 "C14" 50.19608 75.29412 100.0000 45.80420 49.50575 101.7772 
61 "C15" 0.00000 100.0000 0.00000 35.76159 71.51358 11.92070 
62 "C16" 0.00000 100.0000 25.09804 36.68704 71.88370 16.79504 
63 "C17" 0.00000 100.0000 50.19608 39.65812 73.07195 32.44384 
64 "C18" 0.00000 100.0000 75.29412 45.27676 75.31906 62.03747 
65 "C19" 0.00000 100.0000 100.0000 53.81279 78.73294 106.9971 
66 "C20" 25.09804 100.0000 0.00000 37.87593 72.60374 12.01977 
67 "C21" 25.09804 100.0000 25.09804 38.80138 72.97386 16.89411 
68 "C22" 25.09804 100.0000 50.19608 41.77246 74.16211 32.54292 
69 "C23" 25.09804 100.0000 75.29412 47.39110 76.40922 62.13654 
70 "D1" 25.09804 100.0000 100.0000 55.92713 79.82310 107.0962 
71 "D2" 50.19608 100.0000 0.00000 44.66390 76.10365 12.33784 
72 "D3" 50.19608 100.0000 25.09804 45.58934 76.47377 17.21218 
73 "D4" 50.19608 100.0000 50.19608 48.56042 77.66201 32.86098 
74 "D5" 50.19608 100.0000 75.29412 54.17907 79.90913 62.45461 
75 "D6" 50.19608 100.0000 100.0000 62.71510 83.32301 107.4142 
76 "D7" 75.29412 0.00000 0.00000 21.73911 11.20878 1.018642 
77 "D8" 75.29412 0.00000 25.09804 22.66455 11.57890 5.892982 
78 "D9" 75.29412 0.00000 50.19608 25.63563 12.76715 21.54178 
79 "D10" 75.29412 0.00000 75.29412 31.25427 15.01426 51.13541 
80 "D11" 75.29412 0.00000 100.0000 39.79030 18.42815 96.09503 
81 "D12" 100.0000 0.00000 0.00000 41.24120 21.26415 1.932463 
82 "D13" 100.0000 0.00000 25.09804 42.16664 21.63426 6.806803 
83 "D14" 100.0000 0.00000 50.19608 45.13772 22.82251 22.45560 
84 "D15" 100.0000 0.00000 75.29412 50.75637 25.06963 52.04924 
85 "D16" 100.0000 0.00000 100.0000 59.29240 28.48351 97.00885 
86 "D17" 0.00000 0.00000 12.54902 0.260712 0.104269 1.373182 
87 "D18" 0.00000 12.54902 0.00000 0.516502 1.032866 0.172170 
88 "D19" 0.00000 12.54902 12.54902 0.777215 1.137135 1.545352 
89 "D20" 0.00000 12.54902 25.09804 1.441944 1.402985 5.046510 
90 "D21" 0.00000 25.09804 12.54902 2.094124 3.770600 1.984328 
91 "D22" 75.29412 25.09804 0.00000 23.57252 14.87511 1.629788 
92 "D23" 75.29412 25.09804 25.09804 24.49796 15.24523 6.504128 
93 "E1" 75.29412 25.09804 50.19608 27.46904 16.43348 22.15293 
94 "E2" 75.29412 25.09804 75.29412 33.08769 18.68059 51.74656 
95 "E3" 75.29412 25.09804 100.0000 41.62372 22.09448 96.70618 
96 "E4" 100.0000 25.09804 0.00000 43.07461 24.93048 2.543609 
97 "E5" 100.0000 25.09804 25.09804 44.00005 25.30060 7.417949 
98 "E6" 100.0000 25.09804 50.19608 46.97113 26.48885 23.06675 
99 "E7" 100.0000 25.09804 75.29412 52.58978 28.73596 52.66038 
100 "E8" 100.0000 25.09804 100.0000 61.12581 32.14984 97.62000 
101 "E9" 12.54902 0.00000 0.00000 0.595644 0.307117 0.0279100 
102 "E10" 12.54902 0.00000 12.54902 0.856356 0.411385 1.401092 
103 "E11" 12.54902 12.54902 0.00000 1.112146 1.339982 0.200080 
104 "E12" 12.54902 12.54902 12.54902 1.372858 1.444251 1.573262 
105 "E13" 12.54902 25.09804 25.09804 3.354498 4.343567 5.513397 
106 "E14" 75.29412 50.19608 0.00000 29.45859 26.64567 3.591838 
107 "E15" 75.29412 50.19608 25.09804 30.38403 27.01579 8.466179 
108 "E16" 75.29412 50.19608 50.19608 33.35511 28.20403 24.11498 
109 "E17" 75.29412 50.19608 75.29412 38.97375 30.45115 53.70861 
110 "E18" 75.29412 50.19608 100.0000 47.50979 33.86503 98.66823 
111 "E19" 100.0000 50.19608 0.00000 48.96068 36.70103 4.505659 
112 "E20" 100.0000 50.19608 25.09804 49.88612 37.07115 9.379999 
113 "E21" 100.0000 50.19608 50.19608 52.85720 38.25940 25.02880 
114 "E22" 100.0000 50.19608 75.29412 58.47585 40.50651 54.62243 
115 "E23" 100.0000 50.19608 100.0000 67.01188 43.92040 99.58205 
116 "F1" 25.09804 0.00000 12.54902 2.375050 1.194431 1.472255 
117 "F2" 25.09804 12.54902 0.00000 2.630840 2.123028 0.271243 
118 "F3" 25.09804 12.54902 12.54902 2.891553 2.227297 1.644425 
119 "F4" 37.64706 37.64706 37.64706 11.11818 11.69636 12.74117 
120 "F5" 62.74510 62.74510 62.74510 33.41460 35.15226 38.29232 
121 "F6" 75.29412 75.29412 0.00000 40.58980 48.90510 7.302295 
122 "F7" 75.29412 75.29412 25.09804 41.51524 49.27522 12.17663 
123 "F8" 75.29412 75.29412 50.19608 44.48632 50.46346 27.82544 
124 "F9" 75.29412 75.29412 75.29412 50.10497 52.71058 57.41907 
125 "F10" 75.29412 75.29412 100.0000 58.64100 56.12446 102.3787 
126 "F11" 100.0000 75.29412 0.00000 60.09189 58.96046 8.216116 
127 "F12" 100.0000 75.29412 25.09804 61.01733 59.33058 13.09046 
128 "F13" 100.0000 75.29412 50.19608 63.98841 60.51883 28.73926 
129 "F14" 100.0000 75.29412 75.29412 69.60706 62.76594 58.33289 
130 "F15" 100.0000 75.29412 100.0000 78.14309 66.17983 103.2925 
131 "F16" 75.29412 87.84314 87.84314 61.85145 69.89674 80.77485 
132 "F17" 75.29412 87.84314 100.0000 66.44719 71.73475 104.9808 
133 "F18" 75.29412 100.0000 87.84314 70.95616 88.10371 83.80979 
134 "F19" 87.84314 87.84314 87.84314 70.85376 74.53837 81.19667 
135 "F20" 87.84314 87.84314 100.0000 75.44949 76.37638 105.4026 
136 "F21" 75.29412 100.0000 0.00000 57.50070 82.72236 12.93934 
137 "F22" 75.29412 100.0000 25.09804 58.42614 83.09248 17.81368 
138 "F23" 75.29412 100.0000 50.19608 61.39722 84.28073 33.46249 
139 "G1" 75.29412 100.0000 75.29412 67.01587 86.52784 63.05611 
140 "G2" 75.29412 100.0000 100.0000 75.55190 89.94172 108.0157 
141 "G3" 100.0000 100.0000 0.00000 77.00279 92.77772 13.85316 
142 "G4" 100.0000 100.0000 25.09804 77.92823 93.14784 18.72750 
143 "G5" 100.0000 100.0000 50.19608 80.89931 94.33609 34.37631 
144 "G6" 100.0000 100.0000 75.29412 86.51796 96.58320 63.96993 
145 "G7" 100.0000 100.0000 100.0000 95.05399 99.99709 108.9296 
146 "G8" 87.84314 100.0000 87.84314 79.95847 92.74534 84.23162 
147 "G9" 87.84314 100.0000 100.0000 84.55420 94.58335 108.4376 
148 "G10" 100.0000 87.84314 87.84314 81.35354 79.95210 81.68867 
149 "G11" 100.0000 87.84314 100.0000 85.94928 81.79012 105.8946 
150 "G12" 100.0000 100.0000 87.84314 90.45825 98.15908 84.72361 
151 "G13" 0.00000 0.00000 37.64706 2.111395 0.844428 11.12080 
152 "G14" 0.00000 12.54902 37.64706 2.627898 1.877294 11.29297 
153 "G15" 0.00000 25.09804 37.64706 3.944807 4.510759 11.73195 
154 "G16" 0.00000 37.64706 0.00000 4.182928 8.364732 1.394329 
155 "G17" 0.00000 37.64706 12.54902 4.443640 8.469001 2.767511 
156 "G18" 37.64706 37.64706 50.19608 12.90331 12.41030 22.14351 
157 "G19" 37.64706 50.19608 25.09804 13.46878 18.29421 7.673571 
158 "G20" 37.64706 50.19608 37.64706 14.65474 18.76852 13.92004 
159 "G21" 37.64706 50.19608 50.19608 16.43986 19.48246 23.32237 
160 "G22" 50.19608 37.64706 37.64706 15.19663 13.79923 12.93227 
161 "G23" 75.29412 75.29412 87.84314 54.04526 54.28645 78.17275 
162 "H1" 75.29412 87.84314 62.74510 54.74158 67.05323 43.32687 
163 "H2" 75.29412 87.84314 75.29412 57.91116 68.32086 60.02117 
164 "H3" 75.29412 100.0000 62.74510 63.84629 85.26020 46.36182 
165 "H4" 87.84314 62.74510 62.74510 49.65837 43.52763 39.05346 
166 "H5" 0.00000 37.64706 25.09804 5.108370 8.734851 6.268669 
167 "H6" 0.00000 37.64706 37.64706 6.294324 9.209160 12.51513 
168 "H7" 12.54902 0.00000 25.09804 1.521086 0.677236 4.902251 
169 "H8" 12.54902 12.54902 25.09804 2.037588 1.710102 5.074421 
170 "H9" 12.54902 25.09804 0.00000 2.429056 3.973448 0.639056 
171 "H10" 50.19608 37.64706 50.19608 16.98176 14.51317 22.33461 
172 "H11" 50.19608 37.64706 62.74510 19.43082 15.49264 35.23394 
173 "H12" 50.19608 50.19608 37.64706 18.73318 20.87138 14.11114 
174 "H13" 50.19608 50.19608 62.74510 22.96737 22.56480 36.41281 
175 "H14" 50.19608 62.74510 37.64706 23.58508 30.57387 15.72846 
176 "H15" 87.84314 62.74510 75.29412 52.82795 44.79526 55.74776 
177 "H16" 87.84314 62.74510 87.84314 56.76825 46.37113 76.50144 
178 "H17" 87.84314 62.74510 100.0000 61.36398 48.20914 100.7074 
179 "H18" 87.84314 75.29412 62.74510 55.93769 56.08457 41.14660 
180 "H19" 87.84314 75.29412 75.29412 59.10727 57.35220 57.84089 
181 "H20" 12.54902 25.09804 12.54902 2.689768 4.077716 2.012238 
182 "H21" 12.54902 37.64706 37.64706 6.889967 9.516276 12.54304 
183 "H22" 25.09804 0.00000 37.64706 4.225733 1.934590 11.21988 
184 "H23" 25.09804 12.54902 25.09804 3.556282 2.493148 5.145583 
185 "I1" 25.09804 12.54902 37.64706 4.742236 2.967456 11.39205 
186 "I2" 50.19608 62.74510 50.19608 25.37020 31.28781 25.13080 
187 "I3" 50.19608 62.74510 62.74510 27.81927 32.26728 38.03013 
188 "I4" 62.74510 50.19608 50.19608 26.11364 24.47030 23.77566 
189 "I5" 62.74510 50.19608 62.74510 28.56271 25.44977 36.67500 
190 "I6" 62.74510 50.19608 75.29412 31.73228 26.71741 53.36929 
191 "I7" 87.84314 75.29412 87.84314 63.04756 58.92808 78.59457 
192 "I8" 87.84314 75.29412 100.0000 67.64330 60.76609 102.8005 
193 "I9" 87.84314 87.84314 62.74510 63.74388 71.69486 43.74870 
194 "I10" 87.84314 87.84314 75.29412 66.91346 72.96249 60.44299 
195 "I11" 87.84314 100.0000 62.74510 72.84859 89.90183 46.78364 
196 "I12" 25.09804 25.09804 12.54902 4.208462 4.860762 2.083401 
197 "I13" 25.09804 25.09804 37.64706 6.059145 5.600921 11.83102 
198 "I14" 25.09804 37.64706 0.00000 6.297266 9.454894 1.493402 
199 "I15" 25.09804 37.64706 12.54902 6.557978 9.559163 2.866584 
200 "I16" 25.09804 37.64706 25.09804 7.222708 9.825014 6.367742 
201 "I17" 62.74510 62.74510 50.19608 30.96553 34.17279 25.39299 
202 "I18" 62.74510 62.74510 75.29412 36.58418 36.41990 54.98661 
203 "I19" 62.74510 75.29412 50.19608 37.24485 46.72973 27.48612 
204 "I20" 62.74510 75.29412 62.74510 39.69392 47.70921 40.38545 
205 "I21" 62.74510 75.29412 75.29412 42.86350 48.97684 57.07975 
206 "I22" 87.84314 100.0000 75.29412 76.01817 91.16947 63.47794 
207 "I23" 100.0000 62.74510 62.74510 60.15816 48.94136 39.54545 
208 "J1" 100.0000 62.74510 75.29412 63.32774 50.20900 56.23975 
209 "J2" 100.0000 62.74510 87.84314 67.26803 51.78487 76.99343 
210 "J3" 100.0000 62.74510 100.0000 71.86377 53.62288 101.1994 
211 "J4" 25.09804 37.64706 37.64706 8.408662 10.29932 12.61421 
212 "J5" 37.64706 25.09804 25.09804 7.582715 6.523655 5.711521 
213 "J6" 37.64706 25.09804 37.64706 8.768668 6.997963 11.95799 
214 "J7" 37.64706 25.09804 50.19608 10.55380 7.711904 21.36032 
215 "J8" 37.64706 37.64706 25.09804 9.932231 11.22206 6.494704 
216 "J9" 75.29412 62.74510 62.74510 40.65607 38.88600 38.63163 
217 "J10" 75.29412 62.74510 75.29412 43.82565 40.15363 55.32593 
218 "J11" 75.29412 62.74510 87.84314 47.76594 41.72951 76.07961 
219 "J12" 75.29412 62.74510 100.0000 52.36168 43.56752 100.2855 
220 "J13" 75.29412 75.29412 62.74510 46.93539 51.44294 40.72477 
221 "J14" 100.0000 75.29412 62.74510 66.43748 61.49831 41.63859 
222 "J15" 100.0000 75.29412 87.84314 73.54735 64.34181 79.08657 
223 "J16" 100.0000 87.84314 62.74510 74.24367 77.10859 44.24069 
224 "J17" 100.0000 87.84314 75.29412 77.41325 78.37623 60.93499 
225 "J18" 100.0000 100.0000 62.74510 83.34838 95.31557 47.27564 
226 "J19" 0.00000 0.00000 0.00000 0.00000 0.00000 0.00000 
227 "J20" 0.00000 0.00000 0.00000 0.00000 0.00000 0.00000 
228 "J21" 3.137255 3.137255 3.137255 0.231301 0.243329 0.265065 
229 "J22" 6.274510 6.274510 6.274510 0.492157 0.517750 0.564000 
230 "J23" 9.411765 9.411765 9.411765 0.868143 0.913289 0.994870 
231 "K1" 12.54902 12.54902 12.54902 1.372858 1.444251 1.573262 
232 "K2" 15.68627 15.68627 15.68627 2.016867 2.121750 2.311280 
233 "K3" 18.82353 18.82353 18.82353 2.809092 2.955174 3.219151 
234 "K4" 21.96078 21.96078 21.96078 3.758783 3.954251 4.307474 
235 "K5" 25.09804 25.09804 25.09804 4.873192 5.126613 5.584559 
236 "K6" 28.23529 28.23529 28.23529 6.159349 6.479654 7.058463 
237 "K7" 31.37255 31.37255 31.37255 7.625001 8.021524 8.738065 
238 "K8" 34.50980 34.50980 34.50980 9.276001 9.758381 10.63007 
239 "K9" 37.64706 37.64706 37.64706 11.11818 11.69636 12.74117 
240 "K10" 40.78431 40.78431 40.78431 13.15872 13.84301 15.07957 
241 "K11" 43.92157 43.92157 43.92157 15.40196 16.20290 17.65027 
242 "K12" 47.05882 47.05882 47.05882 17.85284 18.78124 20.45892 
243 "K13" 50.19608 50.19608 50.19608 20.51831 21.58532 23.51348 
244 "K14" 53.33333 53.33333 53.33333 23.40270 24.61971 26.81893 
245 "K15" 56.47059 56.47059 56.47059 26.51038 27.88900 30.38025 
246 "K16" 59.60784 59.60784 59.60784 29.84599 31.39808 34.20278 
247 "K17" 62.74510 62.74510 62.74510 33.41460 35.15226 38.29232 
248 "K18" 65.88235 65.88235 65.88235 37.22096 39.15656 42.65431 
249 "K19" 69.01961 69.01961 69.01961 41.26817 43.41424 47.29232 
250 "K20" 72.15686 72.15686 72.15686 45.56188 47.93123 52.21280 
251 "K21" 75.29412 75.29412 75.29412 50.10497 52.71058 57.41907 
252 "K22" 78.43137 78.43137 78.43137 54.90086 57.75587 62.91504 
253 "K23" 81.56863 81.56863 81.56863 59.95592 63.07381 68.70802 
254 "L1" 84.70588 84.70588 84.70588 65.27275 68.66714 74.80098 
255 "L2" 87.84314 87.84314 87.84314 70.85376 74.53837 81.19667 
256 "L3" 90.98039 90.98039 90.98039 76.70367 80.69249 87.90053 
257 "L4" 94.11765 94.11765 94.11765 82.82711 87.13438 94.91785 
258 "L5" 97.25490 97.25490 97.25490 89.22539 93.86538 102.2501 
259 "L6" 100.0000 100.0000 100.0000 95.05399 99.99709 108.9296 
260 "L7" 3.137255 0.00000 0.00000 0.100355 0.0517430 0.00470200 
261 "L8" 9.411765 6.274510 6.274510 0.655286 0.601861 0.571644 
262 "L9" 15.68627 12.54902 12.54902 1.652275 1.588320 1.586355 
263 "L10" 21.96078 18.82353 18.82353 3.221136 3.167625 3.238458 
264 "L11" 28.23529 25.09804 25.09804 5.431218 5.414334 5.610707 
265 "L12" 34.50980 31.37255 31.37255 8.341322 8.390862 8.771630 
266 "L13" 40.78431 37.64706 37.64706 12.00351 12.15284 12.78265 
267 "L14" 47.05882 43.92157 43.92157 16.46532 16.75118 17.70009 
268 "L15" 53.33333 50.19608 50.19608 21.76976 22.23058 23.57212 
269 "L16" 59.60784 56.47059 56.47059 27.95761 28.63520 30.44806 
270 "L17" 65.88235 62.74510 62.74510 35.06607 36.00377 38.36970 
271 "L18" 72.15686 69.01961 69.01961 43.13109 44.37477 47.37961 
272 "L19" 78.43137 75.29412 75.29412 52.18577 53.78345 57.51657 
273 "L20" 84.70588 81.56863 81.56863 62.26274 64.26322 68.81611 
274 "L21" 90.98039 87.84314 87.84314 73.39186 75.84703 81.31560 
275 "L22" 97.25490 94.11765 94.11765 85.60314 88.56571 95.04793 
276 "L23" 100.0000 97.25490 97.25490 91.75425 95.16928 102.3686 
277 "M1" 100.0000 94.11765 94.11765 88.13201 89.86960 95.16642 
278 "M2" 94.11765 87.84314 87.84314 76.04865 77.21688 81.44009 
279 "M3" 87.84314 81.56863 81.56863 64.68418 65.51172 68.92957 
280 "M4" 81.56863 75.29412 75.29412 54.37901 54.91429 57.61934 
281 "M5" 75.29412 69.01961 69.01961 45.10220 45.39109 47.47197 
282 "M6" 69.01961 62.74510 62.74510 36.82204 36.90915 38.45198 
283 "M7" 62.74510 56.47059 56.47059 29.50592 29.43351 30.52061 
284 "M8" 56.47059 50.19608 50.19608 23.11810 22.92578 23.63530 
285 "M9" 50.19608 43.92157 43.92157 17.62179 17.34746 17.75428 
286 "M10" 43.92157 37.64706 37.64706 12.97679 12.65467 12.82826 
287 "M11" 37.64706 31.37255 31.37255 9.140593 8.802970 8.809082 
288 "M12" 31.37255 25.09804 25.09804 6.067123 5.742209 5.640504 
289 "M13" 25.09804 18.82353 18.82353 3.704646 3.416925 3.261115 
290 "M14" 18.82353 12.54902 12.54902 1.995999 1.765545 1.602461 
291 "M15" 12.54902 6.274510 6.274510 0.874268 0.714769 0.581904 
292 "M16" 6.274510 0.00000 0.00000 0.213533 0.110098 0.0100060 
293 "M17" 6.274510 0.00000 0.00000 0.213533 0.110098 0.0100060 
294 "M18" 0.00000 3.137255 0.00000 0.0870210 0.174019 0.0290070 
295 "M19" 6.274510 9.411765 6.274510 0.633612 0.800622 0.611152 
296 "M20" 12.54902 15.68627 12.54902 1.615150 1.928769 1.654027 
297 "M21" 18.82353 21.96078 18.82353 3.166389 3.669671 3.338252 
298 "M22" 25.09804 28.23529 25.09804 5.357075 6.094249 5.745856 
299 "M23" 31.37255 34.50980 31.37255 8.246147 9.263649 8.945116 
300 "N1" 37.64706 40.78431 37.64706 11.88588 13.23155 12.99707 
301 "N2" 43.92157 47.05882 43.92157 16.32404 18.04682 17.95763 
302 "N3" 50.19608 53.33333 50.19608 21.60349 23.75539 23.87521 
303 "N4" 56.47059 59.60784 56.47059 27.76532 30.39854 30.79857 
304 "N5" 62.74510 65.88235 62.74510 34.84664 38.01596 38.76967 
305 "N6" 69.01961 72.15686 69.01961 42.88357 46.64460 47.83079 
306 "N7" 75.29412 78.43137 75.29412 51.90930 56.31875 58.02052 
307 "N8" 81.56863 84.70588 81.56863 61.95624 67.07391 69.37480 
308 "N9" 87.84314 90.98039 87.84314 73.05463 78.93953 81.93031 
309 "N10" 94.11765 97.25490 94.11765 85.23430 91.94810 95.72026 
310 "N11" 97.25490 100.0000 97.25490 91.41825 98.25051 102.9811 
311 "N12" 94.11765 100.0000 94.11765 87.42716 96.33323 96.45122 
312 "N13" 87.84314 94.11765 87.84314 75.35842 83.54649 82.69825 
313 "N14" 81.56863 87.84314 81.56863 64.05595 71.27276 70.07471 
314 "N15" 75.29412 81.56863 75.29412 53.81113 60.12191 58.65447 
315 "N16" 69.01961 75.29412 69.01961 44.59279 50.06258 48.40054 
316 "N17" 62.74510 69.01961 62.74510 36.36930 41.06087 39.27723 
317 "N18" 56.47059 62.74510 56.47059 29.10791 33.08337 31.24610 
318 "N19" 50.19608 56.47059 50.19608 22.77267 26.09344 24.26494 
319 "N20" 43.92157 50.19608 43.92157 17.32685 20.05218 18.29190 
320 "N21" 37.64706 43.92157 37.64706 12.72984 14.91925 13.27839 
321 "N22" 31.37255 37.64706 31.37255 8.939220 10.64961 9.176144 
322 "N23" 25.09804 31.37255 25.09804 5.908489 7.196928 5.929663 
323 "O1" 18.82353 25.09804 18.82353 3.585656 4.508093 3.478009 
324 "O2" 12.54902 18.82353 12.54902 1.913204 2.524797 1.753380 
325 "O3" 6.274510 12.54902 6.274510 0.823498 1.180344 0.674448 
326 "O4" 0.00000 6.274510 0.00000 0.185161 0.370273 0.0617210 
327 "O5" 0.00000 6.274510 0.00000 0.185161 0.370273 0.0617210 
328 "O6" 0.00000 0.00000 3.137255 0.0439250 0.0175670 0.231356 
329 "O7" 6.274510 6.274510 9.411765 0.563558 0.546307 0.940074 
330 "O8" 12.54902 12.54902 15.68627 1.495159 1.493164 2.217422 
331 "O9" 18.82353 18.82353 21.96078 2.989443 3.027303 4.169066 
332 "O10" 25.09804 25.09804 28.23529 5.117439 5.224297 6.871019 
333 "O11" 31.37255 31.37255 34.50980 7.938533 8.146918 10.38945 
334 "O12" 37.64706 37.64706 40.78431 11.50569 11.85134 14.78218 
335 "O13" 43.92157 43.92157 47.05882 15.86739 16.38905 20.10173 
336 "O14" 50.19608 50.19608 53.33333 21.06607 21.80439 26.39855 
337 "O15" 56.47059 56.47059 59.60784 27.14383 28.14234 33.71665 
338 "O16" 62.74510 62.74510 65.88235 34.13745 35.44136 42.09957 
339 "O17" 69.01961 69.01961 72.15686 42.08357 43.74035 51.58703 
340 "O18" 75.29412 75.29412 78.43137 51.01573 53.07482 62.21609 
341 "O19" 81.56863 81.56863 84.70588 60.96561 63.47762 74.02611 
342 "O20" 87.84314 87.84314 90.98039 71.96468 74.98267 87.04796 
343 "O21" 94.11765 94.11765 97.25490 84.04218 87.62033 101.3176 
344 "O22" 97.25490 97.25490 100.0000 90.33227 94.30807 108.0801 
345 "O23" 94.11765 94.11765 100.0000 85.14906 88.06301 107.1476 
346 "P1" 87.84314 87.84314 94.11765 73.12755 75.44774 93.17285 
347 "P2" 81.56863 81.56863 87.84314 62.02547 63.90150 79.60842 
348 "P3" 75.29412 75.29412 81.56863 51.97571 53.45876 67.27234 
349 "P4" 69.01961 69.01961 75.29412 42.94632 44.08540 56.13119 
350 "P5" 62.74510 62.74510 69.01961 34.90603 35.74874 46.14774 
351 "P6" 56.47059 56.47059 62.74510 27.82152 28.41338 37.28610 
352 "P7" 50.19608 50.19608 56.47059 21.65623 22.04042 29.50696 
353 "P8" 43.92157 43.92157 50.19608 16.37357 16.59149 22.76782 
354 "P9" 37.64706 37.64706 43.92157 11.93169 12.02172 17.02595 
355 "P10" 31.37255 31.37255 37.64706 8.288373 8.286832 12.23207 
356 "P11" 25.09804 25.09804 31.37255 5.395773 5.335613 8.337016 
357 "P12" 18.82353 18.82353 25.09804 3.201074 3.111942 5.283737 
358 "P13" 12.54902 12.54902 18.82353 1.645606 1.553333 3.009834 
359 "P14" 6.274510 6.274510 12.54902 0.659406 0.584640 1.444909 
360 "P15" 0.00000 0.00000 6.274510 0.0934630 0.0373790 0.492273 
361 "P16" 0.00000 0.00000 6.274510 0.0934630 0.0373790 0.492273 
362 "P17" 0.00000 3.137255 3.137255 0.130946 0.191586 0.260363 
363 "P18" 6.274510 9.411765 9.411765 0.705013 0.829178 0.987226 
364 "P19" 12.54902 15.68627 15.68627 1.737450 1.977682 2.298187 
365 "P20" 18.82353 21.96078 21.96078 3.346740 3.741800 4.288166 
