Example Targets Read/SpyderPrint Targets/High Quality Target Plus Grays (2-pages, 463-patches)/High Quality Target Plus Grays 2 of 2 (238-patches).ti1
CTI1

DESCRIPTOR "Argyll Calibration Target chart information 1"
ORIGINATOR "read_image_patch_colors.py"
CREATED "Mon Dec  1 04:06:25 2025"
ACCURATE_EXPECTED_VALUES "true"
APPROX_WHITE_POINT "95.053991 99.997087 108.929552"
COLOR_REP "iRGB"
WHITE_COLOR_PATCHES "1"
BLACK_COLOR_PATCHES "2"
COMP_GREY_STEPS "31"
SINGLE_DIM_STEPS "3"

NUMBER_OF_FIELDS 7
BEGIN_DATA_FORMAT
SAMPLE_ID RGB_R RGB_G RGB_B XYZ_X XYZ_Y XYZ_Z
END_DATA_FORMAT

NUMBER_OF_SETS 238
BEGIN_DATA
1 0.000000 0.000000 0.000000 0.000000 0.000000 0.000000
2 0.000000 0.000000 0.000000 0.000000 0.000000 0.000000
3 3.137255 3.137255 3.137255 0.231301 0.243329 0.265065
4 6.274510 6.274510 6.274510 0.492157 0.517750 0.564000
5 9.411765 9.411765 9.411765 0.868143 0.913289 0.994870
6 12.549020 12.549020 12.549020 1.372858 1.444251 1.573262
7 15.686275 15.686275 15.686275 2.016867 2.121750 2.311280
8 18.823529 18.823529 18.823529 2.809092 2.955174 3.219151
9 21.960784 21.960784 21.960784 3.758783 3.954251 4.307474
10 25.098039 25.098039 25.098039 4.873192 5.126613 5.584559
11 28.235294 28.235294 28.235294 6.159349 6.479654 7.058463
12 31.372549 31.372549 31.372549 7.625001 8.021524 8.738065
13 34.509804 34.509804 34.509804 9.276001 9.758381 10.630070
14 37.647059 37.647059 37.647059 11.118184 11.696364 12.741168
15 40.784314 40.784314 40.784314 13.158719 13.843012 15.079570
16 43.921569 43.921569 43.921569 15.401955 16.202904 17.650265
17 47.058824 47.058824 47.058824 17.852842 18.781244 20.458921
18 50.196078 50.196078 50.196078 20.518308 21.585322 23.513480
19 53.333333 53.333333 53.333333 23.402703 24.619715 26.818926
20 56.470588 56.470588 56.470588 26.510379 27.889000 30.380247
21 59.607843 59.607843 59.607843 29.845995 31.398077 34.202781
22 62.745098 62.745098 62.745098 33.414601 35.152262 38.292317
23 65.882353 65.882353 65.882353 37.220958 39.156561 42.654309
24 69.019608 69.019608 69.019608 41.268173 43.414243 47.292318
25 72.156863 72.156863 72.156863 45.561875 47.931231 52.212796
26 75.294118 75.294118 75.294118 50.104966 52.710576 57.419067
27 78.431373 78.431373 78.431373 54.900858 57.755870 62.915043
28 81.568627 81.568627 81.568627 59.955917 63.073807 68.708017
29 84.705882 84.705882 84.705882 65.272753 68.667135 74.800981
30 87.843137 87.843137 87.843137 70.853756 74.538366 81.196673
31 90.980392 90.980392 90.980392 76.703668 80.692492 87.900530
32 94.117647 94.117647 94.117647 82.827114 87.134376 94.917850
33 97.254902 97.254902 97.254902 89.225391 93.865383 102.250119
34 100.000000 100.000000 100.000000 95.053991 99.997087 108.929552
35 3.137255 0.000000 0.000000 0.100355 0.051743 0.004702
36 9.411765 6.274510 6.274510 0.655286 0.601861 0.571644
37 15.686275 12.549020 12.549020 1.652275 1.588320 1.586355
38 21.960784 18.823529 18.823529 3.221136 3.167625 3.238458
39 28.235294 25.098039 25.098039 5.431218 5.414334 5.610707
40 34.509804 31.372549 31.372549 8.341322 8.390862 8.771630
41 40.784314 37.647059 37.647059 12.003514 12.152844 12.782652
42 47.058824 43.921569 43.921569 16.465325 16.751182 17.700092
43 53.333333 50.196078 50.196078 21.769764 22.230579 23.572120
44 59.607843 56.470588 56.470588 27.957607 28.635197 30.448061
45 65.882353 62.745098 62.745098 35.066070 36.003767 38.369701
46 72.156863 69.019608 69.019608 43.131087 44.374770 47.379610
47 78.431373 75.294118 75.294118 52.185766 53.783446 57.516568
48 84.705882 81.568627 81.568627 62.262740 64.263215 68.816109
49 90.980392 87.843137 87.843137 73.391864 75.847027 81.315603
50 97.254902 94.117647 94.117647 85.603143 88.565709 95.047928
51 100.000000 97.254902 97.254902 91.754253 95.169276 102.368616
52 100.000000 94.117647 94.117647 88.132005 89.869601 95.166424
53 94.117647 87.843137 87.843137 76.048652 77.216878 81.440094
54 87.843137 81.568627 81.568627 64.684176 65.511719 68.929571
55 81.568627 75.294118 75.294118 54.379011 54.914293 57.619338
56 75.294118 69.019608 69.019608 45.102203 45.391087 47.471971
57 69.019608 62.745098 62.745098 36.822040 36.909153 38.451981
58 62.745098 56.470588 56.470588 29.505923 29.433515 30.520611
59 56.470588 50.196078 50.196078 23.118096 22.925784 23.635299
60 50.196078 43.921569 43.921569 17.621794 17.347462 17.754281
61 43.921569 37.647059 37.647059 12.976790 12.654669 12.828258
62 37.647059 31.372549 31.372549 9.140593 8.802970 8.809082
63 31.372549 25.098039 25.098039 6.067123 5.742209 5.640504
64 25.098039 18.823529 18.823529 3.704646 3.416925 3.261115
65 18.823529 12.549020 12.549020 1.995999 1.765545 1.602461
66 12.549020 6.274510 6.274510 0.874268 0.714769 0.581904
67 6.274510 0.000000 0.000000 0.213533 0.110098 0.010006
68 6.274510 0.000000 0.000000 0.213533 0.110098 0.010006
69 0.000000 3.137255 0.000000 0.087021 0.174019 0.029007
70 6.274510 9.411765 6.274510 0.633612 0.800622 0.611152
71 12.549020 15.686275 12.549020 1.615150 1.928769 1.654027
72 18.823529 21.960784 18.823529 3.166389 3.669671 3.338252
73 25.098039 28.235294 25.098039 5.357075 6.094249 5.745856
74 31.372549 34.509804 31.372549 8.246147 9.263649 8.945116
75 37.647059 40.784314 37.647059 11.885883 13.231554 12.997071
76 43.921569 47.058824 43.921569 16.324038 18.046821 17.957630
77 50.196078 53.333333 50.196078 21.603487 23.755388 23.875211
78 56.470588 59.607843 56.470588 27.765318 30.398540 30.798566
79 62.745098 65.882353 62.745098 34.846644 38.015963 38.769671
80 69.019608 72.156863 69.019608 42.883567 46.644597 47.830790
81 75.294118 78.431373 75.294118 51.909296 56.318751 58.020519
82 81.568627 84.705882 81.568627 61.956239 67.073912 69.374800
83 87.843137 90.980392 87.843137 73.054633 78.939530 81.930309
84 94.117647 97.254902 94.117647 85.234300 91.948100 95.720256
85 97.254902 100.000000 97.254902 91.418251 98.250512 102.981083
86 94.117647 100.000000 94.117647 87.427159 96.333229 96.451220
87 87.843137 94.117647 87.843137 75.358421 83.546486 82.698250
88 81.568627 87.843137 81.568627 64.055946 71.272762 70.074712
89 75.294118 81.568627 75.294118 53.811130 60.121909 58.654473
90 69.019608 75.294118 69.019608 44.592787 50.062577 48.400538
91 62.745098 69.019608 62.745098 36.369303 41.060872 39.277231
92 56.470588 62.745098 56.470588 29.107913 33.083370 31.246104
93 50.196078 56.470588 50.196078 22.772669 26.093439 24.264944
94 43.921569 50.196078 43.921569 17.326850 20.052176 18.291905
95 37.647059 43.921569 37.647059 12.729842 14.919246 13.278395
96 31.372549 37.647059 31.372549 8.939220 10.649610 9.176144
97 25.098039 31.372549 25.098039 5.908489 7.196928 5.929663
98 18.823529 25.098039 18.823529 3.585656 4.508093 3.478009
99 12.549020 18.823529 12.549020 1.913204 2.524797 1.753380
100 6.274510 12.549020 6.274510 0.823498 1.180344 0.674448
101 0.000000 6.274510 0.000000 0.185161 0.370273 0.061721
102 0.000000 6.274510 0.000000 0.185161 0.370273 0.061721
103 0.000000 0.000000 3.137255 0.043925 0.017567 0.231356
104 6.274510 6.274510 9.411765 0.563558 0.546307 0.940074
105 12.549020 12.549020 15.686275 1.495159 1.493164 2.217422
106 18.823529 18.823529 21.960784 2.989443 3.027303 4.169066
107 25.098039 25.098039 28.235294 5.117439 5.224297 6.871019
108 31.372549 31.372549 34.509804 7.938533 8.146918 10.389454
109 37.647059 37.647059 40.784314 11.505692 11.851343 14.782183
110 43.921569 43.921569 47.058824 15.867390 16.389049 20.101729
111 50.196078 50.196078 53.333333 21.066068 21.804392 26.398554
112 56.470588 56.470588 59.607843 27.143828 28.142340 33.716649
113 62.745098 62.745098 65.882353 34.137446 35.441355 42.099571
114 69.019608 69.019608 72.156863 42.083567 43.740350 51.587032
115 75.294118 75.294118 78.431373 51.015728 53.074825 62.216090
116 81.568627 81.568627 84.705882 60.965609 63.477622 74.026106
117 87.843137 87.843137 90.980392 71.964681 74.982668 87.047964
118 94.117647 94.117647 97.254902 84.042177 87.620326 101.317635
119 97.254902 97.254902 100.000000 90.332270 94.308066 108.080092
120 94.117647 94.117647 100.000000 85.149055 88.063009 107.147607
121 87.843137 87.843137 94.117647 73.127553 75.447745 93.172853
122 81.568627 81.568627 87.843137 62.025468 63.901500 79.608423
123 75.294118 75.294118 81.568627 51.975708 53.458757 67.272340
124 69.019608 69.019608 75.294118 42.946321 44.085399 56.131193
125 62.745098 62.745098 69.019608 34.906031 35.748742 46.147739
126 56.470588 56.470588 62.745098 27.821523 28.413376 37.286096
127 50.196078 50.196078 56.470588 21.656230 22.040421 29.506963
128 43.921569 43.921569 50.196078 16.373575 16.591492 22.767823
129 37.647059 37.647059 43.921569 11.931693 12.021717 17.025948
130 31.372549 31.372549 37.647059 8.288373 8.286832 12.232071
131 25.098039 25.098039 31.372549 5.395773 5.335613 8.337016
132 18.823529 18.823529 25.098039 3.201074 3.111942 5.283737
133 12.549020 12.549020 18.823529 1.645606 1.553333 3.009834
134 6.274510 6.274510 12.549020 0.659406 0.584640 1.444909
135 0.000000 0.000000 6.274510 0.093463 0.037379 0.492273
136 0.000000 0.000000 6.274510 0.093463 0.037379 0.492273
137 0.000000 3.137255 3.137255 0.130946 0.191586 0.260363
138 6.274510 9.411765 9.411765 0.705013 0.829178 0.987226
139 12.549020 15.686275 15.686275 1.737450 1.977682 2.298187
140 18.823529 21.960784 21.960784 3.346740 3.741800 4.288166
141 25.098039 28.235294 28.235294 5.601322 6.191933 7.032315
142 31.372549 34.509804 34.509804 8.559679 9.389042 10.596505
143 37.647059 40.784314 40.784314 12.273390 13.386533 15.038086
144 43.921569 47.058824 47.058824 16.789473 18.232966 20.409094
145 50.196078 53.333333 53.333333 22.151247 23.974458 26.760286
146 56.470588 59.607843 59.607843 28.398767 30.651880 34.134968
147 62.745098 65.882353 65.882353 35.569489 38.305057 42.576925
148 69.019608 72.156863 72.156863 43.698961 46.970704 52.125504
149 75.294118 78.431373 78.431373 52.820058 56.683000 62.817541
150 81.568627 84.705882 84.705882 62.965931 67.477727 74.692889
151 87.843137 90.980392 90.980392 74.165559 79.383831 87.781600
152 94.117647 97.254902 97.254902 86.449363 92.434050 102.120041
153 97.254902 100.000000 100.000000 92.525129 98.693195 108.811055
154 94.117647 100.000000 100.000000 89.749100 97.261862 108.680977
155 87.843137 94.117647 94.117647 77.632218 84.455864 94.674429
156 81.568627 87.843137 87.843137 66.125496 72.100455 80.975118
157 75.294118 81.568627 81.568627 55.681872 60.870090 68.507745
158 69.019608 75.294118 75.294118 46.270935 50.733733 57.239414
159 62.745098 69.019608 69.019608 37.860734 41.657352 47.132654
160 56.470588 62.745098 62.745098 30.419058 33.607746 38.151953
161 50.196078 56.470588 56.470588 23.910592 26.548537 30.258427
162 43.921569 50.196078 50.196078 18.298469 20.440764 23.409463
163 37.647059 43.921569 43.921569 13.543350 15.244599 17.563175
164 31.372549 37.647059 37.647059 9.602592 10.914918 12.670151
165 25.098039 31.372549 31.372549 6.431070 7.405928 8.682120
166 18.823529 25.098039 25.098039 3.977638 4.664861 5.542595
167 12.549020 18.823529 18.823529 2.185952 2.633879 3.189952
168 6.274510 12.549020 12.549020 0.990747 1.247233 1.555357
169 0.000000 6.274510 6.274510 0.278624 0.407652 0.553994
170 0.000000 6.274510 6.274510 0.278624 0.407652 0.553994
171 3.137255 0.000000 3.137255 0.144280 0.069311 0.236058
172 9.411765 6.274510 9.411765 0.726688 0.630417 0.947718
173 15.686275 12.549020 15.686275 1.774575 1.637232 2.230515
174 21.960784 18.823529 21.960784 3.401487 3.239754 4.188373
175 28.235294 25.098039 28.235294 5.675466 5.512018 6.897167
176 34.509804 31.372549 34.509804 8.654855 8.516256 10.423019
177 40.784314 37.647059 40.784314 12.391021 12.307822 14.823667
178 47.058824 43.921569 47.058824 16.930760 16.937327 20.151556
179 53.333333 50.196078 53.333333 22.317524 22.449649 26.457195
180 59.607843 56.470588 59.607843 28.591056 28.888537 33.784462
181 65.882353 62.745098 65.882353 35.788915 36.292860 42.176955
182 72.156863 69.019608 72.156863 43.946481 44.700877 51.674323
183 78.431373 75.294118 78.431373 53.096528 54.147695 62.313591
184 84.705882 81.568627 84.705882 63.272432 64.667030 74.134198
185 90.980392 87.843137 90.980392 74.502790 76.291328 87.166893
186 97.254902 94.117647 97.254902 86.818206 89.051659 101.447713
187 100.000000 97.254902 100.000000 92.861132 95.611959 108.198588
188 100.000000 94.117647 100.000000 90.453946 90.798234 107.396182
189 94.117647 87.843137 94.117647 78.322449 78.126256 93.416273
190 87.843137 81.568627 87.843137 66.753727 66.339411 79.829978
191 81.568627 75.294118 81.568627 56.249753 55.662474 67.472611
192 75.294118 69.019608 75.294118 46.780352 46.062242 56.310847
193 69.019608 62.745098 69.019608 38.313470 37.505633 46.307403
194 62.745098 56.470588 62.745098 30.817067 29.957892 37.426460
195 56.470588 50.196078 56.470588 24.256018 23.380883 29.628783
196 50.196078 43.921569 50.196078 18.593413 17.736050 22.871839
197 43.921569 37.647059 43.921569 13.790298 12.980022 17.113038
198 37.647059 31.372549 37.647059 9.803965 9.068278 12.303088
199 31.372549 25.098039 31.372549 6.589704 5.951209 8.392961
200 25.098039 18.823529 25.098039 4.096628 3.573694 5.325701
201 18.823529 12.549020 18.823529 2.268747 1.874628 3.039033
202 12.549020 6.274510 12.549020 1.041517 0.781658 1.462814
203 6.274510 0.000000 6.274510 0.306996 0.147478 0.502278
204 6.274510 0.000000 6.274510 0.306996 0.147478 0.502278
205 3.137255 3.137255 0.000000 0.187376 0.225762 0.033710
206 9.411765 9.411765 6.274510 0.796741 0.884733 0.618796
207 15.686275 15.686275 12.549020 1.894567 2.072838 1.667120
208 21.960784 21.960784 18.823529 3.578432 3.882122 3.357559
209 28.235294 28.235294 25.098039 5.915102 6.381970 5.772003
210 34.509804 34.509804 31.372549 8.962468 9.632987 8.978681
211 40.784314 40.784314 37.647059 12.771212 13.688033 13.038555
212 47.058824 47.058824 43.921569 17.387407 18.595099 18.007457
213 53.333333 53.333333 50.196078 22.854943 24.400644 23.933851
214 59.607843 59.607843 56.470588 29.212546 31.144737 30.866380
215 65.882353 65.882353 62.745098 36.498113 38.867468 38.847055
216 72.156863 72.156863 69.019608 44.746481 47.605123 47.918082
217 78.431373 78.431373 75.294118 53.990096 57.391621 58.118020
218 84.705882 84.705882 81.568627 64.263061 68.263320 69.482892
219 90.980392 90.980392 87.843137 75.592742 80.248190 82.049239
220 97.254902 97.254902 94.117647 88.010329 93.379433 95.850334
221 100.000000 100.000000 97.254902 93.947112 99.554404 103.099579
222 100.000000 100.000000 94.117647 92.732049 99.068454 96.699794
223 94.117647 94.117647 87.843137 80.553317 86.224997 82.941670
224 87.843137 87.843137 81.568627 68.784205 73.710674 70.296267
225 81.568627 81.568627 75.294118 58.085175 62.325626 58.854744
226 75.294118 75.294118 69.019608 48.426817 52.039421 48.580192
227 69.019608 69.019608 62.745098 39.776743 42.817763 39.436896
228 62.745098 62.745098 56.470588 32.103457 34.627885 31.386468
229 56.470588 56.470588 50.196078 25.372457 27.433901 24.386764
230 50.196078 50.196078 43.921569 19.546688 21.196734 18.395922
231 43.921569 43.921569 37.647059 14.588447 15.877551 13.365484
232 37.647059 37.647059 31.372549 10.454812 11.431056 9.247161
233 31.372549 31.372549 25.098039 7.102419 7.812524 5.985607
234 25.098039 25.098039 18.823529 4.481210 4.969844 3.519973
235 18.823529 18.823529 12.549020 2.536345 2.846091 1.782579
236 12.549020 12.549020 6.274510 1.205609 1.377362 0.692353
237 6.274510 6.274510 0.000000 0.398694 0.480371 0.071727
238 6.274510 6.274510 0.000000 0.398694 0.480371 0.071727
END_DATA

CTI1

DESCRIPTOR "Argyll Calibration Target chart information 1"
ORIGINATOR "Argyll targen"
DENSITY_EXTREME_VALUES "8"
CREATED "Mon Dec  1 04:06:25 2025"

NUMBER_OF_FIELDS "7"
BEGIN_DATA_FORMAT
INDEX RGB_R RGB_G RGB_B XYZ_X XYZ_Y XYZ_Z
END_DATA_FORMAT

NUMBER_OF_SETS "8"
BEGIN_DATA
0 0.000000 49.995270 43.750000 10.553522 16.464078 17.827876
1 0.000000 50.001230 50.000000 11.518815 16.853276 22.902426
2 0.000000 40.085320 59.909980 10.503940 11.836369 31.777250
3 0.000000 0.000000 78.363740 10.405823 4.161686 54.807888
4 30.559800 50.011200 0.000000 10.794151 16.931419 2.699745
5 0.000000 32.571370 0.000000 3.097963 6.195092 1.032669
6 100.000000 0.000000 0.000000 41.241196 21.264146 1.932463
7 0.000000 0.000000 21.872990 0.708368 0.283303 3.731003
END_DATA

CTI1

DESCRIPTOR "Argyll Calibration Target chart information 1"
ORIGINATOR "Argyll targen"
DEVICE_COMBINATION_VALUES "9"
CREATED "Mon Dec  1 04:06:25 2025"

NUMBER_OF_FIELDS "7"
BEGIN_DATA_FORMAT
INDEX RGB_R RGB_G RGB_B XYZ_X XYZ_Y XYZ_Z
END_DATA_FORMAT

NUMBER_OF_SETS "9"
BEGIN_DATA
0 100.000000 100.000000 100.000000 95.053991 99.997087 108.929552
1 0.000000 100.000000 100.000000 53.812794 78.732942 106.997089
2 100.000000 0.000000 100.000000 59.292396 28.483510 97.008851
3 0.000000 0.000000 100.000000 18.051199 7.219365 95.076389
4 100.000000 100.000000 0.000000 77.002791 92.777723 13.853163
5 0.000000 100.000000 0.000000 35.761595 71.513577 11.920700
6 100.000000 0.000000 0.000000 41.241196 21.264146 1.932463
7 0.000000 0.000000 0.000000 0.000000 0.000000 0.000000
8 50.000000 50.000000 50.000000 20.345920 21.403970 23.315927
END_DATA
