Example Targets Read/SpyderPrint Targets/High Quality Target Plus Grays (2-pages, 463-patches)/High Quality Target Plus Grays 1 of 2 (225-patches).ti2
CTI2

DESCRIPTOR "Argyll Calibration Target chart information 2"
ORIGINATOR "read_image_patch_colors.py"
CREATED "Mon Dec  1 04:06:24 2025"
ACCURATE_EXPECTED_VALUES "true"
APPROX_WHITE_POINT "95.053991 99.997087 108.929552"
COLOR_REP "iRGB"
STEPS_IN_PASS "15"
PASSES_IN_STRIPS2 "15"
STRIP_INDEX_PATTERN "0-9,@-9;1-99"
PATCH_INDEX_PATTERN "A-Z, A-Z"
INDEX_ORDER "STRIP_THEN_PATCH"

NUMBER_OF_FIELDS 8
BEGIN_DATA_FORMAT
SAMPLE_ID SAMPLE_LOC RGB_R RGB_G RGB_B XYZ_X XYZ_Y XYZ_Z
END_DATA_FORMAT

NUMBER_OF_SETS 225
BEGIN_DATA
1 "A1" 0.000000 0.000000 0.000000 0.000000 0.000000 0.000000
2 "B1" 0.000000 0.000000 25.098039 0.925442 0.370120 4.874340
3 "C1" 0.000000 0.000000 50.196078 3.896523 1.558368 20.523143
4 "D1" 0.000000 0.000000 75.294118 9.515168 3.805479 50.116772
5 "E1" 0.000000 0.000000 100.000000 18.051199 7.219365 95.076389
6 "F1" 25.098039 0.000000 0.000000 2.114338 1.090162 0.099073
7 "G1" 25.098039 0.000000 25.098039 3.039780 1.460282 4.973413
8 "H1" 25.098039 0.000000 50.196078 6.010861 2.648531 20.622215
9 "I1" 25.098039 0.000000 75.294118 11.629506 4.895642 50.215845
10 "J1" 25.098039 0.000000 100.000000 20.165537 8.309527 95.175461
11 "K1" 50.196078 0.000000 0.000000 8.902304 4.590068 0.417140
12 "L1" 50.196078 0.000000 25.098039 9.827746 4.960188 5.291481
13 "M1" 50.196078 0.000000 50.196078 12.798827 6.148437 20.940283
14 "N1" 50.196078 0.000000 75.294118 18.417473 8.395548 50.533913
15 "O1" 50.196078 0.000000 100.000000 26.953504 11.809433 95.493529
16 "A2" 0.000000 25.098039 0.000000 1.833412 3.666331 0.611146
17 "B2" 0.000000 25.098039 25.098039 2.758854 4.036451 5.485486
18 "C2" 0.000000 25.098039 50.196078 5.729935 5.224699 21.134289
19 "D2" 0.000000 25.098039 75.294118 11.348580 7.471810 50.727918
20 "E2" 0.000000 25.098039 100.000000 19.884611 10.885695 95.687535
21 "F2" 25.098039 25.098039 0.000000 3.947750 4.756493 0.710219
22 "G2" 25.098039 25.098039 25.098039 4.873192 5.126613 5.584559
23 "H2" 25.098039 25.098039 50.196078 7.844273 6.314862 21.233361
24 "I2" 25.098039 25.098039 75.294118 13.462918 8.561973 50.826991
25 "J2" 25.098039 25.098039 100.000000 21.998949 11.975858 95.786607
26 "K2" 50.196078 25.098039 0.000000 10.735716 8.256399 1.028286
27 "L2" 50.196078 25.098039 25.098039 11.661158 8.626519 5.902627
28 "M2" 50.196078 25.098039 50.196078 14.632239 9.814768 21.551429
29 "N2" 50.196078 25.098039 75.294118 20.250885 12.061879 51.145059
30 "O2" 50.196078 25.098039 100.000000 28.786916 15.475764 96.104675
31 "A3" 0.000000 50.196078 0.000000 7.719480 15.436886 2.573197
32 "B3" 0.000000 50.196078 25.098039 8.644922 15.807005 7.447537
33 "C3" 0.000000 50.196078 50.196078 11.616003 16.995254 23.096339
34 "D3" 0.000000 50.196078 75.294118 17.234649 19.242365 52.689969
35 "E3" 0.000000 50.196078 100.000000 25.770680 22.656250 97.649585
36 "F3" 25.098039 50.196078 0.000000 9.833818 16.527048 2.672269
37 "G3" 25.098039 50.196078 25.098039 10.759260 16.897167 7.546610
38 "H3" 25.098039 50.196078 50.196078 13.730341 18.085416 23.195412
39 "I3" 25.098039 50.196078 75.294118 19.348987 20.332527 52.789041
40 "J3" 25.098039 50.196078 100.000000 27.885018 23.746412 97.748658
41 "K3" 50.196078 50.196078 0.000000 16.621785 20.026954 2.990337
42 "L3" 50.196078 50.196078 25.098039 17.547227 20.397073 7.864677
43 "M3" 50.196078 50.196078 50.196078 20.518308 21.585322 23.513480
44 "N3" 50.196078 50.196078 75.294118 26.136953 23.832433 53.107109
45 "O3" 50.196078 50.196078 100.000000 34.672984 27.246318 98.066726
46 "A4" 0.000000 75.294118 0.000000 18.850692 37.696317 6.283653
47 "B4" 0.000000 75.294118 25.098039 19.776134 38.066436 11.157993
48 "C4" 0.000000 75.294118 50.196078 22.747215 39.254685 26.806796
49 "D4" 0.000000 75.294118 75.294118 28.365860 41.501796 56.400425
50 "E4" 0.000000 75.294118 100.000000 36.901891 44.915681 101.360042
51 "F4" 25.098039 75.294118 0.000000 20.965030 38.786479 6.382726
52 "G4" 25.098039 75.294118 25.098039 21.890472 39.156598 11.257066
53 "H4" 25.098039 75.294118 50.196078 24.861553 40.344847 26.905868
54 "I4" 25.098039 75.294118 75.294118 30.480198 42.591958 56.499498
55 "J4" 25.098039 75.294118 100.000000 39.016229 46.005843 101.459114
56 "K4" 50.196078 75.294118 0.000000 27.752996 42.286385 6.700793
57 "L4" 50.196078 75.294118 25.098039 28.678438 42.656504 11.575134
58 "M4" 50.196078 75.294118 50.196078 31.649519 43.844753 27.223936
59 "N4" 50.196078 75.294118 75.294118 37.268165 46.091864 56.817565
60 "O4" 50.196078 75.294118 100.000000 45.804196 49.505749 101.777182
61 "A5" 0.000000 100.000000 0.000000 35.761595 71.513577 11.920700
62 "B5" 0.000000 100.000000 25.098039 36.687037 71.883697 16.795041
63 "C5" 0.000000 100.000000 50.196078 39.658118 73.071946 32.443843
64 "D5" 0.000000 100.000000 75.294118 45.276763 75.319057 62.037473
65 "E5" 0.000000 100.000000 100.000000 53.812794 78.732942 106.997089
66 "F5" 25.098039 100.000000 0.000000 37.875933 72.603739 12.019773
67 "G5" 25.098039 100.000000 25.098039 38.801375 72.973859 16.894113
68 "H5" 25.098039 100.000000 50.196078 41.772456 74.162108 32.542916
69 "I5" 25.098039 100.000000 75.294118 47.391101 76.409219 62.136545
70 "J5" 25.098039 100.000000 100.000000 55.927132 79.823104 107.096162
71 "K5" 50.196078 100.000000 0.000000 44.663899 76.103645 12.337841
72 "L5" 50.196078 100.000000 25.098039 45.589341 76.473765 17.212181
73 "M5" 50.196078 100.000000 50.196078 48.560422 77.662014 32.860983
74 "N5" 50.196078 100.000000 75.294118 54.179068 79.909125 62.454613
75 "O5" 50.196078 100.000000 100.000000 62.715099 83.323010 107.414230
76 "A6" 75.294118 0.000000 0.000000 21.739106 11.208780 1.018642
77 "B6" 75.294118 0.000000 25.098039 22.664548 11.578900 5.892982
78 "C6" 75.294118 0.000000 50.196078 25.635629 12.767149 21.541784
79 "D6" 75.294118 0.000000 75.294118 31.254274 15.014260 51.135414
80 "E6" 75.294118 0.000000 100.000000 39.790305 18.428145 96.095031
81 "F6" 100.000000 0.000000 0.000000 41.241196 21.264146 1.932463
82 "G6" 100.000000 0.000000 25.098039 42.166639 21.634265 6.806803
83 "H6" 100.000000 0.000000 50.196078 45.137720 22.822514 22.455605
84 "I6" 100.000000 0.000000 75.294118 50.756365 25.069625 52.049235
85 "J6" 100.000000 0.000000 100.000000 59.292396 28.483510 97.008851
86 "K6" 0.000000 0.000000 12.549020 0.260712 0.104269 1.373182
87 "L6" 0.000000 12.549020 0.000000 0.516502 1.032866 0.172170
88 "M6" 0.000000 12.549020 12.549020 0.777215 1.137135 1.545352
89 "N6" 0.000000 12.549020 25.098039 1.441944 1.402985 5.046510
90 "O6" 0.000000 25.098039 12.549020 2.094124 3.770600 1.984328
91 "A7" 75.294118 25.098039 0.000000 23.572517 14.875111 1.629788
92 "B7" 75.294118 25.098039 25.098039 24.497959 15.245231 6.504128
93 "C7" 75.294118 25.098039 50.196078 27.469040 16.433480 22.152930
94 "D7" 75.294118 25.098039 75.294118 33.087686 18.680591 51.746560
95 "E7" 75.294118 25.098039 100.000000 41.623717 22.094476 96.706176
96 "F7" 100.000000 25.098039 0.000000 43.074608 24.930477 2.543609
97 "G7" 100.000000 25.098039 25.098039 44.000050 25.300596 7.417949
98 "H7" 100.000000 25.098039 50.196078 46.971131 26.488845 23.066751
99 "I7" 100.000000 25.098039 75.294118 52.589777 28.735956 52.660381
100 "J7" 100.000000 25.098039 100.000000 61.125808 32.149841 97.619997
101 "K7" 12.549020 0.000000 0.000000 0.595644 0.307117 0.027910
102 "L7" 12.549020 0.000000 12.549020 0.856356 0.411385 1.401092
103 "M7" 12.549020 12.549020 0.000000 1.112146 1.339982 0.200080
104 "N7" 12.549020 12.549020 12.549020 1.372858 1.444251 1.573262
105 "O7" 12.549020 25.098039 25.098039 3.354498 4.343567 5.513397
106 "A8" 75.294118 50.196078 0.000000 29.458586 26.645666 3.591838
107 "B8" 75.294118 50.196078 25.098039 30.384028 27.015786 8.466179
108 "C8" 75.294118 50.196078 50.196078 33.355109 28.204034 24.114981
109 "D8" 75.294118 50.196078 75.294118 38.973754 30.451145 53.708611
110 "E8" 75.294118 50.196078 100.000000 47.509785 33.865030 98.668227
111 "F8" 100.000000 50.196078 0.000000 48.960677 36.701031 4.505659
112 "G8" 100.000000 50.196078 25.098039 49.886119 37.071151 9.379999
113 "H8" 100.000000 50.196078 50.196078 52.857200 38.259400 25.028802
114 "I8" 100.000000 50.196078 75.294118 58.475845 40.506511 54.622431
115 "J8" 100.000000 50.196078 100.000000 67.011876 43.920396 99.582048
116 "K8" 25.098039 0.000000 12.549020 2.375050 1.194431 1.472255
117 "L8" 25.098039 12.549020 0.000000 2.630840 2.123028 0.271243
118 "M8" 25.098039 12.549020 12.549020 2.891553 2.227297 1.644425
119 "N8" 37.647059 37.647059 37.647059 11.118184 11.696364 12.741168
120 "O8" 62.745098 62.745098 62.745098 33.414601 35.152262 38.292317
121 "A9" 75.294118 75.294118 0.000000 40.589797 48.905097 7.302295
122 "B9" 75.294118 75.294118 25.098039 41.515239 49.275216 12.176635
123 "C9" 75.294118 75.294118 50.196078 44.486320 50.463465 27.825437
124 "D9" 75.294118 75.294118 75.294118 50.104966 52.710576 57.419067
125 "E9" 75.294118 75.294118 100.000000 58.640997 56.124461 102.378683
126 "F9" 100.000000 75.294118 0.000000 60.091888 58.960462 8.216116
127 "G9" 100.000000 75.294118 25.098039 61.017330 59.330582 13.090456
128 "H9" 100.000000 75.294118 50.196078 63.988411 60.518831 28.739258
129 "I9" 100.000000 75.294118 75.294118 69.607057 62.765942 58.332888
130 "J9" 100.000000 75.294118 100.000000 78.143088 66.179827 103.292504
131 "K9" 75.294118 87.843137 87.843137 61.851452 69.896738 80.774847
132 "L9" 75.294118 87.843137 100.000000 66.447190 71.734749 104.980785
133 "M9" 75.294118 100.000000 87.843137 70.956161 88.103710 83.809793
134 "N9" 87.843137 87.843137 87.843137 70.853756 74.538366 81.196673
135 "O9" 87.843137 87.843137 100.000000 75.449494 76.376378 105.402611
136 "A10" 75.294118 100.000000 0.000000 57.500700 82.722357 12.939342
137 "B10" 75.294118 100.000000 25.098039 58.426143 83.092477 17.813683
138 "C10" 75.294118 100.000000 50.196078 61.397224 84.280726 33.462485
139 "D10" 75.294118 100.000000 75.294118 67.015869 86.527837 63.056114
140 "E10" 75.294118 100.000000 100.000000 75.551900 89.941722 108.015731
141 "F10" 100.000000 100.000000 0.000000 77.002791 92.777723 13.853163
142 "G10" 100.000000 100.000000 25.098039 77.928233 93.147842 18.727503
143 "H10" 100.000000 100.000000 50.196078 80.899314 94.336091 34.376306
144 "I10" 100.000000 100.000000 75.294118 86.517960 96.583202 63.969935
145 "J10" 100.000000 100.000000 100.000000 95.053991 99.997087 108.929552
146 "K10" 87.843137 100.000000 87.843137 79.958465 92.745339 84.231620
147 "L10" 87.843137 100.000000 100.000000 84.554204 94.583350 108.437557
148 "M10" 100.000000 87.843137 87.843137 81.353543 79.952103 81.688668
149 "N10" 100.000000 87.843137 100.000000 85.949281 81.790115 105.894606
150 "O10" 100.000000 100.000000 87.843137 90.458252 98.159076 84.723614
151 "A11" 0.000000 0.000000 37.647059 2.111395 0.844428 11.120804
152 "B11" 0.000000 12.549020 37.647059 2.627898 1.877294 11.292974
153 "C11" 0.000000 25.098039 37.647059 3.944807 4.510759 11.731950
154 "D11" 0.000000 37.647059 0.000000 4.182928 8.364732 1.394329
155 "E11" 0.000000 37.647059 12.549020 4.443640 8.469001 2.767511
156 "F11" 37.647059 37.647059 50.196078 12.903312 12.410305 22.143506
157 "G11" 37.647059 50.196078 25.098039 13.468783 18.294210 7.673571
158 "H11" 37.647059 50.196078 37.647059 14.654737 18.768518 13.920035
159 "I11" 37.647059 50.196078 50.196078 16.439864 19.482458 23.322374
160 "J11" 50.196078 37.647059 37.647059 15.196628 13.799228 12.932274
161 "K11" 75.294118 75.294118 87.843137 54.045258 54.286450 78.172746
162 "L11" 75.294118 87.843137 62.745098 54.741580 67.053229 43.326871
163 "M11" 75.294118 87.843137 75.294118 57.911159 68.320864 60.021168
164 "N11" 75.294118 100.000000 62.745098 63.846290 85.260201 46.361817
165 "O11" 87.843137 62.745098 62.745098 49.658375 43.527625 39.053461
166 "A12" 0.000000 37.647059 25.098039 5.108370 8.734851 6.268669
167 "B12" 0.000000 37.647059 37.647059 6.294324 9.209160 12.515133
168 "C12" 12.549020 0.000000 25.098039 1.521086 0.677236 4.902251
169 "D12" 12.549020 12.549020 25.098039 2.037588 1.710102 5.074421
170 "E12" 12.549020 25.098039 0.000000 2.429056 3.973448 0.639056
171 "F12" 50.196078 37.647059 50.196078 16.981756 14.513168 22.334612
172 "G12" 50.196078 37.647059 62.745098 19.430822 15.492644 35.233944
173 "H12" 50.196078 50.196078 37.647059 18.733180 20.871381 14.111141
174 "I12" 50.196078 50.196078 62.745098 22.967374 22.564798 36.412812
175 "J12" 50.196078 62.745098 37.647059 23.585076 30.573868 15.728463
176 "K12" 87.843137 62.745098 75.294118 52.827954 44.795260 55.747758
177 "L12" 87.843137 62.745098 87.843137 56.768246 46.371134 76.501437
178 "M12" 87.843137 62.745098 100.000000 61.363985 48.209145 100.707375
179 "N12" 87.843137 75.294118 62.745098 55.937691 56.084569 41.146596
180 "O12" 87.843137 75.294118 75.294118 59.107270 57.352205 57.840893
181 "A13" 12.549020 25.098039 12.549020 2.689768 4.077716 2.012238
182 "B13" 12.549020 37.647059 37.647059 6.889967 9.516276 12.543044
183 "C13" 25.098039 0.000000 37.647059 4.225733 1.934590 11.219877
184 "D13" 25.098039 12.549020 25.098039 3.556282 2.493148 5.145583
185 "E13" 25.098039 12.549020 37.647059 4.742236 2.967456 11.392047
186 "F13" 50.196078 62.745098 50.196078 25.370203 31.287809 25.130801
187 "G13" 50.196078 62.745098 62.745098 27.819270 32.267284 38.030133
188 "H13" 62.745098 50.196078 50.196078 26.113639 24.470300 23.775663
189 "I13" 62.745098 50.196078 62.745098 28.562706 25.449775 36.674995
190 "J13" 62.745098 50.196078 75.294118 31.732284 26.717411 53.369293
191 "K13" 87.843137 75.294118 87.843137 63.047562 58.928078 78.594572
192 "L13" 87.843137 75.294118 100.000000 67.643301 60.766090 102.800510
193 "M13" 87.843137 87.843137 62.745098 63.743884 71.694857 43.748697
194 "N13" 87.843137 87.843137 75.294118 66.913463 72.962493 60.442994
195 "O13" 87.843137 100.000000 62.745098 72.848594 89.901829 46.783643
196 "A14" 25.098039 25.098039 12.549020 4.208462 4.860762 2.083401
197 "B14" 25.098039 25.098039 37.647059 6.059145 5.600921 11.831023
198 "C14" 25.098039 37.647059 0.000000 6.297266 9.454894 1.493402
199 "D14" 25.098039 37.647059 12.549020 6.557978 9.559163 2.866584
200 "E14" 25.098039 37.647059 25.098039 7.222708 9.825014 6.367742
201 "F14" 62.745098 62.745098 50.196078 30.965534 34.172787 25.392985
202 "G14" 62.745098 62.745098 75.294118 36.584180 36.419898 54.986614
203 "H14" 62.745098 75.294118 50.196078 37.244851 46.729731 27.486120
204 "I14" 62.745098 75.294118 62.745098 39.693917 47.709206 40.385452
205 "J14" 62.745098 75.294118 75.294118 42.863496 48.976842 57.079749
206 "K14" 87.843137 100.000000 75.294118 76.018173 91.169465 63.477941
207 "L14" 100.000000 62.745098 62.745098 60.158162 48.941362 39.545455
208 "M14" 100.000000 62.745098 75.294118 63.327741 50.208997 56.239753
209 "N14" 100.000000 62.745098 87.843137 67.268033 51.784871 76.993432
210 "O14" 100.000000 62.745098 100.000000 71.863772 53.622882 101.199369
211 "A15" 25.098039 37.647059 37.647059 8.408662 10.299322 12.614206
212 "B15" 37.647059 25.098039 25.098039 7.582715 6.523655 5.711521
213 "C15" 37.647059 25.098039 37.647059 8.768668 6.997963 11.957985
214 "D15" 37.647059 25.098039 50.196078 10.553796 7.711904 21.360323
215 "E15" 37.647059 37.647059 25.098039 9.932231 11.222056 6.494704
216 "F15" 75.294118 62.745098 62.745098 40.656071 38.885996 38.631634
217 "G15" 75.294118 62.745098 75.294118 43.825650 40.153632 55.325932
218 "H15" 75.294118 62.745098 87.843137 47.765942 41.729506 76.079611
219 "I15" 75.294118 62.745098 100.000000 52.361681 43.567517 100.285548
220 "J15" 75.294118 75.294118 62.745098 46.935387 51.442941 40.724769
221 "K15" 100.000000 75.294118 62.745098 66.437478 61.498306 41.638590
222 "L15" 100.000000 75.294118 87.843137 73.547349 64.341815 79.086567
223 "M15" 100.000000 87.843137 62.745098 74.243671 77.108594 44.240692
224 "N15" 100.000000 87.843137 75.294118 77.413250 78.376230 60.934989
225 "O15" 100.000000 100.000000 62.745098 83.348381 95.315567 47.275638
END_DATA
