Example Targets Read/SpyderPrint Targets/High Quality Target Plus Grays (2-pages, 463-patches)/High Quality Target Plus Grays 2 of 2 (238-patches).ti2
CTI2

DESCRIPTOR "Argyll Calibration Target chart information 2"
ORIGINATOR "read_image_patch_colors.py (colormath backend)"
CREATED "Sun Nov 30 22:58:26 2025"
ACCURATE_EXPECTED_VALUES "true"
APPROX_WHITE_POINT "95.053991 99.997087 108.929552"
COLOR_REP "iRGB"
STEPS_IN_PASS "14"
PASSES_IN_STRIPS2 "17"
STRIP_INDEX_PATTERN "0-9,@-9;1-99"
PATCH_INDEX_PATTERN "A-Z, A-Z"
INDEX_ORDER "STRIP_THEN_PATCH"

NUMBER_OF_FIELDS 8
BEGIN_DATA_FORMAT
SAMPLE_ID SAMPLE_LOC RGB_R RGB_G RGB_B XYZ_X XYZ_Y XYZ_Z
END_DATA_FORMAT

NUMBER_OF_SETS 238
BEGIN_DATA
1 "A1" 0.000000 0.000000 0.000000 0.000000 0.000000 0.000000
2 "B1" 0.000000 0.000000 0.000000 0.000000 0.000000 0.000000
3 "C1" 3.137255 3.137255 3.137255 0.231301 0.243329 0.265065
4 "D1" 6.274510 6.274510 6.274510 0.492157 0.517750 0.564000
5 "E1" 9.411765 9.411765 9.411765 0.868143 0.913289 0.994870
6 "F1" 12.549020 12.549020 12.549020 1.372858 1.444251 1.573262
7 "G1" 15.686275 15.686275 15.686275 2.016867 2.121750 2.311280
8 "H1" 18.823529 18.823529 18.823529 2.809092 2.955174 3.219151
9 "I1" 21.960784 21.960784 21.960784 3.758783 3.954251 4.307474
10 "J1" 25.098039 25.098039 25.098039 4.873192 5.126613 5.584559
11 "K1" 28.235294 28.235294 28.235294 6.159349 6.479654 7.058463
12 "L1" 31.372549 31.372549 31.372549 7.625001 8.021524 8.738065
13 "M1" 34.509804 34.509804 34.509804 9.276001 9.758381 10.630070
14 "N1" 37.647059 37.647059 37.647059 11.118184 11.696364 12.741168
15 "O1" 40.784314 40.784314 40.784314 13.158719 13.843012 15.079570
16 "P1" 43.921569 43.921569 43.921569 15.401955 16.202904 17.650265
17 "Q1" 47.058824 47.058824 47.058824 17.852842 18.781244 20.458921
18 "A2" 50.196078 50.196078 50.196078 20.518308 21.585322 23.513480
19 "B2" 53.333333 53.333333 53.333333 23.402703 24.619715 26.818926
20 "C2" 56.470588 56.470588 56.470588 26.510379 27.889000 30.380247
21 "D2" 59.607843 59.607843 59.607843 29.845995 31.398077 34.202781
22 "E2" 62.745098 62.745098 62.745098 33.414601 35.152262 38.292317
23 "F2" 65.882353 65.882353 65.882353 37.220958 39.156561 42.654309
24 "G2" 69.019608 69.019608 69.019608 41.268173 43.414243 47.292318
25 "H2" 72.156863 72.156863 72.156863 45.561875 47.931231 52.212796
26 "I2" 75.294118 75.294118 75.294118 50.104966 52.710576 57.419067
27 "J2" 78.431373 78.431373 78.431373 54.900858 57.755870 62.915043
28 "K2" 81.568627 81.568627 81.568627 59.955917 63.073807 68.708017
29 "L2" 84.705882 84.705882 84.705882 65.272753 68.667135 74.800981
30 "M2" 87.843137 87.843137 87.843137 70.853756 74.538366 81.196673
31 "N2" 90.980392 90.980392 90.980392 76.703668 80.692492 87.900530
32 "O2" 94.117647 94.117647 94.117647 82.827114 87.134376 94.917850
33 "P2" 97.254902 97.254902 97.254902 89.225391 93.865383 102.250119
34 "Q2" 100.000000 100.000000 100.000000 95.053991 99.997087 108.929552
35 "A3" 3.137255 0.000000 0.000000 0.100355 0.051743 0.004702
36 "B3" 9.411765 6.274510 6.274510 0.655286 0.601861 0.571644
37 "C3" 15.686275 12.549020 12.549020 1.652275 1.588320 1.586355
38 "D3" 21.960784 18.823529 18.823529 3.221136 3.167625 3.238458
39 "E3" 28.235294 25.098039 25.098039 5.431218 5.414334 5.610707
40 "F3" 34.509804 31.372549 31.372549 8.341322 8.390862 8.771630
41 "G3" 40.784314 37.647059 37.647059 12.003514 12.152844 12.782652
42 "H3" 47.058824 43.921569 43.921569 16.465325 16.751182 17.700092
43 "I3" 53.333333 50.196078 50.196078 21.769764 22.230579 23.572120
44 "J3" 59.607843 56.470588 56.470588 27.957607 28.635197 30.448061
45 "K3" 65.882353 62.745098 62.745098 35.066070 36.003767 38.369701
46 "L3" 72.156863 69.019608 69.019608 43.131087 44.374770 47.379610
47 "M3" 78.431373 75.294118 75.294118 52.185766 53.783446 57.516568
48 "N3" 84.705882 81.568627 81.568627 62.262740 64.263215 68.816109
49 "O3" 90.980392 87.843137 87.843137 73.391864 75.847027 81.315603
50 "P3" 97.254902 94.117647 94.117647 85.603143 88.565709 95.047928
51 "Q3" 100.000000 97.254902 97.254902 91.754253 95.169276 102.368616
52 "A4" 100.000000 94.117647 94.117647 88.132005 89.869601 95.166424
53 "B4" 94.117647 87.843137 87.843137 76.048652 77.216878 81.440094
54 "C4" 87.843137 81.568627 81.568627 64.684176 65.511719 68.929571
55 "D4" 81.568627 75.294118 75.294118 54.379011 54.914293 57.619338
56 "E4" 75.294118 69.019608 69.019608 45.102203 45.391087 47.471971
57 "F4" 69.019608 62.745098 62.745098 36.822040 36.909153 38.451981
58 "G4" 62.745098 56.470588 56.470588 29.505923 29.433515 30.520611
59 "H4" 56.470588 50.196078 50.196078 23.118096 22.925784 23.635299
60 "I4" 50.196078 43.921569 43.921569 17.621794 17.347462 17.754281
61 "J4" 43.921569 37.647059 37.647059 12.976790 12.654669 12.828258
62 "K4" 37.647059 31.372549 31.372549 9.140593 8.802970 8.809082
63 "L4" 31.372549 25.098039 25.098039 6.067123 5.742209 5.640504
64 "M4" 25.098039 18.823529 18.823529 3.704646 3.416925 3.261115
65 "N4" 18.823529 12.549020 12.549020 1.995999 1.765545 1.602461
66 "O4" 12.549020 6.274510 6.274510 0.874268 0.714769 0.581904
67 "P4" 6.274510 0.000000 0.000000 0.213533 0.110098 0.010006
68 "Q4" 6.274510 0.000000 0.000000 0.213533 0.110098 0.010006
69 "A5" 0.000000 3.137255 0.000000 0.087021 0.174019 0.029007
70 "B5" 6.274510 9.411765 6.274510 0.633612 0.800622 0.611152
71 "C5" 12.549020 15.686275 12.549020 1.615150 1.928769 1.654027
72 "D5" 18.823529 21.960784 18.823529 3.166389 3.669671 3.338252
73 "E5" 25.098039 28.235294 25.098039 5.357075 6.094249 5.745856
74 "F5" 31.372549 34.509804 31.372549 8.246147 9.263649 8.945116
75 "G5" 37.647059 40.784314 37.647059 11.885883 13.231554 12.997071
76 "H5" 43.921569 47.058824 43.921569 16.324038 18.046821 17.957630
77 "I5" 50.196078 53.333333 50.196078 21.603487 23.755388 23.875211
78 "J5" 56.470588 59.607843 56.470588 27.765318 30.398540 30.798566
79 "K5" 62.745098 65.882353 62.745098 34.846644 38.015963 38.769671
80 "L5" 69.019608 72.156863 69.019608 42.883567 46.644597 47.830790
81 "M5" 75.294118 78.431373 75.294118 51.909296 56.318751 58.020519
82 "N5" 81.568627 84.705882 81.568627 61.956239 67.073912 69.374800
83 "O5" 87.843137 90.980392 87.843137 73.054633 78.939530 81.930309
84 "P5" 94.117647 97.254902 94.117647 85.234300 91.948100 95.720256
85 "Q5" 97.254902 100.000000 97.254902 91.418251 98.250512 102.981083
86 "A6" 94.117647 100.000000 94.117647 87.427159 96.333229 96.451220
87 "B6" 87.843137 94.117647 87.843137 75.358421 83.546486 82.698250
88 "C6" 81.568627 87.843137 81.568627 64.055946 71.272762 70.074712
89 "D6" 75.294118 81.568627 75.294118 53.811130 60.121909 58.654473
90 "E6" 69.019608 75.294118 69.019608 44.592787 50.062577 48.400538
91 "F6" 62.745098 69.019608 62.745098 36.369303 41.060872 39.277231
92 "G6" 56.470588 62.745098 56.470588 29.107913 33.083370 31.246104
93 "H6" 50.196078 56.470588 50.196078 22.772669 26.093439 24.264944
94 "I6" 43.921569 50.196078 43.921569 17.326850 20.052176 18.291905
95 "J6" 37.647059 43.921569 37.647059 12.729842 14.919246 13.278395
96 "K6" 31.372549 37.647059 31.372549 8.939220 10.649610 9.176144
97 "L6" 25.098039 31.372549 25.098039 5.908489 7.196928 5.929663
98 "M6" 18.823529 25.098039 18.823529 3.585656 4.508093 3.478009
99 "N6" 12.549020 18.823529 12.549020 1.913204 2.524797 1.753380
100 "O6" 6.274510 12.549020 6.274510 0.823498 1.180344 0.674448
101 "P6" 0.000000 6.274510 0.000000 0.185161 0.370273 0.061721
102 "Q6" 0.000000 6.274510 0.000000 0.185161 0.370273 0.061721
103 "A7" 0.000000 0.000000 3.137255 0.043925 0.017567 0.231356
104 "B7" 6.274510 6.274510 9.411765 0.563558 0.546307 0.940074
105 "C7" 12.549020 12.549020 15.686275 1.495159 1.493164 2.217422
106 "D7" 18.823529 18.823529 21.960784 2.989443 3.027303 4.169066
107 "E7" 25.098039 25.098039 28.235294 5.117439 5.224297 6.871019
108 "F7" 31.372549 31.372549 34.509804 7.938533 8.146918 10.389454
109 "G7" 37.647059 37.647059 40.784314 11.505692 11.851343 14.782183
110 "H7" 43.921569 43.921569 47.058824 15.867390 16.389049 20.101729
111 "I7" 50.196078 50.196078 53.333333 21.066068 21.804392 26.398554
112 "J7" 56.470588 56.470588 59.607843 27.143828 28.142340 33.716649
113 "K7" 62.745098 62.745098 65.882353 34.137446 35.441355 42.099571
114 "L7" 69.019608 69.019608 72.156863 42.083567 43.740350 51.587032
115 "M7" 75.294118 75.294118 78.431373 51.015728 53.074825 62.216090
116 "N7" 81.568627 81.568627 84.705882 60.965609 63.477622 74.026106
117 "O7" 87.843137 87.843137 90.980392 71.964681 74.982668 87.047964
118 "P7" 94.117647 94.117647 97.254902 84.042177 87.620326 101.317635
119 "Q7" 97.254902 97.254902 100.000000 90.332270 94.308066 108.080092
120 "A8" 94.117647 94.117647 100.000000 85.149055 88.063009 107.147607
121 "B8" 87.843137 87.843137 94.117647 73.127553 75.447745 93.172853
122 "C8" 81.568627 81.568627 87.843137 62.025468 63.901500 79.608423
123 "D8" 75.294118 75.294118 81.568627 51.975708 53.458757 67.272340
124 "E8" 69.019608 69.019608 75.294118 42.946321 44.085399 56.131193
125 "F8" 62.745098 62.745098 69.019608 34.906031 35.748742 46.147739
126 "G8" 56.470588 56.470588 62.745098 27.821523 28.413376 37.286096
127 "H8" 50.196078 50.196078 56.470588 21.656230 22.040421 29.506963
128 "I8" 43.921569 43.921569 50.196078 16.373575 16.591492 22.767823
129 "J8" 37.647059 37.647059 43.921569 11.931693 12.021717 17.025948
130 "K8" 31.372549 31.372549 37.647059 8.288373 8.286832 12.232071
131 "L8" 25.098039 25.098039 31.372549 5.395773 5.335613 8.337016
132 "M8" 18.823529 18.823529 25.098039 3.201074 3.111942 5.283737
133 "N8" 12.549020 12.549020 18.823529 1.645606 1.553333 3.009834
134 "O8" 6.274510 6.274510 12.549020 0.659406 0.584640 1.444909
135 "P8" 0.000000 0.000000 6.274510 0.093463 0.037379 0.492273
136 "Q8" 0.000000 0.000000 6.274510 0.093463 0.037379 0.492273
137 "A9" 0.000000 3.137255 3.137255 0.130946 0.191586 0.260363
138 "B9" 6.274510 9.411765 9.411765 0.705013 0.829178 0.987226
139 "C9" 12.549020 15.686275 15.686275 1.737450 1.977682 2.298187
140 "D9" 18.823529 21.960784 21.960784 3.346740 3.741800 4.288166
141 "E9" 25.098039 28.235294 28.235294 5.601322 6.191933 7.032315
142 "F9" 31.372549 34.509804 34.509804 8.559679 9.389042 10.596505
143 "G9" 37.647059 40.784314 40.784314 12.273390 13.386533 15.038086
144 "H9" 43.921569 47.058824 47.058824 16.789473 18.232966 20.409094
145 "I9" 50.196078 53.333333 53.333333 22.151247 23.974458 26.760286
146 "J9" 56.470588 59.607843 59.607843 28.398767 30.651880 34.134968
147 "K9" 62.745098 65.882353 65.882353 35.569489 38.305057 42.576925
148 "L9" 69.019608 72.156863 72.156863 43.698961 46.970704 52.125504
149 "M9" 75.294118 78.431373 78.431373 52.820058 56.683000 62.817541
150 "N9" 81.568627 84.705882 84.705882 62.965931 67.477727 74.692889
151 "O9" 87.843137 90.980392 90.980392 74.165559 79.383831 87.781600
152 "P9" 94.117647 97.254902 97.254902 86.449363 92.434050 102.120041
153 "Q9" 97.254902 100.000000 100.000000 92.525129 98.693195 108.811055
154 "A10" 94.117647 100.000000 100.000000 89.749100 97.261862 108.680977
155 "B10" 87.843137 94.117647 94.117647 77.632218 84.455864 94.674429
156 "C10" 81.568627 87.843137 87.843137 66.125496 72.100455 80.975118
157 "D10" 75.294118 81.568627 81.568627 55.681872 60.870090 68.507745
158 "E10" 69.019608 75.294118 75.294118 46.270935 50.733733 57.239414
159 "F10" 62.745098 69.019608 69.019608 37.860734 41.657352 47.132654
160 "G10" 56.470588 62.745098 62.745098 30.419058 33.607746 38.151953
161 "H10" 50.196078 56.470588 56.470588 23.910592 26.548537 30.258427
162 "I10" 43.921569 50.196078 50.196078 18.298469 20.440764 23.409463
163 "J10" 37.647059 43.921569 43.921569 13.543350 15.244599 17.563175
164 "K10" 31.372549 37.647059 37.647059 9.602592 10.914918 12.670151
165 "L10" 25.098039 31.372549 31.372549 6.431070 7.405928 8.682120
166 "M10" 18.823529 25.098039 25.098039 3.977638 4.664861 5.542595
167 "N10" 12.549020 18.823529 18.823529 2.185952 2.633879 3.189952
168 "O10" 6.274510 12.549020 12.549020 0.990747 1.247233 1.555357
169 "P10" 0.000000 6.274510 6.274510 0.278624 0.407652 0.553994
170 "Q10" 0.000000 6.274510 6.274510 0.278624 0.407652 0.553994
171 "A11" 3.137255 0.000000 3.137255 0.144280 0.069311 0.236058
172 "B11" 9.411765 6.274510 9.411765 0.726688 0.630417 0.947718
173 "C11" 15.686275 12.549020 15.686275 1.774575 1.637232 2.230515
174 "D11" 21.960784 18.823529 21.960784 3.401487 3.239754 4.188373
175 "E11" 28.235294 25.098039 28.235294 5.675466 5.512018 6.897167
176 "F11" 34.509804 31.372549 34.509804 8.654855 8.516256 10.423019
177 "G11" 40.784314 37.647059 40.784314 12.391021 12.307822 14.823667
178 "H11" 47.058824 43.921569 47.058824 16.930760 16.937327 20.151556
179 "I11" 53.333333 50.196078 53.333333 22.317524 22.449649 26.457195
180 "J11" 59.607843 56.470588 59.607843 28.591056 28.888537 33.784462
181 "K11" 65.882353 62.745098 65.882353 35.788915 36.292860 42.176955
182 "L11" 72.156863 69.019608 72.156863 43.946481 44.700877 51.674323
183 "M11" 78.431373 75.294118 78.431373 53.096528 54.147695 62.313591
184 "N11" 84.705882 81.568627 84.705882 63.272432 64.667030 74.134198
185 "O11" 90.980392 87.843137 90.980392 74.502790 76.291328 87.166893
186 "P11" 97.254902 94.117647 97.254902 86.818206 89.051659 101.447713
187 "Q11" 100.000000 97.254902 100.000000 92.861132 95.611959 108.198588
188 "A12" 100.000000 94.117647 100.000000 90.453946 90.798234 107.396182
189 "B12" 94.117647 87.843137 94.117647 78.322449 78.126256 93.416273
190 "C12" 87.843137 81.568627 87.843137 66.753727 66.339411 79.829978
191 "D12" 81.568627 75.294118 81.568627 56.249753 55.662474 67.472611
192 "E12" 75.294118 69.019608 75.294118 46.780352 46.062242 56.310847
193 "F12" 69.019608 62.745098 69.019608 38.313470 37.505633 46.307403
194 "G12" 62.745098 56.470588 62.745098 30.817067 29.957892 37.426460
195 "H12" 56.470588 50.196078 56.470588 24.256018 23.380883 29.628783
196 "I12" 50.196078 43.921569 50.196078 18.593413 17.736050 22.871839
197 "J12" 43.921569 37.647059 43.921569 13.790298 12.980022 17.113038
198 "K12" 37.647059 31.372549 37.647059 9.803965 9.068278 12.303088
199 "L12" 31.372549 25.098039 31.372549 6.589704 5.951209 8.392961
200 "M12" 25.098039 18.823529 25.098039 4.096628 3.573694 5.325701
201 "N12" 18.823529 12.549020 18.823529 2.268747 1.874628 3.039033
202 "O12" 12.549020 6.274510 12.549020 1.041517 0.781658 1.462814
203 "P12" 6.274510 0.000000 6.274510 0.306996 0.147478 0.502278
204 "Q12" 6.274510 0.000000 6.274510 0.306996 0.147478 0.502278
205 "A13" 3.137255 3.137255 0.000000 0.187376 0.225762 0.033710
206 "B13" 9.411765 9.411765 6.274510 0.796741 0.884733 0.618796
207 "C13" 15.686275 15.686275 12.549020 1.894567 2.072838 1.667120
208 "D13" 21.960784 21.960784 18.823529 3.578432 3.882122 3.357559
209 "E13" 28.235294 28.235294 25.098039 5.915102 6.381970 5.772003
210 "F13" 34.509804 34.509804 31.372549 8.962468 9.632987 8.978681
211 "G13" 40.784314 40.784314 37.647059 12.771212 13.688033 13.038555
212 "H13" 47.058824 47.058824 43.921569 17.387407 18.595099 18.007457
213 "I13" 53.333333 53.333333 50.196078 22.854943 24.400644 23.933851
214 "J13" 59.607843 59.607843 56.470588 29.212546 31.144737 30.866380
215 "K13" 65.882353 65.882353 62.745098 36.498113 38.867468 38.847055
216 "L13" 72.156863 72.156863 69.019608 44.746481 47.605123 47.918082
217 "M13" 78.431373 78.431373 75.294118 53.990096 57.391621 58.118020
218 "N13" 84.705882 84.705882 81.568627 64.263061 68.263320 69.482892
219 "O13" 90.980392 90.980392 87.843137 75.592742 80.248190 82.049239
220 "P13" 97.254902 97.254902 94.117647 88.010329 93.379433 95.850334
221 "Q13" 100.000000 100.000000 97.254902 93.947112 99.554404 103.099579
222 "A14" 100.000000 100.000000 94.117647 92.732049 99.068454 96.699794
223 "B14" 94.117647 94.117647 87.843137 80.553317 86.224997 82.941670
224 "C14" 87.843137 87.843137 81.568627 68.784205 73.710674 70.296267
225 "D14" 81.568627 81.568627 75.294118 58.085175 62.325626 58.854744
226 "E14" 75.294118 75.294118 69.019608 48.426817 52.039421 48.580192
227 "F14" 69.019608 69.019608 62.745098 39.776743 42.817763 39.436896
228 "G14" 62.745098 62.745098 56.470588 32.103457 34.627885 31.386468
229 "H14" 56.470588 56.470588 50.196078 25.372457 27.433901 24.386764
230 "I14" 50.196078 50.196078 43.921569 19.546688 21.196734 18.395922
231 "J14" 43.921569 43.921569 37.647059 14.588447 15.877551 13.365484
232 "K14" 37.647059 37.647059 31.372549 10.454812 11.431056 9.247161
233 "L14" 31.372549 31.372549 25.098039 7.102419 7.812524 5.985607
234 "M14" 25.098039 25.098039 18.823529 4.481210 4.969844 3.519973
235 "N14" 18.823529 18.823529 12.549020 2.536345 2.846091 1.782579
236 "O14" 12.549020 12.549020 6.274510 1.205609 1.377362 0.692353
237 "P14" 6.274510 6.274510 0.000000 0.398694 0.480371 0.071727
238 "Q14" 6.274510 6.274510 0.000000 0.398694 0.480371 0.071727
END_DATA
