Example Targets Read/ArgyllCMS printtarg targets/Size Letter/Letter-LaserSoft Advanced Target (2 pages - 924 patches)-i1/Letter-LaserSoft Advanced Target (2 pages - 924 patches)-i1.ti2
CTI2   

DESCRIPTOR "Argyll Calibration Target chart information 2"
ORIGINATOR "Argyll printtarg"
CREATED "Fri Nov 21 21:38:55 2025"
TARGET_INSTRUMENT "GretagMacbeth i1 Pro"
ACCURATE_EXPECTED_VALUES "true"
APPROX_WHITE_POINT "96.420986 99.999714 82.531487"
COLOR_REP "iRGB"
PAPER_SIZE "215.9x279.4"
CHART_ID "463"
STEPS_IN_PASS "22"
PASSES_IN_STRIPS2 "21,21"
STRIP_INDEX_PATTERN "A-Z, A-Z"
PATCH_INDEX_PATTERN "0-9,@-9,@-9;1-999"
INDEX_ORDER "STRIP_THEN_PATCH"

NUMBER_OF_FIELDS 8
BEGIN_DATA_FORMAT
SAMPLE_ID SAMPLE_LOC RGB_R RGB_G RGB_B XYZ_X XYZ_Y XYZ_Z 
END_DATA_FORMAT

NUMBER_OF_SETS 924
BEGIN_DATA
1 "A1" 29.41176 20.00000 20.00000 4.816477 4.139349 2.784086 
2 "A2" 24.31373 15.29412 16.07843 3.199045 2.660646 1.847954 
3 "A3" 19.21569 12.15686 12.54902 2.073547 1.753182 1.207534 
4 "A4" 16.86275 10.58824 10.98039 1.641581 1.393588 0.969520 
5 "A5" 49.01961 34.90196 35.68627 14.28612 12.35856 8.728297 
6 "A6" 44.70588 31.37255 31.76471 11.60371 9.993453 6.890671 
7 "A7" 40.78431 27.05882 28.23529 9.255109 7.739065 5.399494 
8 "A8" 35.68627 23.13725 23.92157 6.913582 5.745786 3.903619 
9 "A9" 73.72549 67.05882 66.27451 43.28702 42.78834 32.99447 
10 "A10" 68.62745 61.17647 61.17647 36.25171 35.38625 27.57179 
11 "A11" 63.13725 55.29412 54.90196 29.54983 28.61397 21.81496 
12 "A12" 58.43137 50.58824 50.58824 24.69963 23.75509 18.23069 
13 "A13" 29.01961 21.17647 17.64706 4.781935 4.327186 2.327968 
14 "A14" 24.31373 16.47059 12.94118 3.209684 2.823791 1.378252 
15 "A15" 19.21569 12.54902 11.37255 2.071238 1.793278 1.060642 
16 "A16" 18.82353 12.15686 10.98039 1.982594 1.710282 1.003668 
17 "A17" 51.76471 36.07843 30.19608 15.24432 13.25591 6.661613 
18 "A18" 47.84314 31.76471 25.88235 12.43419 10.55900 4.961542 
19 "A19" 42.35294 26.66667 22.74510 9.370237 7.736906 3.792445 
20 "A20" 36.86275 23.13725 19.21569 7.004316 5.811848 2.774420 
21 "A21" 73.72549 66.66667 64.31373 42.71923 42.25638 31.12070 
22 "A22" 68.62745 61.17647 58.82353 35.85870 35.21975 25.61008 
23 "B1" 63.52941 55.68627 52.54902 29.58194 28.87547 20.15824 
24 "B2" 58.82353 50.98039 47.84314 24.67948 23.96832 16.49367 
25 "B3" 94.50980 92.15686 93.72549 82.69728 84.36001 70.94609 
26 "B4" 94.50980 92.15686 93.33333 82.58045 84.31051 70.36291 
27 "B5" 94.50980 92.15686 93.33333 82.58045 84.31051 70.36291 
28 "B6" 94.50980 92.15686 93.33333 82.58045 84.31051 70.36291 
29 "B7" 94.11765 92.15686 93.33333 82.22048 84.12684 70.35141 
30 "B8" 94.50980 92.15686 93.33333 82.58045 84.31051 70.36291 
31 "B9" 25.88235 23.92157 22.35294 4.757986 4.805514 3.451524 
32 "B10" 27.05882 25.09804 23.52941 5.215774 5.273420 3.808313 
33 "B11" 68.62745 65.88235 65.09804 39.22767 39.92084 31.63688 
34 "B12" 69.80392 67.45098 66.27451 40.97589 41.88504 32.96559 
35 "B13" 38.43137 17.64706 12.15686 6.532288 4.681689 1.403679 
36 "B14" 33.33333 18.43137 14.11765 5.308120 4.165883 1.662711 
37 "B15" 33.33333 14.11765 17.25490 5.000828 3.438530 2.096908 
38 "B16" 29.01961 12.15686 13.72549 3.754064 2.607726 1.428967 
39 "B17" 25.09804 11.37255 12.15686 2.904748 2.104547 1.169443 
40 "B18" 24.31373 10.98039 11.37255 2.723458 1.978711 1.057467 
41 "B19" 56.47059 31.37255 33.72549 16.58161 12.52004 7.814509 
42 "B20" 52.15686 27.05882 30.19608 13.58095 9.934636 6.205556 
43 "B21" 46.66667 23.13725 25.88235 10.50757 7.569913 4.573093 
44 "B22" 40.78431 18.82353 21.56863 7.721027 5.430422 3.208719 
45 "C1" 77.25490 65.49020 64.70588 44.61042 42.40599 31.40586 
46 "C2" 71.37255 59.21569 59.21569 36.74247 34.46910 25.76148 
47 "C3" 67.05882 54.50980 54.11765 31.33607 29.11011 21.22796 
48 "C4" 62.35294 48.62745 48.62745 25.76328 23.38491 16.83694 
49 "C5" 32.94118 18.03922 13.33333 5.146691 4.028041 1.531388 
50 "C6" 27.84314 14.11765 11.37255 3.602648 2.741102 1.136690 
51 "C7" 25.88235 13.33333 10.58824 3.148367 2.425310 1.014085 
52 "C8" 22.35294 12.15686 11.37255 2.487513 1.967078 1.067651 
53 "C9" 57.25490 32.94118 24.31373 16.63677 13.04281 4.702139 
54 "C10" 51.37255 27.84314 20.78431 12.83240 9.782618 3.470974 
55 "C11" 45.49020 23.92157 16.86275 9.757955 7.377480 2.421974 
56 "C12" 40.39216 18.43137 10.98039 7.174930 5.125882 1.294422 
57 "C13" 77.64706 65.49020 60.78431 44.19442 42.25380 27.95162 
58 "C14" 72.15686 60.00000 55.29412 36.97810 35.11517 22.78621 
59 "C15" 67.84314 54.50980 49.41176 31.14890 29.07100 17.99173 
60 "C16" 62.74510 49.01961 45.09804 25.67852 23.56229 14.72682 
61 "C17" 92.94118 91.76471 92.94118 80.72882 82.96029 69.65981 
62 "C18" 94.11765 91.37255 92.94118 81.49114 82.93610 69.61683 
63 "C19" 93.72549 91.76471 91.37255 80.98056 83.12842 67.39490 
64 "C20" 93.33333 90.19608 90.58824 79.18676 80.59401 65.95321 
65 "C21" 92.94118 91.37255 91.37255 79.96480 82.19697 67.29512 
66 "C22" 92.15686 90.19608 92.15686 78.58371 80.24707 68.18138 
67 "D1" 24.70588 22.74510 21.17647 4.324578 4.362790 3.115047 
68 "D2" 27.84314 25.88235 24.70588 5.556661 5.608847 4.167245 
69 "D3" 67.05882 64.70588 63.52941 37.41632 38.22466 30.02840 
70 "D4" 70.98039 68.62745 67.84314 42.63592 43.54622 34.65517 
71 "D5" 20.39216 13.72549 13.33333 2.373462 2.065889 1.353628 
72 "D6" 70.98039 58.43137 49.80392 34.75846 33.11279 18.72135 
73 "D7" 36.86275 10.98039 16.86275 5.673556 3.469271 1.994223 
74 "D8" 34.50980 9.411765 14.50980 4.871667 2.938156 1.546077 
75 "D9" 31.76471 9.411765 12.94118 4.157218 2.577691 1.289637 
76 "D10" 30.58824 10.19608 11.76471 3.905548 2.514264 1.133793 
77 "D11" 60.00000 26.66667 31.37255 17.26379 11.71757 6.735021 
78 "D12" 53.72549 21.56863 27.84314 13.28072 8.686508 5.220153 
79 "D13" 46.66667 15.29412 22.74510 9.430585 5.815298 3.476220 
80 "D14" 40.78431 10.58824 19.21569 6.897730 4.051836 2.493074 
81 "D15" 81.17647 63.13725 63.13725 46.03116 41.59278 29.78698 
82 "D16" 75.68627 57.64706 58.03922 38.72594 34.57665 24.72868 
83 "D17" 70.58824 52.54902 52.94118 32.54837 28.71375 20.25642 
84 "D18" 65.88235 47.05882 47.84314 27.09153 23.35644 16.27048 
85 "D19" 35.68627 14.11765 10.19608 5.388858 3.654929 1.054892 
86 "D20" 33.33333 13.33333 9.803922 4.716144 3.226794 0.976251 
87 "D21" 29.41176 12.54902 10.98039 3.790344 2.671276 1.067714 
88 "D22" 25.49020 10.98039 11.76471 2.937877 2.087254 1.113752 
89 "E1" 57.64706 26.27451 16.86275 15.22941 10.66174 2.677034 
90 "E2" 51.76471 21.17647 11.76471 11.66748 7.856921 1.607012 
91 "E3" 47.05882 16.47059 9.803922 9.220419 5.897530 1.180852 
92 "E4" 43.13725 10.98039 8.235294 7.353486 4.347086 0.865623 
93 "E5" 81.56863 63.52941 56.07843 45.34700 41.60029 24.00680 
94 "E6" 75.68627 58.03922 50.98039 37.85077 34.44773 19.56327 
95 "E7" 70.98039 52.54902 45.49020 31.82758 28.42977 15.43338 
96 "E8" 66.66667 48.23529 41.17647 27.17637 23.99918 12.57349 
97 "E9" 88.62745 90.58824 91.76471 75.70701 79.19531 67.58902 
98 "E10" 93.33333 89.01961 92.15686 78.74861 79.12663 67.99036 
99 "E11" 92.94118 90.19608 86.66667 77.74447 79.95232 60.50998 
100 "E12" 91.76471 87.05882 86.27451 74.24617 75.01045 59.35984 
101 "E13" 89.80392 90.19608 88.23529 75.41048 78.72438 62.55652 
102 "E14" 87.84314 87.05882 90.98039 72.17794 73.84207 65.77045 
103 "E15" 23.13725 21.96078 20.39216 3.921231 4.016243 2.897761 
104 "E16" 29.01961 27.45098 25.88235 6.123935 6.244475 4.581538 
105 "E17" 65.49020 63.13725 61.96078 35.46656 36.22020 28.42138 
106 "E18" 72.54902 70.19608 69.01961 44.72562 45.74217 36.06390 
107 "E19" 69.01961 54.90196 45.88235 31.57490 29.53815 15.85760 
108 "E20" 65.09804 50.19608 41.56863 27.00195 24.83250 12.92214 
109 "E21" 49.41176 5.098039 23.13725 9.878244 5.195569 3.453635 
110 "E22" 49.41176 5.490196 23.52941 9.913132 5.230657 3.560851 
111 "F1" 49.01961 4.705882 26.66667 9.911036 5.176745 4.450315 
112 "F2" 49.80392 3.921569 29.01961 10.35093 5.354604 5.216383 
113 "F3" 49.80392 5.098039 19.21569 9.848611 5.196584 2.528538 
114 "F4" 49.80392 5.098039 19.60784 9.865534 5.203753 2.613008 
115 "F5" 49.41176 5.490196 20.78431 9.775971 5.172548 2.876223 
116 "F6" 49.01961 5.098039 22.35294 9.682743 5.099310 3.247264 
117 "F7" 52.15686 5.882353 20.39216 10.90271 5.769082 2.825960 
118 "F8" 51.76471 5.882353 19.60784 10.70158 5.669487 2.646098 
119 "F9" 50.58824 5.098039 19.21569 10.16672 5.358898 2.538701 
120 "F10" 50.98039 5.098039 18.82353 10.31158 5.434245 2.461244 
121 "F11" 50.19608 4.705882 13.33333 9.782870 5.163154 1.478999 
122 "F12" 49.41176 5.882353 20.00000 9.755090 5.185049 2.701643 
123 "F13" 49.01961 5.882353 23.52941 9.772828 5.179130 3.559637 
124 "F14" 49.41176 4.705882 26.66667 10.06619 5.255909 4.455272 
125 "F15" 50.98039 1.960784 5.490196 9.854922 5.101949 0.639389 
126 "F16" 50.58824 2.352941 6.274510 9.716505 5.046139 0.693613 
127 "F17" 50.19608 1.960784 6.274510 9.544977 4.942822 0.685559 
128 "F18" 50.19608 3.921569 10.19608 9.677090 5.082831 1.068028 
129 "F19" 59.60784 16.47059 5.490196 14.64558 8.672288 0.975924 
130 "F20" 58.03922 12.94118 5.098039 13.55605 7.703362 0.847713 
131 "F21" 56.86275 10.98039 4.705882 12.84619 7.154440 0.769823 
132 "F22" 54.11765 5.490196 4.705882 11.30377 5.991655 0.659310 
133 "G1" 82.74510 88.62745 90.98039 69.23689 73.90595 65.93144 
134 "G2" 91.76471 84.31373 90.19608 73.36738 71.81855 64.26566 
135 "G3" 91.76471 88.62745 80.39216 73.89843 76.52790 52.13771 
136 "G4" 90.58824 82.74510 81.17647 68.85662 68.26005 52.00688 
137 "G5" 84.31373 87.45098 81.96078 67.16947 71.88406 53.65435 
138 "G6" 83.13725 82.74510 89.41176 64.89348 66.04972 62.65799 
139 "G7" 22.35294 20.39216 19.60784 3.562821 3.565449 2.668722 
140 "G8" 29.80392 28.23529 27.45098 6.523151 6.624908 5.104630 
141 "G9" 64.31373 61.56863 60.78431 33.86111 34.41747 27.20370 
142 "G10" 73.72549 71.37255 70.58824 46.47205 47.49029 37.84346 
143 "G11" 72.94118 57.25490 44.70588 34.88688 32.55090 15.49437 
144 "G12" 70.19608 52.94118 38.82353 30.77106 28.15459 11.89286 
145 "G13" 30.98039 25.88235 20.00000 5.980883 5.845874 3.002558 
146 "G14" 26.66667 21.96078 16.47059 4.374677 4.261472 2.118339 
147 "G15" 21.17647 17.25490 12.54902 2.785088 2.713916 1.327661 
148 "G16" 18.03922 13.72549 10.98039 2.004672 1.883149 1.030707 
149 "G17" 63.13725 50.58824 38.03922 25.70435 24.39164 11.16659 
150 "G18" 57.64706 45.88235 33.72549 20.90398 19.80823 8.780861 
151 "G19" 53.72549 41.56863 30.19608 17.51985 16.34796 7.048977 
152 "G20" 49.41176 37.25490 25.88235 14.28357 13.17588 5.293291 
153 "G21" 78.43137 71.76471 66.66667 49.17138 49.23417 34.11528 
154 "G22" 72.94118 66.66667 61.17647 41.64680 41.75724 28.33376 
155 "H1" 67.45098 61.17647 55.29412 34.60176 34.62627 22.82821 
156 "H2" 63.13725 56.07843 50.19608 29.20643 28.92930 18.58222 
157 "H3" 28.62745 26.27451 20.00000 5.540223 5.706804 3.002457 
158 "H4" 24.70588 22.74510 15.68627 4.100331 4.267787 1.995741 
159 "H5" 19.60784 18.03922 12.94118 2.660472 2.760440 1.396046 
160 "H6" 16.86275 15.29412 12.15686 2.030697 2.075001 1.209377 
161 "H7" 63.13725 57.25490 42.35294 28.75486 29.44477 13.99901 
162 "H8" 57.64706 52.54902 37.64706 23.57617 24.29101 11.07640 
163 "H9" 52.94118 47.84314 33.33333 19.35850 19.89302 8.715995 
164 "H10" 48.62745 43.52941 29.80392 15.94396 16.31817 6.986607 
165 "H11" 83.13725 78.03922 70.98039 57.31238 58.39240 39.46828 
166 "H12" 76.07843 72.15686 65.49020 47.51043 48.70719 33.00783 
167 "H13" 70.58824 66.66667 59.60784 39.87347 40.87529 26.96679 
168 "H14" 65.88235 62.35294 54.90196 34.17745 35.15656 22.64418 
169 "H15" 76.86275 87.05882 90.19608 63.52122 69.44443 64.38288 
170 "H16" 90.19608 79.60784 88.62745 68.38333 65.02855 61.22414 
171 "H17" 91.37255 87.45098 75.29412 71.48827 74.22459 45.95137 
172 "H18" 89.41176 78.43137 76.07843 63.78979 61.93751 45.22328 
173 "H19" 79.60784 85.09804 76.47059 60.56859 66.33804 46.54975 
174 "H20" 78.03922 78.43137 87.84314 57.81097 58.63170 59.64687 
175 "H21" 20.39216 19.60784 18.82353 3.148531 3.229783 2.468748 
176 "H22" 30.19608 29.01961 27.84314 6.774569 6.942251 5.269017 
177 "I1" 62.35294 60.39216 59.21569 31.98945 32.75552 25.72559 
178 "I2" 74.90196 72.54902 71.76471 48.17539 49.24194 39.26020 
179 "I3" 71.37255 52.94118 34.50980 31.12322 28.36796 9.974807 
180 "I4" 74.90196 62.35294 43.13725 38.29931 37.39146 15.22998 
181 "I5" 34.11765 25.09804 14.11765 6.382472 5.902849 1.890754 
182 "I6" 30.19608 21.56863 12.54902 4.913833 4.477533 1.506065 
183 "I7" 26.66667 18.82353 11.37255 3.834511 3.479466 1.245139 
184 "I8" 24.31373 17.25490 10.98039 3.236525 2.947767 1.141124 
185 "I9" 68.23529 48.23529 24.70588 26.79451 23.91778 6.063450 
186 "I10" 63.13725 43.52941 20.78431 22.17102 19.54093 4.583024 
187 "I11" 57.25490 38.82353 16.07843 17.65546 15.47431 3.195870 
188 "I12" 51.37255 34.11765 12.15686 13.76269 11.96521 2.220385 
189 "I13" 82.74510 70.98039 59.60784 50.69025 49.52208 27.82203 
190 "I14" 76.86275 66.27451 54.90196 43.10055 42.31421 23.35372 
191 "I15" 71.76471 60.39216 48.23529 35.92550 34.90190 17.94524 
192 "I16" 67.45098 55.29412 43.92157 30.56369 29.25547 14.73458 
193 "I17" 30.19608 27.05882 13.72549 5.768115 6.019319 1.881788 
194 "I18" 26.27451 23.52941 12.15686 4.383484 4.571184 1.495686 
195 "I19" 22.35294 20.39216 11.76471 3.292173 3.450787 1.317807 
196 "I20" 21.17647 19.21569 11.37255 2.967027 3.097029 1.227232 
197 "I21" 67.05882 58.03922 29.41176 30.16752 30.71682 8.468661 
198 "I22" 61.96078 53.33333 24.31373 25.07862 25.54898 6.307880 
199 "J1" 56.07843 48.23529 20.78431 20.11352 20.52633 4.848940 
200 "J2" 50.58824 43.13725 15.68627 15.88011 16.19094 3.335581 
201 "J3" 85.09804 78.82353 63.52941 57.91696 59.49986 32.44572 
202 "J4" 76.86275 72.15686 57.64706 46.70229 48.41213 26.26402 
203 "J5" 72.15686 67.84314 52.15686 40.34817 42.04376 21.47908 
204 "J6" 67.84314 62.74510 46.66667 34.39774 35.61661 17.17238 
205 "J7" 71.37255 85.49020 89.41176 58.49658 65.37197 62.87506 
206 "J8" 89.01961 76.07843 87.45098 64.82773 60.23844 59.01610 
207 "J9" 90.58824 86.27451 70.58824 68.93448 71.85297 40.66346 
208 "J10" 87.84314 74.50980 70.98039 58.94286 56.29929 39.04372 
209 "J11" 75.29412 82.74510 72.15686 54.92704 61.33179 41.29663 
210 "J12" 72.94118 74.11765 86.27451 51.24756 51.74443 56.74600 
211 "J13" 19.21569 18.43137 18.03922 2.824792 2.886787 2.270292 
212 "J14" 31.37255 30.58824 29.01961 7.411496 7.661552 5.742804 
213 "J15" 61.56863 59.21569 58.03922 30.85614 31.48216 24.62733 
214 "J16" 76.47059 74.11765 73.72549 50.58756 51.67135 41.62186 
215 "J17" 70.98039 56.47059 38.03922 32.59836 30.99881 11.89031 
216 "J18" 50.19608 38.43137 18.43137 14.52234 13.73089 3.517161 
217 "J19" 36.47059 23.13725 10.58824 6.613910 5.637122 1.360039 
218 "J20" 34.11765 21.17647 9.803922 5.715397 4.823949 1.185356 
219 "J21" 31.76471 20.39216 10.58824 5.067015 4.358896 1.230943 
220 "J22" 25.49020 15.68627 10.98039 3.288187 2.767638 1.109126 
221 "K1" 67.45098 42.35294 9.803922 23.90211 19.98785 2.725272 
222 "K2" 61.96078 37.64706 5.882353 19.48138 16.02155 1.953379 
223 "K3" 57.64706 34.50980 5.882353 16.54851 13.51636 1.695301 
224 "K4" 54.90196 32.54902 6.274510 14.84019 12.06723 1.575414 
225 "K5" 85.49020 69.80392 52.54902 51.12565 48.95968 22.32808 
226 "K6" 80.39216 64.70588 47.84314 43.89373 41.73626 18.40533 
227 "K7" 74.90196 59.21569 42.35294 36.78012 34.68596 14.44222 
228 "K8" 70.98039 54.50980 37.25490 31.72781 29.48311 11.32469 
229 "K9" 31.37255 27.05882 10.98039 5.955669 6.121454 1.519079 
230 "K10" 28.62745 25.09804 10.58824 5.036224 5.224214 1.373527 
231 "K11" 26.27451 23.52941 11.37255 4.363227 4.562602 1.394573 
232 "K12" 21.17647 18.82353 10.98039 2.912841 3.010025 1.167841 
233 "K13" 65.49020 53.72549 13.72549 26.72320 26.63290 4.168024 
234 "K14" 60.00000 48.62745 10.58824 21.80805 21.60295 3.183845 
235 "K15" 54.50980 45.09804 7.450980 17.95265 18.07406 2.489606 
236 "K16" 50.98039 42.74510 7.843137 15.72244 15.97198 2.295643 
237 "K17" 86.27451 78.43137 55.68627 57.31877 58.96900 25.92673 
238 "K18" 79.21569 72.15686 50.98039 47.40488 48.85555 21.42194 
239 "K19" 73.72549 67.45098 45.49020 40.31281 41.82191 17.18127 
240 "K20" 69.80392 62.35294 40.00000 34.66440 35.56534 13.47739 
241 "K21" 65.88235 83.92157 88.62745 53.85099 61.52912 61.39791 
242 "K22" 87.84314 71.76471 86.27451 60.97850 54.86995 56.75712 
243 "L1" 90.19608 85.09804 65.88235 66.82603 69.72187 35.80941 
244 "L2" 86.27451 69.41176 66.27451 53.81454 49.84694 33.60572 
245 "L3" 70.19608 80.78431 67.84314 49.40273 56.80943 36.47003 
246 "L4" 68.23529 69.80392 84.31373 45.32380 45.45271 53.45105 
247 "L5" 18.03922 17.25490 16.86275 2.506866 2.559918 2.008166 
248 "L6" 32.15686 31.37255 29.80392 7.802373 8.066248 6.058745 
249 "L7" 60.39216 58.03922 56.47059 29.48470 30.11002 23.24665 
250 "L8" 77.64706 74.90196 74.50980 52.05412 53.03518 42.62531 
251 "L9" 58.43137 60.00000 51.37255 28.61906 30.89883 19.72363 
252 "L10" 58.43137 56.86275 44.70588 26.41604 28.00534 15.18734 
253 "L11" 46.27451 16.47059 7.058824 8.877615 5.727167 0.909268 
254 "L12" 43.13725 12.15686 8.235294 7.433959 4.496903 0.885917 
255 "L13" 37.64706 9.411765 9.411765 5.582827 3.312626 0.904076 
256 "L14" 35.68627 9.411765 10.19608 5.061246 3.045011 0.972276 
257 "L15" 73.33333 43.92157 2.352941 27.93358 22.68278 2.395756 
258 "L16" 70.98039 41.17647 2.745098 25.61843 20.42043 2.167228 
259 "L17" 67.05882 36.47059 3.137255 22.00709 16.92242 1.803704 
260 "L18" 61.96078 30.58824 4.705882 17.89512 13.09105 1.478730 
261 "L19" 78.43137 50.98039 4.313725 33.82853 28.87356 3.211331 
262 "L20" 77.25490 49.01961 3.137255 32.27757 27.13884 2.942696 
263 "L21" 76.07843 47.05882 2.352941 30.78192 25.47833 2.705476 
264 "L22" 74.50980 45.09804 0.784314 29.06283 23.75027 2.425482 
265 "M1" 35.68627 31.37255 8.627451 7.765523 8.127055 1.497799 
266 "M2" 32.15686 29.41176 9.803922 6.527598 6.980201 1.495145 
267 "M3" 25.49020 23.92157 10.98039 4.268034 4.591828 1.356221 
268 "M4" 20.00000 18.82353 10.98039 2.747814 2.925821 1.162569 
269 "M5" 70.98039 57.64706 9.411765 31.51429 31.25257 4.129399 
270 "M6" 67.45098 55.68627 8.235294 28.51184 28.61556 3.737035 
271 "M7" 63.52941 53.72549 8.235294 25.49454 26.01752 3.468150 
272 "M8" 57.25490 49.01961 7.843137 20.53061 21.13937 2.891528 
273 "M9" 81.96078 63.13725 9.411765 41.65634 39.79084 5.001504 
274 "M10" 78.43137 61.17647 10.19608 38.13431 36.74596 4.770752 
275 "M11" 75.29412 59.60784 10.19608 35.22287 34.29961 4.521164 
276 "M12" 72.54902 58.03922 8.627451 32.67265 32.07228 4.124607 
277 "M13" 59.60784 81.96078 88.23529 49.01770 57.25894 60.40987 
278 "M14" 86.66667 67.45098 84.70588 57.24039 49.82465 54.06175 
279 "M15" 89.80392 83.52941 60.78431 64.47790 67.12045 30.96530 
280 "M16" 84.70588 64.31373 61.17647 48.99486 43.90681 28.30784 
281 "M17" 66.27451 78.43137 63.13725 44.64104 52.39383 31.61823 
282 "M18" 62.74510 65.49020 82.74510 39.53011 39.47286 50.77066 
283 "M19" 17.25490 16.47059 16.47059 2.321139 2.360573 1.913715 
284 "M20" 32.94118 32.15686 31.37255 8.262757 8.507609 6.672774 
285 "M21" 59.21569 56.47059 54.50980 27.92806 28.44403 21.58078 
286 "M22" 79.60784 76.86275 76.07843 55.01663 56.13043 44.72615 
287 "N1" 20.39216 28.62745 15.68627 4.366553 5.668968 2.210441 
288 "N2" 16.07843 19.21569 16.86275 2.495247 2.841596 2.054662 
289 "N3" 25.49020 27.05882 20.00000 5.070259 5.643048 3.016129 
290 "N4" 20.39216 22.74510 15.68627 3.430279 3.925897 1.974334 
291 "N5" 16.86275 18.43137 12.94118 2.365602 2.667497 1.395998 
292 "N6" 13.33333 15.68627 11.76471 1.700368 1.955765 1.155683 
293 "N7" 42.35294 43.92157 32.54902 14.01592 15.47646 7.960844 
294 "N8" 38.03922 40.00000 29.01961 11.30862 12.59985 6.348000 
295 "N9" 34.11765 36.07843 24.70588 8.988216 10.09414 4.722458 
296 "N10" 29.41176 31.76471 21.56863 6.783139 7.695756 3.625884 
297 "N11" 67.84314 67.84314 61.56863 39.13775 41.29901 28.72292 
298 "N12" 62.74510 63.13725 56.07843 32.98274 35.03616 23.57017 
299 "N13" 57.25490 57.25490 50.19608 26.69100 28.31004 18.61009 
300 "N14" 52.54902 52.15686 45.49020 21.92612 23.17741 15.08441 
301 "N15" 11.37255 18.82353 16.07843 1.991191 2.526673 1.887962 
302 "N16" 9.019608 14.90196 12.94118 1.337594 1.672324 1.286461 
303 "N17" 7.843137 13.72549 12.15686 1.148305 1.443603 1.151664 
304 "N18" 7.843137 15.29412 12.54902 1.292969 1.697661 1.238451 
305 "N19" 26.66667 36.86275 31.37255 7.978667 9.796696 6.897382 
306 "N20" 22.35294 32.54902 27.84314 6.016607 7.493396 5.397635 
307 "N21" 17.64706 28.23529 23.52941 4.286211 5.503423 3.893384 
308 "N22" 12.94118 24.31373 20.00000 2.991830 3.992433 2.853563 
309 "O1" 65.09804 68.62745 67.84314 39.11485 41.74962 34.54267 
310 "O2" 59.21569 63.52941 62.74510 32.43735 34.91799 29.04882 
311 "O3" 52.54902 57.64706 57.25490 25.74357 27.96325 23.69664 
312 "O4" 47.45098 53.33333 52.94118 21.28467 23.37263 19.96273 
313 "O5" 52.54902 79.60784 87.05882 43.84443 52.54498 58.30650 
314 "O6" 85.09804 63.13725 83.52941 53.50123 45.02147 51.95466 
315 "O7" 89.80392 82.74510 56.07843 63.17963 65.79620 27.03666 
316 "O8" 83.52941 60.39216 56.47059 45.44780 39.66045 23.98567 
317 "O9" 61.56863 76.47059 58.43137 40.01662 48.44566 27.23618 
318 "O10" 57.64706 61.17647 80.78431 34.35634 34.06631 47.72048 
319 "O11" 15.68627 15.29412 15.29412 1.996815 2.049552 1.675741 
320 "O12" 33.72549 33.33333 32.54902 8.793605 9.107157 7.190304 
321 "O13" 58.03922 55.29412 53.72549 26.74913 27.19991 20.86727 
322 "O14" 80.78431 78.03922 77.25490 56.89482 58.06007 46.28681 
323 "O15" 13.33333 16.47059 14.11765 1.841524 2.122681 1.507243 
324 "O16" 11.76471 15.68627 15.29412 1.673521 1.933014 1.673303 
325 "O17" 25.49020 28.23529 14.11765 5.052763 5.928681 1.963042 
326 "O18" 20.00000 23.92157 12.54902 3.447118 4.169452 1.530954 
327 "O19" 16.86275 20.78431 12.15686 2.620342 3.172748 1.358072 
328 "O20" 15.68627 20.00000 11.76471 2.385782 2.924035 1.278375 
329 "O21" 40.39216 45.88235 24.70588 13.47538 16.07156 5.466776 
330 "O22" 34.50980 41.56863 21.17647 10.33302 12.72718 4.170448 
331 "P1" 30.58824 36.86275 16.47059 7.963479 9.859655 2.846853 
332 "P2" 26.27451 32.54902 12.54902 5.984979 7.537436 1.949851 
333 "P3" 66.27451 68.23529 55.68627 37.46968 40.81060 23.98395 
334 "P4" 60.78431 63.52941 50.58824 31.34667 34.52505 19.64540 
335 "P5" 56.07843 58.43137 44.70588 25.95798 28.67687 15.32022 
336 "P6" 51.76471 53.33333 40.39216 21.48256 23.60574 12.40019 
337 "P7" 8.235294 20.00000 14.11765 1.854206 2.647029 1.592039 
338 "P8" 6.666667 17.64706 13.33333 1.483793 2.102884 1.405206 
339 "P9" 6.666667 18.43137 13.33333 1.567923 2.259510 1.426422 
340 "P10" 8.235294 15.68627 12.94118 1.361700 1.780204 1.302806 
341 "P11" 16.07843 38.43137 29.41176 6.676908 9.675842 6.242593 
342 "P12" 11.76471 34.11765 26.27451 5.039305 7.461583 4.952710 
343 "P13" 4.313725 29.41176 21.96078 3.421177 5.358214 3.512598 
344 "P14" 4.313725 25.88235 18.43137 2.650564 4.152398 2.564105 
345 "P15" 61.96078 68.62745 63.52941 36.58670 40.52975 30.44650 
346 "P16" 56.07843 63.52941 58.43137 30.19063 33.83480 25.35833 
347 "P17" 50.98039 58.82353 53.33333 25.00090 28.32321 20.85820 
348 "P18" 46.66667 53.72549 48.62745 20.56095 23.25974 17.08289 
349 "P19" 42.35294 77.25490 85.88235 38.17571 47.65755 56.22845 
350 "P20" 83.52941 58.82353 81.96078 49.88176 40.53354 49.43072 
351 "P21" 89.41176 81.56863 51.37255 61.36534 63.85502 23.41748 
352 "P22" 81.96078 55.68627 51.76471 41.51973 34.97614 19.99618 
353 "Q1" 56.47059 73.72549 53.33333 35.04864 43.74880 22.85746 
354 "Q2" 52.54902 56.86275 79.21569 29.75009 29.18320 45.26827 
355 "Q3" 14.11765 14.50980 14.11765 1.734104 1.825718 1.464351 
356 "Q4" 34.11765 34.11765 32.94118 9.094451 9.490392 7.390737 
357 "Q5" 56.86275 53.72549 52.94118 25.44630 25.70200 20.12925 
358 "Q6" 82.35294 79.60784 78.82353 59.45649 60.69232 48.41644 
359 "Q7" 0.392157 32.15686 39.21569 5.085944 6.828154 9.922360 
360 "Q8" 28.23529 7.450980 29.80392 4.110664 2.346783 5.315736 
361 "Q9" 21.96078 28.23529 11.37255 4.395564 5.599985 1.561964 
362 "Q10" 20.00000 26.27451 10.98039 3.771003 4.830702 1.420594 
363 "Q11" 18.43137 25.09804 10.98039 3.379886 4.378270 1.366892 
