Example Targets Read/ArgyllCMS printtarg targets/Size A4/A4-High Quality Target Plus Grays (1 page - 483 patches)-i1/A4-High Quality Target Plus Grays (1 page - 483 patches)-i1.ti2
CTI2   

DESCRIPTOR "Argyll Calibration Target chart information 2"
ORIGINATOR "Argyll printtarg"
CREATED "Fri Nov 21 21:24:10 2025"
TARGET_INSTRUMENT "GretagMacbeth i1 Pro"
ACCURATE_EXPECTED_VALUES "true"
APPROX_WHITE_POINT "96.420986 99.999714 82.531487"
COLOR_REP "iRGB"
PAPER_SIZE "210.0x297.0"
CHART_ID "40"
STEPS_IN_PASS "23"
PASSES_IN_STRIPS2 "21"
STRIP_INDEX_PATTERN "A-Z, A-Z"
PATCH_INDEX_PATTERN "0-9,@-9,@-9;1-999"
INDEX_ORDER "STRIP_THEN_PATCH"

NUMBER_OF_FIELDS 8
BEGIN_DATA_FORMAT
SAMPLE_ID SAMPLE_LOC RGB_R RGB_G RGB_B XYZ_X XYZ_Y XYZ_Z 
END_DATA_FORMAT

NUMBER_OF_SETS 483
BEGIN_DATA
1 "A1" 0.00000 0.00000 0.00000 0.00000 0.00000 0.00000 
2 "A2" 0.00000 0.00000 25.09804 0.733673 0.310825 3.662067 
3 "A3" 0.00000 0.00000 50.19608 3.088994 1.308672 15.41845 
4 "A4" 0.00000 0.00000 75.29412 7.543092 3.195680 37.65070 
5 "A5" 0.00000 0.00000 100.0000 14.31014 6.062584 71.42784 
6 "A6" 25.09804 0.00000 0.00000 2.235556 1.140678 0.0714240 
7 "A7" 25.09804 0.00000 25.09804 2.969229 1.451503 3.733491 
8 "A8" 25.09804 0.00000 50.19608 5.324550 2.449350 15.48987 
9 "A9" 25.09804 0.00000 75.29412 9.778647 4.336358 37.72212 
10 "A10" 25.09804 0.00000 100.0000 16.54570 7.203262 71.49927 
11 "A11" 50.19608 0.00000 0.00000 9.412390 4.802612 0.300717 
12 "A12" 50.19608 0.00000 25.09804 10.14606 5.113438 3.962784 
13 "A13" 50.19608 0.00000 50.19608 12.50138 6.111285 15.71917 
14 "A14" 50.19608 0.00000 75.29412 16.95548 7.998292 37.95141 
15 "A15" 50.19608 0.00000 100.0000 23.72253 10.86520 71.72856 
16 "A16" 0.00000 25.09804 0.00000 1.974223 3.675428 0.497854 
17 "A17" 0.00000 25.09804 25.09804 2.707896 3.986253 4.159921 
18 "A18" 0.00000 25.09804 50.19608 5.063217 4.984100 15.91630 
19 "A19" 0.00000 25.09804 75.29412 9.517315 6.871107 38.14855 
20 "A20" 0.00000 25.09804 100.0000 16.28436 9.738012 71.92570 
21 "A21" 25.09804 25.09804 0.00000 4.209779 4.816106 0.569278 
22 "A22" 25.09804 25.09804 25.09804 4.943452 5.126931 4.231345 
23 "A23" 25.09804 25.09804 50.19608 7.298773 6.124778 15.98773 
24 "B1" 25.09804 25.09804 75.29412 11.75287 8.011785 38.21997 
25 "B2" 25.09804 25.09804 100.0000 18.51992 10.87869 71.99712 
26 "B3" 50.19608 25.09804 0.00000 11.38661 8.478040 0.798571 
27 "B4" 50.19608 25.09804 25.09804 12.12029 8.788865 4.460638 
28 "B5" 50.19608 25.09804 50.19608 14.47561 9.786712 16.21702 
29 "B6" 50.19608 25.09804 75.29412 18.92970 11.67372 38.44927 
30 "B7" 50.19608 25.09804 100.0000 25.69675 14.54062 72.22642 
31 "B8" 0.00000 50.19608 0.00000 8.312098 15.47470 2.096120 
32 "B9" 0.00000 50.19608 25.09804 9.045771 15.78553 5.758187 
33 "B10" 0.00000 50.19608 50.19608 11.40109 16.78338 17.51457 
34 "B11" 0.00000 50.19608 75.29412 15.85519 18.67038 39.74682 
35 "B12" 0.00000 50.19608 100.0000 22.62224 21.53729 73.52396 
36 "B13" 25.09804 50.19608 0.00000 10.54765 16.61538 2.167544 
37 "B14" 25.09804 50.19608 25.09804 11.28133 16.92621 5.829611 
38 "B15" 25.09804 50.19608 50.19608 13.63665 17.92405 17.58600 
39 "B16" 25.09804 50.19608 75.29412 18.09074 19.81106 39.81824 
40 "B17" 25.09804 50.19608 100.0000 24.85779 22.67797 73.59539 
41 "B18" 50.19608 50.19608 0.00000 17.72449 20.27732 2.396838 
42 "B19" 50.19608 50.19608 25.09804 18.45816 20.58814 6.058905 
43 "B20" 50.19608 50.19608 50.19608 20.81348 21.58599 17.81529 
44 "B21" 50.19608 50.19608 75.29412 25.26758 23.47300 40.04754 
45 "B22" 50.19608 50.19608 100.0000 32.03463 26.33990 73.82468 
46 "B23" 0.00000 75.29412 0.00000 20.29752 37.78806 5.118569 
47 "C1" 0.00000 75.29412 25.09804 21.03119 38.09889 8.780636 
48 "C2" 0.00000 75.29412 50.19608 23.38651 39.09674 20.53702 
49 "C3" 0.00000 75.29412 75.29412 27.84061 40.98374 42.76927 
50 "C4" 0.00000 75.29412 100.0000 34.60766 43.85065 76.54641 
51 "C5" 25.09804 75.29412 0.00000 22.53308 38.92874 5.189993 
52 "C6" 25.09804 75.29412 25.09804 23.26675 39.23957 8.852060 
53 "C7" 25.09804 75.29412 50.19608 25.62207 40.23741 20.60844 
54 "C8" 25.09804 75.29412 75.29412 30.07617 42.12442 42.84069 
55 "C9" 25.09804 75.29412 100.0000 36.84322 44.99133 76.61784 
56 "C10" 50.19608 75.29412 0.00000 29.70991 42.59068 5.419286 
57 "C11" 50.19608 75.29412 25.09804 30.44358 42.90150 9.081353 
58 "C12" 50.19608 75.29412 50.19608 32.79890 43.89935 20.83774 
59 "C13" 50.19608 75.29412 75.29412 37.25300 45.78636 43.06998 
60 "C14" 50.19608 75.29412 100.0000 44.02005 48.65326 76.84713 
61 "C15" 0.00000 100.0000 0.00000 38.50680 71.68845 9.710533 
62 "C16" 0.00000 100.0000 25.09804 39.24048 71.99927 13.37260 
63 "C17" 0.00000 100.0000 50.19608 41.59580 72.99712 25.12898 
64 "C18" 0.00000 100.0000 75.29412 46.04990 74.88412 47.36123 
65 "C19" 0.00000 100.0000 100.0000 52.81695 77.75103 81.13838 
66 "C20" 25.09804 100.0000 0.00000 40.74236 72.82912 9.781957 
67 "C21" 25.09804 100.0000 25.09804 41.47603 73.13995 13.44402 
68 "C22" 25.09804 100.0000 50.19608 43.83136 74.13780 25.20041 
69 "C23" 25.09804 100.0000 75.29412 48.28545 76.02480 47.43265 
70 "D1" 25.09804 100.0000 100.0000 55.05250 78.89171 81.20980 
71 "D2" 50.19608 100.0000 0.00000 47.91920 76.49106 10.01125 
72 "D3" 50.19608 100.0000 25.09804 48.65287 76.80188 13.67332 
73 "D4" 50.19608 100.0000 50.19608 51.00819 77.79973 25.42970 
74 "D5" 50.19608 100.0000 75.29412 55.46229 79.68674 47.66195 
75 "D6" 50.19608 100.0000 100.0000 62.22934 82.55364 81.43909 
76 "D7" 75.29412 0.00000 0.00000 22.98435 11.72762 0.734329 
77 "D8" 75.29412 0.00000 25.09804 23.71802 12.03844 4.396396 
78 "D9" 75.29412 0.00000 50.19608 26.07334 13.03629 16.15278 
79 "D10" 75.29412 0.00000 75.29412 30.52744 14.92330 38.38503 
80 "D11" 75.29412 0.00000 100.0000 37.29449 17.79020 72.16217 
81 "D12" 100.0000 0.00000 0.00000 43.60404 22.24868 1.393110 
82 "D13" 100.0000 0.00000 25.09804 44.33771 22.55951 5.055177 
83 "D14" 100.0000 0.00000 50.19608 46.69303 23.55736 16.81156 
84 "D15" 100.0000 0.00000 75.29412 51.14713 25.44436 39.04381 
85 "D16" 100.0000 0.00000 100.0000 57.91418 28.31127 72.82095 
86 "D17" 0.00000 0.00000 12.54902 0.206693 0.0875670 1.031693 
87 "D18" 0.00000 12.54902 0.00000 0.556186 1.035457 0.140257 
88 "D19" 0.00000 12.54902 12.54902 0.762880 1.123024 1.171950 
89 "D20" 0.00000 12.54902 25.09804 1.289859 1.346282 3.802324 
90 "D21" 0.00000 25.09804 12.54902 2.180916 3.762995 1.529546 
91 "D22" 75.29412 25.09804 0.00000 24.95857 15.40305 1.232183 
92 "D23" 75.29412 25.09804 25.09804 25.69225 15.71387 4.894250 
93 "E1" 75.29412 25.09804 50.19608 28.04757 16.71172 16.65063 
94 "E2" 75.29412 25.09804 75.29412 32.50166 18.59873 38.88288 
95 "E3" 75.29412 25.09804 100.0000 39.26871 21.46563 72.66003 
96 "E4" 100.0000 25.09804 0.00000 45.57826 25.92411 1.890964 
97 "E5" 100.0000 25.09804 25.09804 46.31194 26.23494 5.553031 
98 "E6" 100.0000 25.09804 50.19608 48.66726 27.23278 17.30941 
99 "E7" 100.0000 25.09804 75.29412 53.12136 29.11979 39.54166 
100 "E8" 100.0000 25.09804 100.0000 59.88840 31.98670 73.31881 
101 "E9" 12.54902 0.00000 0.00000 0.629810 0.321357 0.0201220 
102 "E10" 12.54902 0.00000 12.54902 0.836503 0.408924 1.051814 
103 "E11" 12.54902 12.54902 0.00000 1.185996 1.356813 0.160379 
104 "E12" 12.54902 12.54902 12.54902 1.392690 1.444380 1.192072 
105 "E13" 12.54902 25.09804 25.09804 3.337706 4.307610 4.180042 
106 "E14" 75.29412 50.19608 0.00000 31.29645 27.20232 2.830450 
107 "E15" 75.29412 50.19608 25.09804 32.03012 27.51315 6.492517 
108 "E16" 75.29412 50.19608 50.19608 34.38544 28.51099 18.24890 
109 "E17" 75.29412 50.19608 75.29412 38.83954 30.39800 40.48115 
110 "E18" 75.29412 50.19608 100.0000 45.60659 33.26491 74.25829 
111 "E19" 100.0000 50.19608 0.00000 51.91614 37.72339 3.489230 
112 "E20" 100.0000 50.19608 25.09804 52.64981 38.03421 7.151297 
113 "E21" 100.0000 50.19608 50.19608 55.00513 39.03206 18.90768 
114 "E22" 100.0000 50.19608 75.29412 59.45923 40.91907 41.13993 
115 "E23" 100.0000 50.19608 100.0000 66.22628 43.78597 74.91707 
116 "F1" 25.09804 0.00000 12.54902 2.442249 1.228245 1.103117 
117 "F2" 25.09804 12.54902 0.00000 2.791742 2.176135 0.211681 
118 "F3" 25.09804 12.54902 12.54902 2.998435 2.263702 1.243374 
119 "F4" 37.64706 37.64706 37.64706 11.27843 11.69703 9.653763 
120 "F5" 62.74510 62.74510 62.74510 33.89512 35.15316 29.01251 
121 "F6" 75.29412 75.29412 0.00000 43.28187 49.51568 5.852898 
122 "F7" 75.29412 75.29412 25.09804 44.01554 49.82651 9.514965 
123 "F8" 75.29412 75.29412 50.19608 46.37086 50.82435 21.27135 
124 "F9" 75.29412 75.29412 75.29412 50.82496 52.71136 43.50359 
125 "F10" 75.29412 75.29412 100.0000 57.59201 55.57827 77.28074 
126 "F11" 100.0000 75.29412 0.00000 63.90156 60.03675 6.511679 
127 "F12" 100.0000 75.29412 25.09804 64.63523 60.34757 10.17375 
128 "F13" 100.0000 75.29412 50.19608 66.99055 61.34542 21.93013 
129 "F14" 100.0000 75.29412 75.29412 71.44465 63.23243 44.16238 
130 "F15" 100.0000 75.29412 100.0000 78.21170 66.09933 77.93952 
131 "F16" 75.29412 87.84314 87.84314 62.35432 69.68356 61.21522 
132 "F17" 75.29412 87.84314 100.0000 65.99762 71.22707 79.40045 
133 "F18" 75.29412 100.0000 87.84314 72.15799 87.93514 63.68748 
134 "F19" 87.84314 87.84314 87.84314 71.87261 74.54021 61.51932 
135 "F20" 87.84314 87.84314 100.0000 75.51591 76.08372 79.70455 
136 "F21" 75.29412 100.0000 0.00000 61.49115 83.41606 10.44486 
137 "F22" 75.29412 100.0000 25.09804 62.22483 83.72689 14.10693 
138 "F23" 75.29412 100.0000 50.19608 64.58015 84.72474 25.86331 
139 "G1" 75.29412 100.0000 75.29412 69.03425 86.61174 48.09556 
140 "G2" 75.29412 100.0000 100.0000 75.80129 89.47865 81.87271 
141 "G3" 100.0000 100.0000 0.00000 82.11084 93.93713 11.10364 
142 "G4" 100.0000 100.0000 25.09804 82.84452 94.24796 14.76571 
143 "G5" 100.0000 100.0000 50.19608 85.19984 95.24580 26.52209 
144 "G6" 100.0000 100.0000 75.29412 89.65394 97.13281 48.75434 
145 "G7" 100.0000 100.0000 100.0000 96.42099 99.99971 82.53149 
146 "G8" 87.84314 100.0000 87.84314 81.67628 92.79178 63.99158 
147 "G9" 87.84314 100.0000 100.0000 85.31958 94.33529 82.17681 
148 "G10" 100.0000 87.84314 87.84314 82.97401 80.20463 61.87400 
149 "G11" 100.0000 87.84314 100.0000 86.61732 81.74814 80.05923 
150 "G12" 100.0000 100.0000 87.84314 92.77768 98.45620 64.34626 
151 "G13" 0.00000 0.00000 37.64706 1.673867 0.709144 8.354963 
152 "G14" 0.00000 12.54902 37.64706 2.230053 1.744601 8.495220 
153 "G15" 0.00000 25.09804 37.64706 3.648090 4.384572 8.852816 
154 "G16" 0.00000 37.64706 0.00000 4.504167 8.385445 1.135848 
155 "G17" 0.00000 37.64706 12.54902 4.710860 8.473012 2.167540 
156 "G18" 37.64706 37.64706 50.19608 12.69355 12.29656 16.71725 
157 "G19" 37.64706 50.19608 25.09804 14.14616 18.38797 5.921140 
158 "G20" 37.64706 50.19608 37.64706 15.08636 18.78629 10.61404 
159 "G21" 37.64706 50.19608 50.19608 16.50149 19.38582 17.67752 
160 "G22" 50.19608 37.64706 37.64706 15.59042 13.89720 9.791528 
161 "G23" 75.29412 75.29412 87.84314 53.94871 54.03476 59.09551 
162 "H1" 75.29412 87.84314 62.74510 56.71797 67.29568 33.08182 
163 "H2" 75.29412 87.84314 75.29412 59.23057 68.36017 45.62330 
164 "H3" 75.29412 100.0000 62.74510 66.52164 85.54726 35.55408 
165 "H4" 87.84314 62.74510 62.74510 51.06951 43.91629 29.56122 
166 "H5" 0.00000 37.64706 25.09804 5.237840 8.696271 4.797914 
167 "H6" 0.00000 37.64706 37.64706 6.178033 9.094590 9.490810 
168 "H7" 12.54902 0.00000 25.09804 1.363483 0.632182 3.682189 
169 "H8" 12.54902 12.54902 25.09804 1.919669 1.667639 3.822446 
170 "H9" 12.54902 25.09804 0.00000 2.604033 3.996784 0.517976 
171 "H10" 50.19608 37.64706 50.19608 17.00555 14.49673 16.85502 
172 "H11" 50.19608 37.64706 62.74510 18.94704 15.31925 26.54578 
173 "H12" 50.19608 50.19608 37.64706 19.39835 20.98646 10.75180 
174 "H13" 50.19608 50.19608 62.74510 22.75497 22.40851 27.50605 
175 "H14" 50.19608 62.74510 37.64706 24.62265 30.71258 12.06925 
176 "H15" 87.84314 62.74510 75.29412 53.58212 44.98077 42.10270 
177 "H16" 87.84314 62.74510 87.84314 56.70587 46.30416 57.69461 
178 "H17" 87.84314 62.74510 100.0000 60.34917 47.84767 75.87984 
179 "H18" 87.84314 75.29412 62.74510 57.83063 56.50352 31.26621 
180 "H19" 87.84314 75.29412 75.29412 60.34325 57.56801 43.80770 
181 "H20" 12.54902 25.09804 12.54902 2.810726 4.084351 1.549668 
182 "H21" 12.54902 37.64706 37.64706 6.807843 9.415946 9.510932 
183 "H22" 25.09804 0.00000 37.64706 3.909422 1.849823 8.426387 
184 "H23" 25.09804 12.54902 25.09804 3.525415 2.486960 3.873748 
185 "I1" 25.09804 12.54902 37.64706 4.465609 2.885279 8.566644 
186 "I2" 50.19608 62.74510 50.19608 26.03778 31.31211 19.13274 
187 "I3" 50.19608 62.74510 62.74510 27.97927 32.13463 28.82350 
188 "I4" 62.74510 50.19608 50.19608 26.72933 24.60451 18.00429 
189 "I5" 62.74510 50.19608 62.74510 28.67082 25.42704 27.69506 
190 "I6" 62.74510 50.19608 75.29412 31.18343 26.49152 40.23654 
191 "I7" 87.84314 75.29412 87.84314 63.46699 58.89140 59.39961 
192 "I8" 87.84314 75.29412 100.0000 67.11029 60.43491 77.58484 
193 "I9" 87.84314 87.84314 62.74510 66.23625 72.15233 33.38592 
194 "I10" 87.84314 87.84314 75.29412 68.74886 73.21681 45.92740 
195 "I11" 87.84314 100.0000 62.74510 76.03992 90.40390 35.85818 
196 "I12" 25.09804 25.09804 12.54902 4.416472 4.903673 1.600970 
197 "I13" 25.09804 25.09804 37.64706 5.883645 5.525250 8.924240 
198 "I14" 25.09804 37.64706 0.00000 6.739722 9.526123 1.207272 
199 "I15" 25.09804 37.64706 12.54902 6.946416 9.613690 2.238964 
200 "I16" 25.09804 37.64706 25.09804 7.473395 9.836949 4.869338 
201 "I17" 62.74510 62.74510 50.19608 31.95363 34.33064 19.32174 
202 "I18" 62.74510 62.74510 75.29412 36.40773 36.21764 41.55399 
203 "I19" 62.74510 75.29412 50.19608 38.71475 46.91787 21.02674 
204 "I20" 62.74510 75.29412 62.74510 40.65624 47.74040 30.71751 
205 "I21" 62.74510 75.29412 75.29412 43.16885 48.80488 43.25899 
206 "I22" 87.84314 100.0000 75.29412 78.55253 91.46839 48.39966 
207 "I23" 100.0000 62.74510 62.74510 62.17092 49.58071 29.91589 
208 "J1" 100.0000 62.74510 75.29412 64.68353 50.64519 42.45738 
209 "J2" 100.0000 62.74510 87.84314 67.80728 51.96859 58.04929 
210 "J3" 100.0000 62.74510 100.0000 71.45058 53.51209 76.23452 
211 "J4" 25.09804 37.64706 37.64706 8.413589 10.23527 9.562234 
212 "J5" 37.64706 25.09804 25.09804 7.808290 6.588697 4.322874 
213 "J6" 37.64706 25.09804 37.64706 8.748483 6.987016 9.015769 
214 "J7" 37.64706 25.09804 50.19608 10.16361 7.586544 16.07926 
215 "J8" 37.64706 37.64706 25.09804 10.33823 11.29871 4.960867 
216 "J9" 75.29412 62.74510 62.74510 41.55123 39.05964 29.25711 
217 "J10" 75.29412 62.74510 75.29412 44.06384 40.12412 41.79859 
218 "J11" 75.29412 62.74510 87.84314 47.18759 41.44752 57.39051 
219 "J12" 75.29412 62.74510 100.0000 50.83089 42.99103 75.57574 
220 "J13" 75.29412 75.29412 62.74510 48.31235 51.64688 30.96211 
221 "J14" 100.0000 75.29412 62.74510 68.93204 62.16794 31.62089 
222 "J15" 100.0000 75.29412 87.84314 74.56840 64.55582 59.75429 
223 "J16" 100.0000 87.84314 62.74510 77.33766 77.81675 33.74060 
224 "J17" 100.0000 87.84314 75.29412 79.85027 78.88123 46.28208 
225 "J18" 100.0000 100.0000 62.74510 87.14133 96.06833 36.21286 
226 "J19" 0.00000 0.00000 0.00000 0.00000 0.00000 0.00000 
227 "J20" 0.00000 0.00000 0.00000 0.00000 0.00000 0.00000 
228 "J21" 3.137255 3.137255 3.137255 0.234131 0.242821 0.200404 
229 "J22" 6.274510 6.274510 6.274510 0.499607 0.518150 0.427638 
230 "J23" 9.411765 9.411765 9.411765 0.880715 0.913403 0.753847 
231 "K1" 12.54902 12.54902 12.54902 1.392690 1.444380 1.192072 
232 "K2" 15.68627 15.68627 15.68627 2.045958 2.121895 1.751236 
233 "K3" 18.82353 18.82353 18.82353 2.849899 2.955675 2.439369 
234 "K4" 21.96078 21.96078 21.96078 3.813087 3.954612 3.263810 
235 "K5" 25.09804 25.09804 25.09804 4.943452 5.126931 4.231345 
236 "K6" 28.23529 28.23529 28.23529 6.248395 6.480308 5.348310 
237 "K7" 31.37255 31.37255 31.37255 7.734874 8.021959 6.620661 
238 "K8" 34.50980 34.50980 34.50980 9.409468 9.758707 8.054029 
239 "K9" 37.64706 37.64706 37.64706 11.27843 11.69703 9.653763 
240 "K10" 40.78431 40.78431 40.78431 13.34771 13.84312 11.42497 
241 "K11" 43.92157 43.92157 43.92157 15.62303 16.20289 13.37252 
242 "K12" 47.05882 47.05882 47.05882 18.10986 18.78202 15.50113 
243 "K13" 50.19608 50.19608 50.19608 20.81348 21.58599 17.81529 
244 "K14" 53.33333 53.33333 53.33333 23.73897 24.62006 20.31936 
245 "K15" 56.47059 56.47059 56.47059 26.89126 27.88935 23.01756 
246 "K16" 59.60784 59.60784 59.60784 30.27510 31.39878 25.91396 
247 "K17" 62.74510 62.74510 62.74510 33.89512 35.15316 29.01251 
248 "K18" 65.88235 65.88235 65.88235 37.75580 39.15714 32.31706 
249 "K19" 69.01961 69.01961 69.01961 41.86152 43.41524 35.83134 
250 "K20" 72.15686 72.15686 72.15686 46.21652 47.93188 39.55901 
251 "K21" 75.29412 75.29412 75.29412 50.82496 52.71136 43.50359 
252 "K22" 78.43137 78.43137 78.43137 55.69088 57.75788 47.66857 
253 "K23" 81.56863 81.56863 81.56863 60.81823 63.07553 52.05732 
254 "L1" 84.70588 84.70588 84.70588 66.21088 68.66833 56.67316 
255 "L2" 87.84314 87.84314 87.84314 71.87261 74.54021 61.51932 
256 "L3" 90.98039 90.98039 90.98039 77.80713 80.69500 66.59897 
257 "L4" 94.11765 94.11765 94.11765 84.01808 87.13646 71.91522 
258 "L5" 97.25490 97.25490 97.25490 90.50900 93.86830 77.47113 
259 "L6" 100.0000 100.0000 100.0000 96.42099 99.99971 82.53149 
260 "L7" 3.137255 0.00000 0.00000 0.105880 0.0540250 0.00338300 
261 "L8" 9.411765 6.274510 6.274510 0.671954 0.606089 0.433145 
262 "L9" 15.68627 12.54902 12.54902 1.688114 1.595119 1.201510 
263 "L10" 21.96078 18.82353 18.82353 3.285477 3.177926 2.453286 
264 "L11" 28.23529 25.09804 25.09804 5.533580 5.428041 4.250199 
265 "L12" 34.50980 31.37255 31.37255 8.492169 8.408364 6.644856 
266 "L13" 40.78431 37.64706 37.64706 12.21421 12.17451 9.683661 
267 "L14" 47.05882 43.92157 43.92157 16.74764 16.77672 13.40846 
268 "L15" 53.33333 50.19608 50.19608 22.13647 22.26103 17.85756 
269 "L16" 59.60784 56.47059 56.47059 28.42152 28.67015 23.06645 
270 "L17" 65.88235 62.74510 62.74510 35.64102 36.04399 29.06829 
271 "L18" 72.15686 69.01961 69.01961 43.83097 44.42014 35.89427 
272 "L19" 78.43137 75.29412 75.29412 53.02545 53.83415 43.57390 
273 "L20" 84.70588 81.56863 81.56863 63.25692 64.31986 52.13524 
274 "L21" 90.98039 87.84314 87.84314 74.55635 75.90957 61.60506 
275 "L22" 97.25490 94.11765 94.11765 86.95344 88.63421 72.00901 
276 "L23" 100.0000 97.25490 97.25490 93.18255 95.23247 77.55655 
277 "M1" 100.0000 94.11765 94.11765 89.62699 89.99837 72.09442 
278 "M2" 94.11765 87.84314 87.84314 77.36510 77.34272 61.69480 
279 "M3" 87.84314 81.56863 81.56863 65.81730 65.62628 52.21704 
280 "M4" 81.56863 75.29412 75.29412 55.34417 55.01726 43.64798 
281 "M5" 75.29412 69.01961 69.01961 45.91502 45.48351 35.96085 
282 "M6" 69.01961 62.74510 62.74510 37.49773 36.99137 29.12761 
283 "M7" 62.74510 56.47059 56.47059 30.05858 29.50545 23.11875 
284 "M8" 56.47059 50.19608 50.19608 23.56201 22.98841 17.90310 
285 "M9" 50.19608 43.92157 43.92157 17.97029 17.40056 13.44752 
286 "M10" 43.92157 37.64706 37.64706 13.24317 12.69953 9.716535 
287 "M11" 37.64706 31.37255 31.37255 9.337360 8.839617 6.671859 
288 "M12" 31.37255 25.09804 25.09804 6.205804 5.771039 4.271676 
289 "M13" 25.09804 18.82353 18.82353 3.796657 3.438752 2.469618 
290 "M14" 18.82353 12.54902 12.54902 2.051677 1.780624 1.213126 
291 "M15" 12.54902 6.274510 6.274510 0.903482 0.724225 0.440542 
292 "M16" 6.274510 0.00000 0.00000 0.225935 0.115282 0.00721800 
293 "M17" 6.274510 0.00000 0.00000 0.225935 0.115282 0.00721800 
294 "M18" 0.00000 3.137255 0.00000 0.0935030 0.174075 0.0235790 
295 "M19" 6.274510 9.411765 6.274510 0.651807 0.801502 0.466020 
296 "M20" 12.54902 15.68627 12.54902 1.653580 1.930081 1.257862 
297 "M21" 18.82353 21.96078 18.82353 3.234559 3.671800 2.536372 
298 "M22" 25.09804 28.23529 25.09804 5.464595 6.097149 4.362765 
299 "M23" 31.37255 34.50980 31.37255 8.403642 9.267010 6.789309 
300 "N1" 37.64706 40.78431 37.64706 12.10482 13.23554 9.862160 
301 "N2" 43.92157 47.05882 43.92157 16.61618 18.05184 13.62297 
302 "N3" 50.19608 53.33333 50.19608 21.98181 23.76108 18.10991 
303 "N4" 56.47059 59.60784 56.47059 28.24263 30.40521 23.35834 
304 "N5" 62.74510 65.88235 62.74510 35.43693 38.02356 29.40132 
305 "N6" 69.01961 72.15686 69.01961 43.60074 46.65316 36.26994 
306 "N7" 75.29412 78.43137 75.29412 52.76822 56.32914 43.99364 
307 "N8" 81.56863 84.70588 81.56863 62.97184 67.08494 52.60042 
308 "N9" 87.84314 90.98039 87.84314 74.24263 78.95249 62.11698 
309 "N10" 94.11765 97.25490 94.11765 86.61030 91.96243 72.56892 
310 "N11" 97.25490 100.0000 97.25490 92.87002 98.26383 78.06652 
311 "N12" 94.11765 100.0000 94.11765 88.97132 96.35795 73.16432 
312 "N13" 87.84314 94.11765 87.84314 76.72304 83.57029 62.74249 
313 "N14" 81.56863 87.84314 81.56863 65.23292 71.29440 53.17061 
314 "N15" 75.29412 81.56863 75.29412 54.81588 60.14130 44.51001 
315 "N16" 69.01961 75.29412 69.01961 45.44117 50.07950 36.73405 
316 "N17" 62.74510 69.01961 62.74510 37.07659 41.07613 29.81480 
317 "N18" 56.47059 62.74510 56.47059 29.68833 33.09668 23.72292 
318 "N19" 50.19608 56.47059 50.19608 23.24071 26.10478 18.42738 
319 "N20" 43.92157 50.19608 43.92157 17.69590 20.06196 13.89525 
320 "N21" 37.64706 43.92157 37.64706 13.01349 14.92722 10.09131 
321 "N22" 31.37255 37.64706 31.37255 9.150032 10.65657 6.977531 
322 "N23" 25.09804 31.37255 25.09804 6.058238 7.202338 4.512468 
323 "O1" 18.82353 25.09804 18.82353 3.685983 4.512219 2.650211 
324 "O2" 12.54902 18.82353 12.54902 1.974643 2.527807 1.338827 
325 "O3" 6.274510 12.54902 6.274510 0.856270 1.182152 0.517580 
326 "O4" 0.00000 6.274510 0.00000 0.199524 0.371455 0.0503150 
327 "O5" 0.00000 6.274510 0.00000 0.199524 0.371455 0.0503150 
328 "O6" 0.00000 0.00000 3.137255 0.0347480 0.0147210 0.173442 
329 "O7" 6.274510 6.274510 9.411765 0.556168 0.542113 0.709960 
330 "O8" 12.54902 12.54902 15.68627 1.489643 1.485455 1.676007 
331 "O9" 18.82353 18.82353 21.96078 2.992849 3.016237 3.152891 
332 "O10" 25.09804 25.09804 28.23529 5.137122 5.208981 5.198035 
333 "O11" 31.37255 31.37255 34.50980 7.983406 8.127251 7.861186 
334 "O12" 37.64706 37.64706 40.78431 11.58554 11.82714 11.18667 
335 "O13" 43.92157 43.92157 47.05882 15.99211 16.35925 15.21475 
336 "O14" 50.19608 50.19608 53.33333 21.24766 21.76993 19.98247 
337 "O15" 56.47059 56.47059 59.60784 27.39347 28.10211 25.52428 
338 "O16" 62.74510 62.74510 65.88235 34.46810 35.39590 31.87247 
339 "O17" 69.01961 69.01961 72.15686 42.50786 43.68906 39.05749 
340 "O18" 75.29412 75.29412 78.43137 51.54713 53.01731 47.10822 
341 "O19" 81.56863 81.56863 84.70588 61.61856 63.41460 56.05215 
342 "O20" 87.84314 87.84314 90.98039 72.75337 74.91335 65.91556 
343 "O21" 94.11765 94.11765 97.25490 84.98142 87.54459 76.72365 
344 "O22" 97.25490 97.25490 100.0000 91.38642 94.24003 81.85067 
345 "O23" 94.11765 94.11765 100.0000 85.85883 87.91631 81.10319 
346 "P1" 87.84314 87.84314 94.11765 73.67516 75.30387 70.51658 
347 "P2" 81.56863 81.56863 87.84314 62.45884 63.77059 60.24632 
348 "P3" 75.29412 75.29412 81.56863 52.30809 53.33970 50.90652 
349 "P4" 69.01961 69.01961 75.29412 43.19181 43.97883 42.47138 
350 "P5" 62.74510 62.74510 69.01961 35.07744 35.65406 34.91395 
351 "P6" 56.47059 56.47059 62.74510 27.93073 28.32972 28.20596 
352 "P7" 50.19608 50.19608 56.47059 21.71550 21.96814 22.31765 
353 "P8" 43.92157 43.92157 50.19608 16.39336 16.52925 17.21757 
354 "P9" 37.64706 37.64706 43.92157 11.92322 11.97021 12.87221 
355 "P10" 31.37255 31.37255 37.64706 8.260784 8.244764 9.245695 
356 "P11" 25.09804 25.09804 31.37255 5.357735 5.302445 6.299207 
357 "P12" 18.82353 18.82353 25.09804 3.160610 3.087310 3.990255 
358 "P13" 12.54902 12.54902 18.82353 1.608959 1.536004 2.271560 
359 "P14" 6.274510 6.274510 12.54902 0.632152 0.574304 1.089226 
360 "P15" 0.00000 0.00000 6.274510 0.0741480 0.0314130 0.370105 
361 "P16" 0.00000 0.00000 6.274510 0.0741480 0.0314130 0.370105 
362 "P17" 0.00000 3.137255 3.137255 0.128251 0.188796 0.197021 
363 "P18" 6.274510 9.411765 9.411765 0.708368 0.825464 0.748341 
364 "P19" 12.54902 15.68627 15.68627 1.750533 1.971156 1.741798 
365 "P20" 18.82353 21.96078 21.96078 3.377509 3.732361 3.249893 
