Example Targets Read/SpyderPrint Targets/EZ 729 Colors Plus Grays (9-pages, 996-patches)/EZ 729 Colors Plus Grays 5 of 9 (108-patches).ti1
CTI1

DESCRIPTOR "Argyll Calibration Target chart information 1"
ORIGINATOR "read_image_patch_colors.py"
CREATED "Sun Nov 30 22:58:20 2025"
ACCURATE_EXPECTED_VALUES "true"
APPROX_WHITE_POINT "68.310430 86.207988 107.676413"
COLOR_REP "iRGB"
WHITE_COLOR_PATCHES "1"
BLACK_COLOR_PATCHES "1"
NEUTRAL_STEPS "1"
SINGLE_DIM_STEPS "9"

NUMBER_OF_FIELDS 7
BEGIN_DATA_FORMAT
SAMPLE_ID RGB_R RGB_G RGB_B XYZ_X XYZ_Y XYZ_Z
END_DATA_FORMAT

NUMBER_OF_SETS 108
BEGIN_DATA
1 62.745098 0.000000 0.000000 14.497636 7.475046 0.679324
2 62.745098 0.000000 12.549020 14.758348 7.579315 2.052506
3 62.745098 0.000000 25.098039 15.423078 7.845166 5.553664
4 62.745098 0.000000 37.647059 16.609031 8.319474 11.800128
5 62.745098 0.000000 50.196078 18.394159 9.033414 21.202467
6 62.745098 0.000000 62.745098 20.843225 10.012890 34.101799
7 62.745098 0.000000 75.294118 24.012804 11.280525 50.796096
8 62.745098 0.000000 87.843137 27.953097 12.856399 71.549775
9 62.745098 0.000000 100.000000 32.548835 14.694410 95.755713
10 62.745098 12.549020 0.000000 15.014138 8.507912 0.851494
11 62.745098 12.549020 12.549020 15.274850 8.612181 2.224676
12 62.745098 12.549020 25.098039 15.939580 8.878031 5.725834
13 62.745098 12.549020 37.647059 17.125533 9.352340 11.972298
14 62.745098 12.549020 50.196078 18.910661 10.066280 21.374637
15 62.745098 12.549020 62.745098 21.359728 11.045756 34.273969
16 62.745098 12.549020 75.294118 24.529306 12.313391 50.968266
17 62.745098 12.549020 87.843137 28.469599 13.889265 71.721945
18 62.745098 12.549020 100.000000 33.065337 15.727276 95.927883
19 62.745098 25.098039 0.000000 16.331048 11.141377 1.290470
20 62.745098 25.098039 12.549020 16.591760 11.245646 2.663652
21 62.745098 25.098039 25.098039 17.256490 11.511497 6.164810
22 62.745098 25.098039 37.647059 18.442443 11.985805 12.411274
23 62.745098 25.098039 50.196078 20.227571 12.699745 21.813613
24 62.745098 25.098039 62.745098 22.676637 13.679221 34.712945
25 62.745098 25.098039 75.294118 25.846216 14.946856 51.407242
26 62.745098 25.098039 87.843137 29.786509 16.522730 72.160921
27 62.745098 25.098039 100.000000 34.382247 18.360741 96.366859
28 62.745098 37.647059 0.000000 18.680564 15.839778 2.073653
29 62.745098 37.647059 12.549020 18.941276 15.944047 3.446835
30 62.745098 37.647059 25.098039 19.606006 16.209897 6.947993
31 62.745098 37.647059 37.647059 20.791959 16.684205 13.194457
32 62.745098 37.647059 50.196078 22.577087 17.398146 22.596796
33 62.745098 37.647059 62.745098 25.026153 18.377622 35.496128
34 62.745098 37.647059 75.294118 28.195732 19.645257 52.190425
35 62.745098 37.647059 87.843137 32.136025 21.221131 72.944104
36 62.745098 37.647059 100.000000 36.731763 23.059142 97.150042
37 62.745098 50.196078 0.000000 22.217116 22.911932 3.252521
38 62.745098 50.196078 12.549020 22.477828 23.016200 4.625703
39 62.745098 50.196078 25.098039 23.142558 23.282051 8.126861
40 62.745098 50.196078 37.647059 24.328511 23.756359 14.373325
41 62.745098 50.196078 50.196078 26.113639 24.470300 23.775663
42 62.745098 50.196078 62.745098 28.562706 25.449775 36.674995
43 62.745098 50.196078 75.294118 31.732284 26.717411 53.369293
44 62.745098 50.196078 87.843137 35.672577 28.293285 74.122972
45 62.745098 50.196078 100.000000 40.268315 30.131296 98.328909
46 62.745098 62.745098 0.000000 27.069011 32.614418 4.869842
47 62.745098 62.745098 12.549020 27.329724 32.718687 6.243024
48 62.745098 62.745098 25.098039 27.994453 32.984538 9.744182
49 62.745098 62.745098 37.647059 29.180407 33.458846 15.990646
50 62.745098 62.745098 50.196078 30.965534 34.172787 25.392985
51 62.745098 62.745098 62.745098 33.414601 35.152262 38.292317
52 62.745098 62.745098 75.294118 36.584180 36.419898 54.986614
53 62.745098 62.745098 87.843137 40.524472 37.995771 75.740293
54 62.745098 62.745098 100.000000 45.120211 39.833783 99.946231
55 62.745098 75.294118 0.000000 33.348328 45.171362 6.962977
56 62.745098 75.294118 12.549020 33.609040 45.275631 8.336159
57 62.745098 75.294118 25.098039 34.273770 45.541482 11.837317
58 62.745098 75.294118 37.647059 35.459723 46.015790 18.083781
59 62.745098 75.294118 50.196078 37.244851 46.729731 27.486120
60 62.745098 75.294118 62.745098 39.693917 47.709206 40.385452
61 62.745098 75.294118 75.294118 42.863496 48.976842 57.079749
62 62.745098 75.294118 87.843137 46.803789 50.552716 77.833428
63 62.745098 75.294118 100.000000 51.399527 52.390727 102.039366
64 62.745098 87.843137 0.000000 41.154521 60.781651 9.565078
65 62.745098 87.843137 12.549020 41.415233 60.885919 10.938260
66 62.745098 87.843137 25.098039 42.079963 61.151770 14.439419
67 62.745098 87.843137 37.647059 43.265916 61.626078 20.685883
68 62.745098 87.843137 50.196078 45.051044 62.340019 30.088221
69 62.745098 87.843137 62.745098 47.500110 63.319494 42.987553
70 62.745098 87.843137 75.294118 50.669689 64.587130 59.681850
71 62.745098 87.843137 87.843137 54.609982 66.163004 80.435529
72 62.745098 87.843137 100.000000 59.205720 68.001015 104.641467
73 62.745098 100.000000 0.000000 50.259231 78.988623 12.600025
74 62.745098 100.000000 12.549020 50.519943 79.092892 13.973207
75 62.745098 100.000000 25.098039 51.184673 79.358743 17.474365
76 62.745098 100.000000 37.647059 52.370626 79.833051 23.720829
77 62.745098 100.000000 50.196078 54.155754 80.546991 33.123167
78 62.745098 100.000000 62.745098 56.604820 81.526467 46.022499
79 62.745098 100.000000 75.294118 59.774399 82.794102 62.716797
80 62.745098 100.000000 87.843137 63.714692 84.369976 83.470476
81 62.745098 100.000000 100.000000 68.310430 86.207988 107.676413
82 75.294118 0.000000 0.000000 21.739106 11.208780 1.018642
83 75.294118 0.000000 12.549020 21.999818 11.313049 2.391824
84 75.294118 0.000000 25.098039 22.664548 11.578900 5.892982
85 75.294118 0.000000 37.647059 23.850501 12.053208 12.139446
86 75.294118 0.000000 50.196078 25.635629 12.767149 21.541784
87 75.294118 0.000000 62.745098 28.084695 13.746624 34.441117
88 75.294118 0.000000 75.294118 31.254274 15.014260 51.135414
89 75.294118 0.000000 87.843137 35.194567 16.590133 71.889093
90 75.294118 0.000000 100.000000 39.790305 18.428145 96.095031
91 75.294118 12.549020 0.000000 22.255608 12.241646 1.190812
92 75.294118 12.549020 12.549020 22.516320 12.345915 2.563994
93 75.294118 12.549020 25.098039 23.181050 12.611766 6.065152
94 75.294118 12.549020 37.647059 24.367003 13.086074 12.311616
95 75.294118 12.549020 50.196078 26.152131 13.800015 21.713954
96 75.294118 12.549020 62.745098 28.601198 14.779490 34.613286
97 75.294118 12.549020 75.294118 31.770776 16.047126 51.307584
98 75.294118 12.549020 87.843137 35.711069 17.622999 72.061263
99 75.294118 12.549020 100.000000 40.306807 19.461011 96.267200
100 75.294118 25.098039 0.000000 23.572517 14.875111 1.629788
101 75.294118 25.098039 12.549020 23.833230 14.979380 3.002970
102 75.294118 25.098039 25.098039 24.497959 15.245231 6.504128
103 75.294118 25.098039 37.647059 25.683913 15.719539 12.750592
104 75.294118 25.098039 50.196078 27.469040 16.433480 22.152930
105 75.294118 25.098039 62.745098 29.918107 17.412955 35.052263
106 75.294118 25.098039 75.294118 33.087686 18.680591 51.746560
107 75.294118 25.098039 87.843137 37.027978 20.256464 72.500239
108 75.294118 25.098039 100.000000 41.623717 22.094476 96.706176
END_DATA

CTI1

DESCRIPTOR "Argyll Calibration Target chart information 1"
ORIGINATOR "Argyll targen"
DENSITY_EXTREME_VALUES "8"
CREATED "Sun Nov 30 22:58:20 2025"

NUMBER_OF_FIELDS "7"
BEGIN_DATA_FORMAT
INDEX RGB_R RGB_G RGB_B XYZ_X XYZ_Y XYZ_Z
END_DATA_FORMAT

NUMBER_OF_SETS "8"
BEGIN_DATA
0 0.000000 49.995270 43.750000 10.553522 16.464078 17.827876
1 0.000000 50.001230 50.000000 11.518815 16.853276 22.902426
2 0.000000 40.085320 59.909980 10.503940 11.836369 31.777250
3 0.000000 0.000000 78.363740 10.405823 4.161686 54.807888
4 30.559800 50.011200 0.000000 10.794151 16.931419 2.699745
5 0.000000 32.571370 0.000000 3.097963 6.195092 1.032669
6 100.000000 0.000000 0.000000 41.241196 21.264146 1.932463
7 0.000000 0.000000 21.872990 0.708368 0.283303 3.731003
END_DATA

CTI1

DESCRIPTOR "Argyll Calibration Target chart information 1"
ORIGINATOR "Argyll targen"
DEVICE_COMBINATION_VALUES "9"
CREATED "Sun Nov 30 22:58:20 2025"

NUMBER_OF_FIELDS "7"
BEGIN_DATA_FORMAT
INDEX RGB_R RGB_G RGB_B XYZ_X XYZ_Y XYZ_Z
END_DATA_FORMAT

NUMBER_OF_SETS "9"
BEGIN_DATA
0 100.000000 100.000000 100.000000 95.053991 99.997087 108.929552
1 0.000000 100.000000 100.000000 53.812794 78.732942 106.997089
2 100.000000 0.000000 100.000000 59.292396 28.483510 97.008851
3 0.000000 0.000000 100.000000 18.051199 7.219365 95.076389
4 100.000000 100.000000 0.000000 77.002791 92.777723 13.853163
5 0.000000 100.000000 0.000000 35.761595 71.513577 11.920700
6 100.000000 0.000000 0.000000 41.241196 21.264146 1.932463
7 0.000000 0.000000 0.000000 0.000000 0.000000 0.000000
8 50.000000 50.000000 50.000000 20.345920 21.403970 23.315927
END_DATA
