Example Targets Read/SpyderPrint Targets/EZ 729 Colors Plus Grays (9-pages, 996-patches)/EZ 729 Colors Plus Grays 3 of 9 (108-patches).ti2
CTI2

DESCRIPTOR "Argyll Calibration Target chart information 2"
ORIGINATOR "read_image_patch_colors.py (colormath backend)"
CREATED "Mon Dec  1 04:06:17 2025"
ACCURATE_EXPECTED_VALUES "true"
APPROX_WHITE_POINT "55.927132 79.823104 107.096162"
COLOR_REP "iRGB"
STEPS_IN_PASS "12"
PASSES_IN_STRIPS2 "9"
STRIP_INDEX_PATTERN "0-9,@-9;1-99"
PATCH_INDEX_PATTERN "A-Z, A-Z"
INDEX_ORDER "STRIP_THEN_PATCH"

NUMBER_OF_FIELDS 8
BEGIN_DATA_FORMAT
SAMPLE_ID SAMPLE_LOC RGB_R RGB_G RGB_B XYZ_X XYZ_Y XYZ_Z
END_DATA_FORMAT

NUMBER_OF_SETS 108
BEGIN_DATA
1 "A1" 25.098039 37.647059 0.000000 6.297266 9.454894 1.493402
2 "B1" 25.098039 37.647059 12.549020 6.557978 9.559163 2.866584
3 "C1" 25.098039 37.647059 25.098039 7.222708 9.825014 6.367742
4 "D1" 25.098039 37.647059 37.647059 8.408662 10.299322 12.614206
5 "E1" 25.098039 37.647059 50.196078 10.193789 11.013262 22.016544
6 "F1" 25.098039 37.647059 62.745098 12.642856 11.992738 34.915877
7 "G1" 25.098039 37.647059 75.294118 15.812434 13.260373 51.610174
8 "H1" 25.098039 37.647059 87.843137 19.752727 14.836247 72.363853
9 "I1" 25.098039 37.647059 100.000000 24.348465 16.674258 96.569791
10 "A2" 25.098039 50.196078 0.000000 9.833818 16.527048 2.672269
11 "B2" 25.098039 50.196078 12.549020 10.094531 16.631317 4.045451
12 "C2" 25.098039 50.196078 25.098039 10.759260 16.897167 7.546610
13 "D2" 25.098039 50.196078 37.647059 11.945214 17.371476 13.793074
14 "E2" 25.098039 50.196078 50.196078 13.730341 18.085416 23.195412
15 "F2" 25.098039 50.196078 62.745098 16.179408 19.064892 36.094744
16 "G2" 25.098039 50.196078 75.294118 19.348987 20.332527 52.789041
17 "H2" 25.098039 50.196078 87.843137 23.289279 21.908401 73.542720
18 "I2" 25.098039 50.196078 100.000000 27.885018 23.746412 97.748658
19 "A3" 25.098039 62.745098 0.000000 14.685714 26.229534 4.289591
20 "B3" 25.098039 62.745098 12.549020 14.946426 26.333803 5.662773
21 "C3" 25.098039 62.745098 25.098039 15.611156 26.599654 9.163931
22 "D3" 25.098039 62.745098 37.647059 16.797109 27.073962 15.410395
23 "E3" 25.098039 62.745098 50.196078 18.582237 27.787903 24.812733
24 "F3" 25.098039 62.745098 62.745098 21.031303 28.767378 37.712065
25 "G3" 25.098039 62.745098 75.294118 24.200882 30.035014 54.406363
26 "H3" 25.098039 62.745098 87.843137 28.141175 31.610887 75.160042
27 "I3" 25.098039 62.745098 100.000000 32.736913 33.448899 99.365979
28 "A4" 25.098039 75.294118 0.000000 20.965030 38.786479 6.382726
29 "B4" 25.098039 75.294118 12.549020 21.225742 38.890748 7.755908
30 "C4" 25.098039 75.294118 25.098039 21.890472 39.156598 11.257066
31 "D4" 25.098039 75.294118 37.647059 23.076425 39.630906 17.503530
32 "E4" 25.098039 75.294118 50.196078 24.861553 40.344847 26.905868
33 "F4" 25.098039 75.294118 62.745098 27.310620 41.324323 39.805200
34 "G4" 25.098039 75.294118 75.294118 30.480198 42.591958 56.499498
35 "H4" 25.098039 75.294118 87.843137 34.420491 44.167832 77.253177
36 "I4" 25.098039 75.294118 100.000000 39.016229 46.005843 101.459114
37 "A5" 25.098039 87.843137 0.000000 28.771223 54.396767 8.984827
38 "B5" 25.098039 87.843137 12.549020 29.031935 54.501036 10.358009
39 "C5" 25.098039 87.843137 25.098039 29.696665 54.766886 13.859167
40 "D5" 25.098039 87.843137 37.647059 30.882619 55.241195 20.105631
41 "E5" 25.098039 87.843137 50.196078 32.667746 55.955135 29.507970
42 "F5" 25.098039 87.843137 62.745098 35.116813 56.934611 42.407302
43 "G5" 25.098039 87.843137 75.294118 38.286391 58.202246 59.101599
44 "H5" 25.098039 87.843137 87.843137 42.226684 59.778120 79.855278
45 "I5" 25.098039 87.843137 100.000000 46.822422 61.616131 104.061216
46 "A6" 25.098039 100.000000 0.000000 37.875933 72.603739 12.019773
47 "B6" 25.098039 100.000000 12.549020 38.136645 72.708008 13.392955
48 "C6" 25.098039 100.000000 25.098039 38.801375 72.973859 16.894113
49 "D6" 25.098039 100.000000 37.647059 39.987328 73.448167 23.140577
50 "E6" 25.098039 100.000000 50.196078 41.772456 74.162108 32.542916
51 "F6" 25.098039 100.000000 62.745098 44.221523 75.141583 45.442248
52 "G6" 25.098039 100.000000 75.294118 47.391101 76.409219 62.136545
53 "H6" 25.098039 100.000000 87.843137 51.331394 77.985092 82.890224
54 "I6" 25.098039 100.000000 100.000000 55.927132 79.823104 107.096162
55 "A7" 37.647059 0.000000 0.000000 4.823861 2.487204 0.226034
56 "B7" 37.647059 0.000000 12.549020 5.084573 2.591473 1.599216
57 "C7" 37.647059 0.000000 25.098039 5.749303 2.857324 5.100375
58 "D7" 37.647059 0.000000 37.647059 6.935256 3.331632 11.346839
59 "E7" 37.647059 0.000000 50.196078 8.720384 4.045573 20.749177
60 "F7" 37.647059 0.000000 62.745098 11.169451 5.025048 33.648509
61 "G7" 37.647059 0.000000 75.294118 14.339029 6.292684 50.342807
62 "H7" 37.647059 0.000000 87.843137 18.279322 7.868557 71.096485
63 "I7" 37.647059 0.000000 100.000000 22.875060 9.706569 95.302423
64 "A8" 37.647059 12.549020 0.000000 5.340363 3.520070 0.398204
65 "B8" 37.647059 12.549020 12.549020 5.601075 3.624339 1.771386
66 "C8" 37.647059 12.549020 25.098039 6.265805 3.890190 5.272545
67 "D8" 37.647059 12.549020 37.647059 7.451759 4.364498 11.519009
68 "E8" 37.647059 12.549020 50.196078 9.236886 5.078439 20.921347
69 "F8" 37.647059 12.549020 62.745098 11.685953 6.057914 33.820679
70 "G8" 37.647059 12.549020 75.294118 14.855532 7.325550 50.514976
71 "H8" 37.647059 12.549020 87.843137 18.795824 8.901423 71.268655
72 "I8" 37.647059 12.549020 100.000000 23.391563 10.739435 95.474593
73 "A9" 37.647059 25.098039 0.000000 6.657273 6.153535 0.837180
74 "B9" 37.647059 25.098039 12.549020 6.917985 6.257804 2.210362
75 "C9" 37.647059 25.098039 25.098039 7.582715 6.523655 5.711521
76 "D9" 37.647059 25.098039 37.647059 8.768668 6.997963 11.957985
77 "E9" 37.647059 25.098039 50.196078 10.553796 7.711904 21.360323
78 "F9" 37.647059 25.098039 62.745098 13.002862 8.691379 34.259655
79 "G9" 37.647059 25.098039 75.294118 16.172441 9.959015 50.953953
80 "H9" 37.647059 25.098039 87.843137 20.112734 11.534888 71.707631
81 "I9" 37.647059 25.098039 100.000000 24.708472 13.372900 95.913569
82 "A10" 37.647059 37.647059 0.000000 9.006789 10.851936 1.620364
83 "B10" 37.647059 37.647059 12.549020 9.267501 10.956205 2.993546
84 "C10" 37.647059 37.647059 25.098039 9.932231 11.222056 6.494704
85 "D10" 37.647059 37.647059 37.647059 11.118184 11.696364 12.741168
86 "E10" 37.647059 37.647059 50.196078 12.903312 12.410305 22.143506
87 "F10" 37.647059 37.647059 62.745098 15.352379 13.389780 35.042838
88 "G10" 37.647059 37.647059 75.294118 18.521957 14.657416 51.737136
89 "H10" 37.647059 37.647059 87.843137 22.462250 16.233289 72.490815
90 "I10" 37.647059 37.647059 100.000000 27.057988 18.071301 96.696752
91 "A11" 37.647059 50.196078 0.000000 12.543341 17.924090 2.799231
92 "B11" 37.647059 50.196078 12.549020 12.804053 18.028359 4.172413
93 "C11" 37.647059 50.196078 25.098039 13.468783 18.294210 7.673571
94 "D11" 37.647059 50.196078 37.647059 14.654737 18.768518 13.920035
95 "E11" 37.647059 50.196078 50.196078 16.439864 19.482458 23.322374
96 "F11" 37.647059 50.196078 62.745098 18.888931 20.461934 36.221706
97 "G11" 37.647059 50.196078 75.294118 22.058510 21.729569 52.916003
98 "H11" 37.647059 50.196078 87.843137 25.998802 23.305443 73.669682
99 "I11" 37.647059 50.196078 100.000000 30.594541 25.143454 97.875620
100 "A12" 37.647059 62.745098 0.000000 17.395237 27.626576 4.416552
101 "B12" 37.647059 62.745098 12.549020 17.655949 27.730845 5.789734
102 "C12" 37.647059 62.745098 25.098039 18.320679 27.996696 9.290893
103 "D12" 37.647059 62.745098 37.647059 19.506632 28.471004 15.537357
104 "E12" 37.647059 62.745098 50.196078 21.291760 29.184945 24.939695
105 "F12" 37.647059 62.745098 62.745098 23.740826 30.164420 37.839027
106 "G12" 37.647059 62.745098 75.294118 26.910405 31.432056 54.533324
107 "H12" 37.647059 62.745098 87.843137 30.850698 33.007930 75.287003
108 "I12" 37.647059 62.745098 100.000000 35.446436 34.845941 99.492941
END_DATA
