Example Targets Read/SpyderPrint Targets/EZ 729 Colors Plus Grays (9-pages, 996-patches)/EZ 729 Colors Plus Grays 9 of 9 (120-patches).ti1
CTI1

DESCRIPTOR "Argyll Calibration Target chart information 1"
ORIGINATOR "read_image_patch_colors.py"
CREATED "Mon Dec  1 04:06:23 2025"
ACCURATE_EXPECTED_VALUES "true"
APPROX_WHITE_POINT "95.053991 99.997087 108.929552"
COLOR_REP "iRGB"
WHITE_COLOR_PATCHES "1"
BLACK_COLOR_PATCHES "1"
COMP_GREY_STEPS "10"
SINGLE_DIM_STEPS "3"

NUMBER_OF_FIELDS 7
BEGIN_DATA_FORMAT
SAMPLE_ID RGB_R RGB_G RGB_B XYZ_X XYZ_Y XYZ_Z
END_DATA_FORMAT

NUMBER_OF_SETS 120
BEGIN_DATA
1 53.333333 50.196078 50.196078 21.769764 22.230579 23.572120
2 59.607843 56.470588 56.470588 27.957607 28.635197 30.448061
3 65.882353 62.745098 62.745098 35.066070 36.003767 38.369701
4 72.156863 69.019608 69.019608 43.131087 44.374770 47.379610
5 78.431373 75.294118 75.294118 52.185766 53.783446 57.516568
6 84.705882 81.568627 81.568627 62.262740 64.263215 68.816109
7 90.980392 87.843137 87.843137 73.391864 75.847027 81.315603
8 97.254902 94.117647 94.117647 85.603143 88.565709 95.047928
9 100.000000 97.254902 97.254902 91.754253 95.169276 102.368616
10 72.156863 72.156863 72.156863 45.561875 47.931231 52.212796
11 50.196078 43.921569 43.921569 17.621794 17.347462 17.754281
12 43.921569 37.647059 37.647059 12.976790 12.654669 12.828258
13 37.647059 31.372549 31.372549 9.140593 8.802970 8.809082
14 31.372549 25.098039 25.098039 6.067123 5.742209 5.640504
15 25.098039 18.823529 18.823529 3.704646 3.416925 3.261115
16 18.823529 12.549020 12.549020 1.995999 1.765545 1.602461
17 12.549020 6.274510 6.274510 0.874268 0.714769 0.581904
18 6.274510 0.000000 0.000000 0.213533 0.110098 0.010006
19 6.274510 0.000000 0.000000 0.213533 0.110098 0.010006
20 75.294118 75.294118 75.294118 50.104966 52.710576 57.419067
21 50.196078 53.333333 50.196078 21.603487 23.755388 23.875211
22 56.470588 59.607843 56.470588 27.765318 30.398540 30.798566
23 62.745098 65.882353 62.745098 34.846644 38.015963 38.769671
24 69.019608 72.156863 69.019608 42.883567 46.644597 47.830790
25 75.294118 78.431373 75.294118 51.909296 56.318751 58.020519
26 81.568627 84.705882 81.568627 61.956239 67.073912 69.374800
27 87.843137 90.980392 87.843137 73.054633 78.939530 81.930309
28 94.117647 97.254902 94.117647 85.234300 91.948100 95.720256
29 97.254902 100.000000 97.254902 91.418251 98.250512 102.981083
30 78.431373 78.431373 78.431373 54.900858 57.755870 62.915043
31 43.921569 50.196078 43.921569 17.326850 20.052176 18.291905
32 37.647059 43.921569 37.647059 12.729842 14.919246 13.278395
33 31.372549 37.647059 31.372549 8.939220 10.649610 9.176144
34 25.098039 31.372549 25.098039 5.908489 7.196928 5.929663
35 18.823529 25.098039 18.823529 3.585656 4.508093 3.478009
36 12.549020 18.823529 12.549020 1.913204 2.524797 1.753380
37 6.274510 12.549020 6.274510 0.823498 1.180344 0.674448
38 0.000000 6.274510 0.000000 0.185161 0.370273 0.061721
39 0.000000 6.274510 0.000000 0.185161 0.370273 0.061721
40 81.568627 81.568627 81.568627 59.955917 63.073807 68.708017
41 50.196078 50.196078 53.333333 21.066068 21.804392 26.398554
42 56.470588 56.470588 59.607843 27.143828 28.142340 33.716649
43 62.745098 62.745098 65.882353 34.137446 35.441355 42.099571
44 69.019608 69.019608 72.156863 42.083567 43.740350 51.587032
45 75.294118 75.294118 78.431373 51.015728 53.074825 62.216090
46 81.568627 81.568627 84.705882 60.965609 63.477622 74.026106
47 87.843137 87.843137 90.980392 71.964681 74.982668 87.047964
48 94.117647 94.117647 97.254902 84.042177 87.620326 101.317635
49 97.254902 97.254902 100.000000 90.332270 94.308066 108.080092
50 84.705882 84.705882 84.705882 65.272753 68.667135 74.800981
51 43.921569 43.921569 50.196078 16.373575 16.591492 22.767823
52 37.647059 37.647059 43.921569 11.931693 12.021717 17.025948
53 31.372549 31.372549 37.647059 8.288373 8.286832 12.232071
54 25.098039 25.098039 31.372549 5.395773 5.335613 8.337016
55 18.823529 18.823529 25.098039 3.201074 3.111942 5.283737
56 12.549020 12.549020 18.823529 1.645606 1.553333 3.009834
57 6.274510 6.274510 12.549020 0.659406 0.584640 1.444909
58 0.000000 0.000000 6.274510 0.093463 0.037379 0.492273
59 0.000000 0.000000 6.274510 0.093463 0.037379 0.492273
60 87.843137 87.843137 87.843137 70.853756 74.538366 81.196673
61 50.196078 53.333333 53.333333 22.151247 23.974458 26.760286
62 56.470588 59.607843 59.607843 28.398767 30.651880 34.134968
63 62.745098 65.882353 65.882353 35.569489 38.305057 42.576925
64 69.019608 72.156863 72.156863 43.698961 46.970704 52.125504
65 75.294118 78.431373 78.431373 52.820058 56.683000 62.817541
66 81.568627 84.705882 84.705882 62.965931 67.477727 74.692889
67 87.843137 90.980392 90.980392 74.165559 79.383831 87.781600
68 94.117647 97.254902 97.254902 86.449363 92.434050 102.120041
69 97.254902 100.000000 100.000000 92.525129 98.693195 108.811055
70 90.980392 90.980392 90.980392 76.703668 80.692492 87.900530
71 43.921569 50.196078 50.196078 18.298469 20.440764 23.409463
72 37.647059 43.921569 43.921569 13.543350 15.244599 17.563175
73 31.372549 37.647059 37.647059 9.602592 10.914918 12.670151
74 25.098039 31.372549 31.372549 6.431070 7.405928 8.682120
75 18.823529 25.098039 25.098039 3.977638 4.664861 5.542595
76 12.549020 18.823529 18.823529 2.185952 2.633879 3.189952
77 6.274510 12.549020 12.549020 0.990747 1.247233 1.555357
78 0.000000 6.274510 6.274510 0.278624 0.407652 0.553994
79 0.000000 6.274510 6.274510 0.278624 0.407652 0.553994
80 94.117647 94.117647 94.117647 82.827114 87.134376 94.917850
81 53.333333 50.196078 53.333333 22.317524 22.449649 26.457195
82 59.607843 56.470588 59.607843 28.591056 28.888537 33.784462
83 65.882353 62.745098 65.882353 35.788915 36.292860 42.176955
84 72.156863 69.019608 72.156863 43.946481 44.700877 51.674323
85 78.431373 75.294118 78.431373 53.096528 54.147695 62.313591
86 84.705882 81.568627 84.705882 63.272432 64.667030 74.134198
87 90.980392 87.843137 90.980392 74.502790 76.291328 87.166893
88 97.254902 94.117647 97.254902 86.818206 89.051659 101.447713
89 100.000000 97.254902 100.000000 92.861132 95.611959 108.198588
90 97.254902 97.254902 97.254902 89.225391 93.865383 102.250119
91 50.196078 43.921569 50.196078 18.593413 17.736050 22.871839
92 43.921569 37.647059 43.921569 13.790298 12.980022 17.113038
93 37.647059 31.372549 37.647059 9.803965 9.068278 12.303088
94 31.372549 25.098039 31.372549 6.589704 5.951209 8.392961
95 25.098039 18.823529 25.098039 4.096628 3.573694 5.325701
96 18.823529 12.549020 18.823529 2.268747 1.874628 3.039033
97 12.549020 6.274510 12.549020 1.041517 0.781658 1.462814
98 6.274510 0.000000 6.274510 0.306996 0.147478 0.502278
99 6.274510 0.000000 6.274510 0.306996 0.147478 0.502278
100 100.000000 100.000000 100.000000 95.053991 99.997087 108.929552
101 53.333333 53.333333 50.196078 22.854943 24.400644 23.933851
102 59.607843 59.607843 56.470588 29.212546 31.144737 30.866380
103 65.882353 65.882353 62.745098 36.498113 38.867468 38.847055
104 72.156863 72.156863 69.019608 44.746481 47.605123 47.918082
105 78.431373 78.431373 75.294118 53.990096 57.391621 58.118020
106 84.705882 84.705882 81.568627 64.263061 68.263320 69.482892
107 90.980392 90.980392 87.843137 75.592742 80.248190 82.049239
108 97.254902 97.254902 94.117647 88.010329 93.379433 95.850334
109 100.000000 100.000000 97.254902 93.947112 99.554404 103.099579
110 81.568627 81.568627 81.568627 59.955917 63.073807 68.708017
111 50.196078 50.196078 43.921569 19.546688 21.196734 18.395922
112 43.921569 43.921569 37.647059 14.588447 15.877551 13.365484
113 37.647059 37.647059 31.372549 10.454812 11.431056 9.247161
114 31.372549 31.372549 25.098039 7.102419 7.812524 5.985607
115 25.098039 25.098039 18.823529 4.481210 4.969844 3.519973
116 18.823529 18.823529 12.549020 2.536345 2.846091 1.782579
117 12.549020 12.549020 6.274510 1.205609 1.377362 0.692353
118 6.274510 6.274510 0.000000 0.398694 0.480371 0.071727
119 6.274510 6.274510 0.000000 0.398694 0.480371 0.071727
120 0.000000 0.000000 0.000000 0.000000 0.000000 0.000000
END_DATA

CTI1

DESCRIPTOR "Argyll Calibration Target chart information 1"
ORIGINATOR "Argyll targen"
DENSITY_EXTREME_VALUES "8"
CREATED "Mon Dec  1 04:06:23 2025"

NUMBER_OF_FIELDS "7"
BEGIN_DATA_FORMAT
INDEX RGB_R RGB_G RGB_B XYZ_X XYZ_Y XYZ_Z
END_DATA_FORMAT

NUMBER_OF_SETS "8"
BEGIN_DATA
0 0.000000 49.995270 43.750000 10.553522 16.464078 17.827876
1 0.000000 50.001230 50.000000 11.518815 16.853276 22.902426
2 0.000000 40.085320 59.909980 10.503940 11.836369 31.777250
3 0.000000 0.000000 78.363740 10.405823 4.161686 54.807888
4 30.559800 50.011200 0.000000 10.794151 16.931419 2.699745
5 0.000000 32.571370 0.000000 3.097963 6.195092 1.032669
6 100.000000 0.000000 0.000000 41.241196 21.264146 1.932463
7 0.000000 0.000000 21.872990 0.708368 0.283303 3.731003
END_DATA

CTI1

DESCRIPTOR "Argyll Calibration Target chart information 1"
ORIGINATOR "Argyll targen"
DEVICE_COMBINATION_VALUES "9"
CREATED "Mon Dec  1 04:06:23 2025"

NUMBER_OF_FIELDS "7"
BEGIN_DATA_FORMAT
INDEX RGB_R RGB_G RGB_B XYZ_X XYZ_Y XYZ_Z
END_DATA_FORMAT

NUMBER_OF_SETS "9"
BEGIN_DATA
0 100.000000 100.000000 100.000000 95.053991 99.997087 108.929552
1 0.000000 100.000000 100.000000 53.812794 78.732942 106.997089
2 100.000000 0.000000 100.000000 59.292396 28.483510 97.008851
3 0.000000 0.000000 100.000000 18.051199 7.219365 95.076389
4 100.000000 100.000000 0.000000 77.002791 92.777723 13.853163
5 0.000000 100.000000 0.000000 35.761595 71.513577 11.920700
6 100.000000 0.000000 0.000000 41.241196 21.264146 1.932463
7 0.000000 0.000000 0.000000 0.000000 0.000000 0.000000
8 50.000000 50.000000 50.000000 20.345920 21.403970 23.315927
END_DATA
