Example Targets Read/SpyderPrint Targets/EZ 729 Colors Plus Grays (9-pages, 996-patches)/EZ 729 Colors Plus Grays All (995-patches).ti1
CTI1

DESCRIPTOR "Argyll Calibration Target chart information 1"
ORIGINATOR "read_image_patch_colors.py"
CREATED "Mon Dec  1 04:06:16 2025"
ACCURATE_EXPECTED_VALUES "true"
APPROX_WHITE_POINT "95.053991 99.997087 108.929552"
COLOR_REP "iRGB"
WHITE_COLOR_PATCHES "3"
BLACK_COLOR_PATCHES "5"
COMP_GREY_STEPS "40"
SINGLE_DIM_STEPS "9"

NUMBER_OF_FIELDS 7
BEGIN_DATA_FORMAT
SAMPLE_ID RGB_R RGB_G RGB_B XYZ_X XYZ_Y XYZ_Z
END_DATA_FORMAT

NUMBER_OF_SETS 996
BEGIN_DATA
1 0.000000 0.000000 0.000000 0.000000 0.000000 0.000000
2 0.000000 0.000000 50.196078 3.896523 1.558368 20.523143
3 0.000000 0.000000 100.000000 18.051199 7.219365 95.076389
4 50.196078 0.000000 0.000000 8.902304 4.590068 0.417140
5 50.196078 0.000000 50.196078 12.798827 6.148437 20.940283
6 50.196078 0.000000 100.000000 26.953504 11.809433 95.493529
7 100.000000 0.000000 0.000000 41.241196 21.264146 1.932463
8 100.000000 0.000000 50.196078 45.137720 22.822514 22.455605
9 100.000000 0.000000 100.000000 59.292396 28.483510 97.008851
10 0.000000 50.196078 0.000000 7.719480 15.436886 2.573197
11 0.000000 50.196078 50.196078 11.616003 16.995254 23.096339
12 0.000000 50.196078 100.000000 25.770680 22.656250 97.649585
13 50.196078 50.196078 0.000000 16.621785 20.026954 2.990337
14 50.196078 50.196078 50.196078 20.518308 21.585322 23.513480
15 50.196078 50.196078 100.000000 34.672984 27.246318 98.066726
16 100.000000 50.196078 0.000000 48.960677 36.701031 4.505659
17 100.000000 50.196078 50.196078 52.857200 38.259400 25.028802
18 100.000000 50.196078 100.000000 67.011876 43.920396 99.582048
19 0.000000 100.000000 0.000000 35.761595 71.513577 11.920700
20 0.000000 100.000000 50.196078 39.658118 73.071946 32.443843
21 0.000000 100.000000 100.000000 53.812794 78.732942 106.997089
22 50.196078 100.000000 0.000000 44.663899 76.103645 12.337841
23 50.196078 100.000000 50.196078 48.560422 77.662014 32.860983
24 50.196078 100.000000 100.000000 62.715099 83.323010 107.414230
25 100.000000 100.000000 12.549020 77.263504 92.881992 15.226345
26 100.000000 100.000000 50.196078 80.899314 94.336091 34.376306
27 100.000000 100.000000 100.000000 95.053991 99.997087 108.929552
28 0.000000 0.000000 0.000000 0.000000 0.000000 0.000000
29 0.000000 0.000000 12.549020 0.260712 0.104269 1.373182
30 0.000000 0.000000 25.098039 0.925442 0.370120 4.874340
31 0.000000 0.000000 37.647059 2.111395 0.844428 11.120804
32 0.000000 0.000000 50.196078 3.896523 1.558368 20.523143
33 0.000000 0.000000 62.745098 6.345590 2.537844 33.422475
34 0.000000 0.000000 75.294118 9.515168 3.805479 50.116772
35 0.000000 0.000000 87.843137 13.455461 5.381353 70.870451
36 0.000000 0.000000 100.000000 18.051199 7.219365 95.076389
37 0.000000 12.549020 0.000000 0.516502 1.032866 0.172170
38 0.000000 12.549020 12.549020 0.777215 1.137135 1.545352
39 0.000000 12.549020 25.098039 1.441944 1.402985 5.046510
40 0.000000 12.549020 37.647059 2.627898 1.877294 11.292974
41 0.000000 12.549020 50.196078 4.413025 2.591234 20.695312
42 0.000000 12.549020 62.745098 6.862092 3.570710 33.594645
43 0.000000 12.549020 75.294118 10.031671 4.838345 50.288942
44 0.000000 12.549020 87.843137 13.971963 6.414219 71.042621
45 0.000000 12.549020 100.000000 18.567702 8.252230 95.248559
46 0.000000 25.098039 0.000000 1.833412 3.666331 0.611146
47 0.000000 25.098039 12.549020 2.094124 3.770600 1.984328
48 0.000000 25.098039 25.098039 2.758854 4.036451 5.485486
49 0.000000 25.098039 37.647059 3.944807 4.510759 11.731950
50 0.000000 25.098039 50.196078 5.729935 5.224699 21.134289
51 0.000000 25.098039 62.745098 8.179002 6.204175 34.033621
52 0.000000 25.098039 75.294118 11.348580 7.471810 50.727918
53 0.000000 25.098039 87.843137 15.288873 9.047684 71.481597
54 0.000000 25.098039 100.000000 19.884611 10.885695 95.687535
55 0.000000 37.647059 0.000000 4.182928 8.364732 1.394329
56 0.000000 37.647059 12.549020 4.443640 8.469001 2.767511
57 0.000000 37.647059 25.098039 5.108370 8.734851 6.268669
58 0.000000 37.647059 37.647059 6.294324 9.209160 12.515133
59 0.000000 37.647059 50.196078 8.079451 9.923100 21.917472
60 0.000000 37.647059 62.745098 10.528518 10.902576 34.816804
61 0.000000 37.647059 75.294118 13.698096 12.170211 51.511101
62 0.000000 37.647059 87.843137 17.638389 13.746085 72.264780
63 0.000000 37.647059 100.000000 22.234127 15.584096 96.470718
64 0.000000 50.196078 0.000000 7.719480 15.436886 2.573197
65 0.000000 50.196078 12.549020 7.980193 15.541154 3.946379
66 0.000000 50.196078 25.098039 8.644922 15.807005 7.447537
67 0.000000 50.196078 37.647059 9.830876 16.281313 13.694001
68 0.000000 50.196078 50.196078 11.616003 16.995254 23.096339
69 0.000000 50.196078 62.745098 14.065070 17.974730 35.995671
70 0.000000 50.196078 75.294118 17.234649 19.242365 52.689969
71 0.000000 50.196078 87.843137 21.174941 20.818239 73.443648
72 0.000000 50.196078 100.000000 25.770680 22.656250 97.649585
73 0.000000 62.745098 0.000000 12.571376 25.139372 4.190518
74 0.000000 62.745098 12.549020 12.832088 25.243641 5.563700
75 0.000000 62.745098 25.098039 13.496818 25.509492 9.064858
76 0.000000 62.745098 37.647059 14.682771 25.983800 15.311322
77 0.000000 62.745098 50.196078 16.467899 26.697741 24.713660
78 0.000000 62.745098 62.745098 18.916965 27.677216 37.612993
79 0.000000 62.745098 75.294118 22.086544 28.944852 54.307290
80 0.000000 62.745098 87.843137 26.026837 30.520725 75.060969
81 0.000000 62.745098 100.000000 30.622575 32.358737 99.266907
82 0.000000 75.294118 0.000000 18.850692 37.696317 6.283653
83 0.000000 75.294118 12.549020 19.111404 37.800585 7.656835
84 0.000000 75.294118 25.098039 19.776134 38.066436 11.157993
85 0.000000 75.294118 37.647059 20.962087 38.540744 17.404457
86 0.000000 75.294118 50.196078 22.747215 39.254685 26.806796
87 0.000000 75.294118 62.745098 25.196282 40.234160 39.706128
88 0.000000 75.294118 75.294118 28.365860 41.501796 56.400425
89 0.000000 75.294118 87.843137 32.306153 43.077670 77.154104
90 0.000000 75.294118 100.000000 36.901891 44.915681 101.360042
91 0.000000 87.843137 0.000000 26.656885 53.306605 8.885754
92 0.000000 87.843137 12.549020 26.917597 53.410873 10.258936
93 0.000000 87.843137 25.098039 27.582327 53.676724 13.760094
94 0.000000 87.843137 37.647059 28.768281 54.151032 20.006558
95 0.000000 87.843137 50.196078 30.553408 54.864973 29.408897
96 0.000000 87.843137 62.745098 33.002475 55.844448 42.308229
97 0.000000 87.843137 75.294118 36.172053 57.112084 59.002526
98 0.000000 87.843137 87.843137 40.112346 58.687958 79.756205
99 0.000000 87.843137 100.000000 44.708084 60.525969 103.962143
100 0.000000 100.000000 0.000000 35.761595 71.513577 11.920700
101 0.000000 100.000000 12.549020 36.022307 71.617846 13.293882
102 0.000000 100.000000 25.098039 36.687037 71.883697 16.795041
103 0.000000 100.000000 37.647059 37.872990 72.358005 23.041505
104 0.000000 100.000000 50.196078 39.658118 73.071946 32.443843
105 0.000000 100.000000 62.745098 42.107185 74.051421 45.343175
106 0.000000 100.000000 75.294118 45.276763 75.319057 62.037473
107 0.000000 100.000000 87.843137 49.217056 76.894930 82.791151
108 0.000000 100.000000 100.000000 53.812794 78.732942 106.997089
109 12.549020 0.000000 0.000000 0.595644 0.307117 0.027910
110 12.549020 0.000000 12.549020 0.856356 0.411385 1.401092
111 12.549020 0.000000 25.098039 1.521086 0.677236 4.902251
112 12.549020 0.000000 37.647059 2.707039 1.151544 11.148715
113 12.549020 0.000000 50.196078 4.492167 1.865485 20.551053
114 12.549020 0.000000 62.745098 6.941234 2.844960 33.450385
115 12.549020 0.000000 75.294118 10.110812 4.112596 50.144683
116 12.549020 0.000000 87.843137 14.051105 5.688470 70.898361
117 12.549020 0.000000 100.000000 18.646843 7.526481 95.104299
118 12.549020 12.549020 0.000000 1.112146 1.339982 0.200080
119 12.549020 12.549020 12.549020 1.372858 1.444251 1.573262
120 12.549020 12.549020 25.098039 2.037588 1.710102 5.074421
121 12.549020 12.549020 37.647059 3.223542 2.184410 11.320885
122 12.549020 12.549020 50.196078 5.008669 2.898351 20.723223
123 12.549020 12.549020 62.745098 7.457736 3.877826 33.622555
124 12.549020 12.549020 75.294118 10.627315 5.145462 50.316852
125 12.549020 12.549020 87.843137 14.567607 6.721336 71.070531
126 12.549020 12.549020 100.000000 19.163346 8.559347 95.276469
127 12.549020 25.098039 0.000000 2.429056 3.973448 0.639056
128 12.549020 25.098039 12.549020 2.689768 4.077716 2.012238
129 12.549020 25.098039 25.098039 3.354498 4.343567 5.513397
130 12.549020 25.098039 37.647059 4.540451 4.817875 11.759861
131 12.549020 25.098039 50.196078 6.325579 5.531816 21.162199
132 12.549020 25.098039 62.745098 8.774645 6.511291 34.061531
133 12.549020 25.098039 75.294118 11.944224 7.778927 50.755828
134 12.549020 25.098039 87.843137 15.884517 9.354801 71.509507
135 12.549020 25.098039 100.000000 20.480255 11.192812 95.715445
136 12.549020 37.647059 0.000000 4.778572 8.671848 1.422240
137 12.549020 37.647059 12.549020 5.039284 8.776117 2.795421
138 12.549020 37.647059 25.098039 5.704014 9.041968 6.296580
139 12.549020 37.647059 37.647059 6.889967 9.516276 12.543044
140 12.549020 37.647059 50.196078 8.675095 10.230217 21.945382
141 12.549020 37.647059 62.745098 11.124162 11.209692 34.844714
142 12.549020 37.647059 75.294118 14.293740 12.477328 51.539012
143 12.549020 37.647059 87.843137 18.234033 14.053202 72.292691
144 12.549020 37.647059 100.000000 22.829771 15.891213 96.498628
145 12.549020 50.196078 0.000000 8.315124 15.744002 2.601107
146 12.549020 50.196078 12.549020 8.575836 15.848271 3.974289
147 12.549020 50.196078 25.098039 9.240566 16.114122 7.475447
148 12.549020 50.196078 37.647059 10.426520 16.588430 13.721911
149 12.549020 50.196078 50.196078 12.211647 17.302371 23.124250
150 12.549020 50.196078 62.745098 14.660714 18.281846 36.023582
151 12.549020 50.196078 75.294118 17.830293 19.549482 52.717879
152 12.549020 50.196078 87.843137 21.770585 21.125355 73.471558
153 12.549020 50.196078 100.000000 26.366324 22.963367 97.677496
154 12.549020 62.745098 0.000000 13.167020 25.446489 4.218428
155 12.549020 62.745098 12.549020 13.427732 25.550758 5.591610
156 12.549020 62.745098 25.098039 14.092462 25.816608 9.092769
157 12.549020 62.745098 37.647059 15.278415 26.290917 15.339233
158 12.549020 62.745098 50.196078 17.063543 27.004857 24.741571
159 12.549020 62.745098 62.745098 19.512609 27.984333 37.640903
160 12.549020 62.745098 75.294118 22.682188 29.251968 54.335200
161 12.549020 62.745098 87.843137 26.622481 30.827842 75.088879
162 12.549020 62.745098 100.000000 31.218219 32.665853 99.294817
163 12.549020 75.294118 0.000000 19.446336 38.003433 6.311563
164 12.549020 75.294118 12.549020 19.707048 38.107702 7.684745
165 12.549020 75.294118 25.098039 20.371778 38.373553 11.185904
166 12.549020 75.294118 37.647059 21.557731 38.847861 17.432368
167 12.549020 75.294118 50.196078 23.342859 39.561802 26.834706
168 12.549020 75.294118 62.745098 25.791925 40.541277 39.734038
169 12.549020 75.294118 75.294118 28.961504 41.808913 56.428335
170 12.549020 75.294118 87.843137 32.901797 43.384786 77.182014
171 12.549020 75.294118 100.000000 37.497535 45.222798 101.387952
172 12.549020 87.843137 0.000000 27.252529 53.613721 8.913665
173 12.549020 87.843137 12.549020 27.513241 53.717990 10.286847
174 12.549020 87.843137 25.098039 28.177971 53.983841 13.788005
175 12.549020 87.843137 37.647059 29.363924 54.458149 20.034469
176 12.549020 87.843137 50.196078 31.149052 55.172090 29.436807
177 12.549020 87.843137 62.745098 33.598119 56.151565 42.336139
178 12.549020 87.843137 75.294118 36.767697 57.419201 59.030437
179 12.549020 87.843137 87.843137 40.707990 58.995074 79.784116
180 12.549020 87.843137 100.000000 45.303728 60.833086 103.990053
181 12.549020 100.000000 0.000000 36.357239 71.820694 11.948611
182 12.549020 100.000000 12.549020 36.617951 71.924962 13.321793
183 12.549020 100.000000 25.098039 37.282681 72.190813 16.822951
184 12.549020 100.000000 37.647059 38.468634 72.665121 23.069415
185 12.549020 100.000000 50.196078 40.253762 73.379062 32.471753
186 12.549020 100.000000 62.745098 42.702829 74.358538 45.371086
187 12.549020 100.000000 75.294118 45.872407 75.626173 62.065383
188 12.549020 100.000000 87.843137 49.812700 77.202047 82.819062
189 12.549020 100.000000 100.000000 54.408438 79.040058 107.024999
190 25.098039 0.000000 0.000000 2.114338 1.090162 0.099073
191 25.098039 0.000000 12.549020 2.375050 1.194431 1.472255
192 25.098039 0.000000 25.098039 3.039780 1.460282 4.973413
193 25.098039 0.000000 37.647059 4.225733 1.934590 11.219877
194 25.098039 0.000000 50.196078 6.010861 2.648531 20.622215
195 25.098039 0.000000 62.745098 8.459928 3.628006 33.521547
196 25.098039 0.000000 75.294118 11.629506 4.895642 50.215845
197 25.098039 0.000000 87.843137 15.569799 6.471515 70.969524
198 25.098039 0.000000 100.000000 20.165537 8.309527 95.175461
199 25.098039 12.549020 0.000000 2.630840 2.123028 0.271243
200 25.098039 12.549020 12.549020 2.891553 2.227297 1.644425
201 25.098039 12.549020 25.098039 3.556282 2.493148 5.145583
202 25.098039 12.549020 37.647059 4.742236 2.967456 11.392047
203 25.098039 12.549020 50.196078 6.527363 3.681396 20.794385
204 25.098039 12.549020 62.745098 8.976430 4.660872 33.693717
205 25.098039 12.549020 75.294118 12.146009 5.928507 50.388015
206 25.098039 12.549020 87.843137 16.086301 7.504381 71.141694
207 25.098039 12.549020 100.000000 20.682040 9.342393 95.347631
208 25.098039 25.098039 0.000000 3.947750 4.756493 0.710219
209 25.098039 25.098039 12.549020 4.208462 4.860762 2.083401
210 25.098039 25.098039 25.098039 4.873192 5.126613 5.584559
211 25.098039 25.098039 37.647059 6.059145 5.600921 11.831023
212 25.098039 25.098039 50.196078 7.844273 6.314862 21.233361
213 25.098039 25.098039 62.745098 10.293340 7.294337 34.132693
214 25.098039 25.098039 75.294118 13.462918 8.561973 50.826991
215 25.098039 25.098039 87.843137 17.403211 10.137846 71.580670
216 25.098039 25.098039 100.000000 21.998949 11.975858 95.786607
217 25.098039 37.647059 0.000000 6.297266 9.454894 1.493402
218 25.098039 37.647059 12.549020 6.557978 9.559163 2.866584
219 25.098039 37.647059 25.098039 7.222708 9.825014 6.367742
220 25.098039 37.647059 37.647059 8.408662 10.299322 12.614206
221 25.098039 37.647059 50.196078 10.193789 11.013262 22.016544
222 25.098039 37.647059 62.745098 12.642856 11.992738 34.915877
223 25.098039 37.647059 75.294118 15.812434 13.260373 51.610174
224 25.098039 37.647059 87.843137 19.752727 14.836247 72.363853
225 25.098039 37.647059 100.000000 24.348465 16.674258 96.569791
226 25.098039 50.196078 0.000000 9.833818 16.527048 2.672269
227 25.098039 50.196078 12.549020 10.094531 16.631317 4.045451
228 25.098039 50.196078 25.098039 10.759260 16.897167 7.546610
229 25.098039 50.196078 37.647059 11.945214 17.371476 13.793074
230 25.098039 50.196078 50.196078 13.730341 18.085416 23.195412
231 25.098039 50.196078 62.745098 16.179408 19.064892 36.094744
232 25.098039 50.196078 75.294118 19.348987 20.332527 52.789041
233 25.098039 50.196078 87.843137 23.289279 21.908401 73.542720
234 25.098039 50.196078 100.000000 27.885018 23.746412 97.748658
235 25.098039 62.745098 0.000000 14.685714 26.229534 4.289591
236 25.098039 62.745098 12.549020 14.946426 26.333803 5.662773
237 25.098039 62.745098 25.098039 15.611156 26.599654 9.163931
238 25.098039 62.745098 37.647059 16.797109 27.073962 15.410395
239 25.098039 62.745098 50.196078 18.582237 27.787903 24.812733
240 25.098039 62.745098 62.745098 21.031303 28.767378 37.712065
241 25.098039 62.745098 75.294118 24.200882 30.035014 54.406363
242 25.098039 62.745098 87.843137 28.141175 31.610887 75.160042
243 25.098039 62.745098 100.000000 32.736913 33.448899 99.365979
244 25.098039 75.294118 0.000000 20.965030 38.786479 6.382726
245 25.098039 75.294118 12.549020 21.225742 38.890748 7.755908
246 25.098039 75.294118 25.098039 21.890472 39.156598 11.257066
247 25.098039 75.294118 37.647059 23.076425 39.630906 17.503530
248 25.098039 75.294118 50.196078 24.861553 40.344847 26.905868
249 25.098039 75.294118 62.745098 27.310620 41.324323 39.805200
250 25.098039 75.294118 75.294118 30.480198 42.591958 56.499498
251 25.098039 75.294118 87.843137 34.420491 44.167832 77.253177
252 25.098039 75.294118 100.000000 39.016229 46.005843 101.459114
253 25.098039 87.843137 0.000000 28.771223 54.396767 8.984827
254 25.098039 87.843137 12.549020 29.031935 54.501036 10.358009
255 25.098039 87.843137 25.098039 29.696665 54.766886 13.859167
256 25.098039 87.843137 37.647059 30.882619 55.241195 20.105631
257 25.098039 87.843137 50.196078 32.667746 55.955135 29.507970
258 25.098039 87.843137 62.745098 35.116813 56.934611 42.407302
259 25.098039 87.843137 75.294118 38.286391 58.202246 59.101599
260 25.098039 87.843137 87.843137 42.226684 59.778120 79.855278
261 25.098039 87.843137 100.000000 46.822422 61.616131 104.061216
262 25.098039 100.000000 0.000000 37.875933 72.603739 12.019773
263 25.098039 100.000000 12.549020 38.136645 72.708008 13.392955
264 25.098039 100.000000 25.098039 38.801375 72.973859 16.894113
265 25.098039 100.000000 37.647059 39.987328 73.448167 23.140577
266 25.098039 100.000000 50.196078 41.772456 74.162108 32.542916
267 25.098039 100.000000 62.745098 44.221523 75.141583 45.442248
268 25.098039 100.000000 75.294118 47.391101 76.409219 62.136545
269 25.098039 100.000000 87.843137 51.331394 77.985092 82.890224
270 25.098039 100.000000 100.000000 55.927132 79.823104 107.096162
271 37.647059 0.000000 0.000000 4.823861 2.487204 0.226034
272 37.647059 0.000000 12.549020 5.084573 2.591473 1.599216
273 37.647059 0.000000 25.098039 5.749303 2.857324 5.100375
274 37.647059 0.000000 37.647059 6.935256 3.331632 11.346839
275 37.647059 0.000000 50.196078 8.720384 4.045573 20.749177
276 37.647059 0.000000 62.745098 11.169451 5.025048 33.648509
277 37.647059 0.000000 75.294118 14.339029 6.292684 50.342807
278 37.647059 0.000000 87.843137 18.279322 7.868557 71.096485
279 37.647059 0.000000 100.000000 22.875060 9.706569 95.302423
280 37.647059 12.549020 0.000000 5.340363 3.520070 0.398204
281 37.647059 12.549020 12.549020 5.601075 3.624339 1.771386
282 37.647059 12.549020 25.098039 6.265805 3.890190 5.272545
283 37.647059 12.549020 37.647059 7.451759 4.364498 11.519009
284 37.647059 12.549020 50.196078 9.236886 5.078439 20.921347
285 37.647059 12.549020 62.745098 11.685953 6.057914 33.820679
286 37.647059 12.549020 75.294118 14.855532 7.325550 50.514976
287 37.647059 12.549020 87.843137 18.795824 8.901423 71.268655
288 37.647059 12.549020 100.000000 23.391563 10.739435 95.474593
289 37.647059 25.098039 0.000000 6.657273 6.153535 0.837180
290 37.647059 25.098039 12.549020 6.917985 6.257804 2.210362
291 37.647059 25.098039 25.098039 7.582715 6.523655 5.711521
292 37.647059 25.098039 37.647059 8.768668 6.997963 11.957985
293 37.647059 25.098039 50.196078 10.553796 7.711904 21.360323
294 37.647059 25.098039 62.745098 13.002862 8.691379 34.259655
295 37.647059 25.098039 75.294118 16.172441 9.959015 50.953953
296 37.647059 25.098039 87.843137 20.112734 11.534888 71.707631
297 37.647059 25.098039 100.000000 24.708472 13.372900 95.913569
298 37.647059 37.647059 0.000000 9.006789 10.851936 1.620364
299 37.647059 37.647059 12.549020 9.267501 10.956205 2.993546
300 37.647059 37.647059 25.098039 9.932231 11.222056 6.494704
301 37.647059 37.647059 37.647059 11.118184 11.696364 12.741168
302 37.647059 37.647059 50.196078 12.903312 12.410305 22.143506
303 37.647059 37.647059 62.745098 15.352379 13.389780 35.042838
304 37.647059 37.647059 75.294118 18.521957 14.657416 51.737136
305 37.647059 37.647059 87.843137 22.462250 16.233289 72.490815
306 37.647059 37.647059 100.000000 27.057988 18.071301 96.696752
307 37.647059 50.196078 0.000000 12.543341 17.924090 2.799231
308 37.647059 50.196078 12.549020 12.804053 18.028359 4.172413
309 37.647059 50.196078 25.098039 13.468783 18.294210 7.673571
310 37.647059 50.196078 37.647059 14.654737 18.768518 13.920035
311 37.647059 50.196078 50.196078 16.439864 19.482458 23.322374
312 37.647059 50.196078 62.745098 18.888931 20.461934 36.221706
313 37.647059 50.196078 75.294118 22.058510 21.729569 52.916003
314 37.647059 50.196078 87.843137 25.998802 23.305443 73.669682
315 37.647059 50.196078 100.000000 30.594541 25.143454 97.875620
316 37.647059 62.745098 0.000000 17.395237 27.626576 4.416552
317 37.647059 62.745098 12.549020 17.655949 27.730845 5.789734
318 37.647059 62.745098 25.098039 18.320679 27.996696 9.290893
319 37.647059 62.745098 37.647059 19.506632 28.471004 15.537357
320 37.647059 62.745098 50.196078 21.291760 29.184945 24.939695
321 37.647059 62.745098 62.745098 23.740826 30.164420 37.839027
322 37.647059 62.745098 75.294118 26.910405 31.432056 54.533324
323 37.647059 62.745098 87.843137 30.850698 33.007930 75.287003
324 37.647059 62.745098 100.000000 35.446436 34.845941 99.492941
325 37.647059 75.294118 0.000000 23.674553 40.183521 6.509687
326 37.647059 75.294118 12.549020 23.935265 40.287790 7.882869
327 37.647059 75.294118 25.098039 24.599995 40.553640 11.384028
328 37.647059 75.294118 37.647059 25.785948 41.027949 17.630492
329 37.647059 75.294118 50.196078 27.571076 41.741889 27.032830
330 37.647059 75.294118 62.745098 30.020142 42.721365 39.932162
331 37.647059 75.294118 75.294118 33.189721 43.989000 56.626459
332 37.647059 75.294118 87.843137 37.130014 45.564874 77.380138
333 37.647059 75.294118 100.000000 41.725752 47.402885 101.586076
334 37.647059 87.843137 0.000000 31.480746 55.793809 9.111789
335 37.647059 87.843137 12.549020 31.741458 55.898078 10.484971
336 37.647059 87.843137 25.098039 32.406188 56.163929 13.986129
337 37.647059 87.843137 37.647059 33.592141 56.638237 20.232593
338 37.647059 87.843137 50.196078 35.377269 57.352177 29.634931
339 37.647059 87.843137 62.745098 37.826336 58.331653 42.534263
340 37.647059 87.843137 75.294118 40.995914 59.599288 59.228561
341 37.647059 87.843137 87.843137 44.936207 61.175162 79.982240
342 37.647059 87.843137 100.000000 49.531945 63.013173 104.188177
343 37.647059 100.000000 0.000000 40.585456 74.000781 12.146735
344 37.647059 100.000000 12.549020 40.846168 74.105050 13.519917
345 37.647059 100.000000 25.098039 41.510898 74.370901 17.021075
346 37.647059 100.000000 37.647059 42.696851 74.845209 23.267539
347 37.647059 100.000000 50.196078 44.481979 75.559150 32.669877
348 37.647059 100.000000 62.745098 46.931046 76.538625 45.569210
349 37.647059 100.000000 75.294118 50.100624 77.806261 62.263507
350 37.647059 100.000000 87.843137 54.040917 79.382134 83.017186
351 37.647059 100.000000 100.000000 58.636655 81.220146 107.223124
352 50.196078 0.000000 0.000000 8.902304 4.590068 0.417140
353 50.196078 0.000000 12.549020 9.163017 4.694337 1.790322
354 50.196078 0.000000 25.098039 9.827746 4.960188 5.291481
355 50.196078 0.000000 37.647059 11.013700 5.434496 11.537945
356 50.196078 0.000000 50.196078 12.798827 6.148437 20.940283
357 50.196078 0.000000 62.745098 15.247894 7.127912 33.839615
358 50.196078 0.000000 75.294118 18.417473 8.395548 50.533913
359 50.196078 0.000000 87.843137 22.357765 9.971421 71.287591
360 50.196078 0.000000 100.000000 26.953504 11.809433 95.493529
361 50.196078 12.549020 0.000000 9.418807 5.622934 0.589310
362 50.196078 12.549020 12.549020 9.679519 5.727203 1.962492
363 50.196078 12.549020 25.098039 10.344249 5.993054 5.463651
364 50.196078 12.549020 37.647059 11.530202 6.467362 11.710115
365 50.196078 12.549020 50.196078 13.315330 7.181302 21.112453
366 50.196078 12.549020 62.745098 15.764396 8.160778 34.011785
367 50.196078 12.549020 75.294118 18.933975 9.428413 50.706082
368 50.196078 12.549020 87.843137 22.874268 11.004287 71.459761
369 50.196078 12.549020 100.000000 27.470006 12.842298 95.665699
370 50.196078 25.098039 0.000000 10.735716 8.256399 1.028286
371 50.196078 25.098039 12.549020 10.996429 8.360668 2.401468
372 50.196078 25.098039 25.098039 11.661158 8.626519 5.902627
373 50.196078 25.098039 37.647059 12.847112 9.100827 12.149091
374 50.196078 25.098039 50.196078 14.632239 9.814768 21.551429
375 50.196078 25.098039 62.745098 17.081306 10.794243 34.450761
