Example Targets Read/SpyderPrint Targets/EZ 729 Colors Plus Grays (9-pages, 996-patches)/EZ 729 Colors Plus Grays 7 of 9 (108-patches).ti1
CTI1

DESCRIPTOR "Argyll Calibration Target chart information 1"
ORIGINATOR "read_image_patch_colors.py"
CREATED "Sun Nov 30 22:58:22 2025"
ACCURATE_EXPECTED_VALUES "true"
APPROX_WHITE_POINT "95.053991 99.997087 108.929552"
COLOR_REP "iRGB"
WHITE_COLOR_PATCHES "1"
BLACK_COLOR_PATCHES "1"
NEUTRAL_STEPS "1"
SINGLE_DIM_STEPS "9"

NUMBER_OF_FIELDS 7
BEGIN_DATA_FORMAT
SAMPLE_ID RGB_R RGB_G RGB_B XYZ_X XYZ_Y XYZ_Z
END_DATA_FORMAT

NUMBER_OF_SETS 108
BEGIN_DATA
1 87.843137 75.294118 0.000000 49.592101 53.546725 7.724121
2 87.843137 75.294118 12.549020 49.852814 53.650994 9.097303
3 87.843137 75.294118 25.098039 50.517543 53.916845 12.598461
4 87.843137 75.294118 37.647059 51.703497 54.391153 18.844925
5 87.843137 75.294118 50.196078 53.488624 55.105094 28.247264
6 87.843137 75.294118 62.745098 55.937691 56.084569 41.146596
7 87.843137 75.294118 75.294118 59.107270 57.352205 57.840893
8 87.843137 75.294118 87.843137 63.047562 58.928078 78.594572
9 87.843137 75.294118 100.000000 67.643301 60.766090 102.800510
10 87.843137 87.843137 0.000000 57.398295 69.157013 10.326222
11 87.843137 87.843137 12.549020 57.659007 69.261282 11.699404
12 87.843137 87.843137 25.098039 58.323737 69.527133 15.200562
13 87.843137 87.843137 37.647059 59.509690 70.001441 21.447026
14 87.843137 87.843137 50.196078 61.294818 70.715382 30.849365
15 87.843137 87.843137 62.745098 63.743884 71.694857 43.748697
16 87.843137 87.843137 75.294118 66.913463 72.962493 60.442994
17 87.843137 87.843137 87.843137 70.853756 74.538366 81.196673
18 87.843137 87.843137 100.000000 75.449494 76.376378 105.402611
19 87.843137 100.000000 0.000000 66.503004 87.363986 13.361169
20 87.843137 100.000000 12.549020 66.763717 87.468254 14.734350
21 87.843137 100.000000 25.098039 67.428446 87.734105 18.235509
22 87.843137 100.000000 37.647059 68.614400 88.208413 24.481973
23 87.843137 100.000000 50.196078 70.399527 88.922354 33.884311
24 87.843137 100.000000 62.745098 72.848594 89.901829 46.783643
25 87.843137 100.000000 75.294118 76.018173 91.169465 63.477941
26 87.843137 100.000000 87.843137 79.958465 92.745339 84.231620
27 87.843137 100.000000 100.000000 84.554204 94.583350 108.437557
28 100.000000 0.000000 0.000000 41.241196 21.264146 1.932463
29 100.000000 0.000000 12.549020 41.501909 21.368415 3.305645
30 100.000000 0.000000 25.098039 42.166639 21.634265 6.806803
31 100.000000 0.000000 37.647059 43.352592 22.108573 13.053267
32 100.000000 0.000000 50.196078 45.137720 22.822514 22.455605
33 100.000000 0.000000 62.745098 47.586786 23.801990 35.354937
34 100.000000 0.000000 75.294118 50.756365 25.069625 52.049235
35 100.000000 0.000000 87.843137 54.696657 26.645499 72.802914
36 100.000000 0.000000 100.000000 59.292396 28.483510 97.008851
37 100.000000 12.549020 0.000000 41.757699 22.297012 2.104633
38 100.000000 12.549020 12.549020 42.018411 22.401280 3.477815
39 100.000000 12.549020 25.098039 42.683141 22.667131 6.978973
40 100.000000 12.549020 37.647059 43.869094 23.141439 13.225437
41 100.000000 12.549020 50.196078 45.654222 23.855380 22.627775
42 100.000000 12.549020 62.745098 48.103289 24.834855 35.527107
43 100.000000 12.549020 75.294118 51.272867 26.102491 52.221405
44 100.000000 12.549020 87.843137 55.213160 27.678365 72.975084
45 100.000000 12.549020 100.000000 59.808898 29.516376 97.181021
46 100.000000 25.098039 0.000000 43.074608 24.930477 2.543609
47 100.000000 25.098039 12.549020 43.335321 25.034745 3.916791
48 100.000000 25.098039 25.098039 44.000050 25.300596 7.417949
49 100.000000 25.098039 37.647059 45.186004 25.774904 13.664413
50 100.000000 25.098039 50.196078 46.971131 26.488845 23.066751
51 100.000000 25.098039 62.745098 49.420198 27.468321 35.966083
52 100.000000 25.098039 75.294118 52.589777 28.735956 52.660381
53 100.000000 25.098039 87.843137 56.530069 30.311830 73.414060
54 100.000000 25.098039 100.000000 61.125808 32.149841 97.619997
55 100.000000 37.647059 0.000000 45.424125 29.628878 3.326792
56 100.000000 37.647059 12.549020 45.684837 29.733146 4.699974
57 100.000000 37.647059 25.098039 46.349567 29.998997 8.201132
58 100.000000 37.647059 37.647059 47.535520 30.473305 14.447596
59 100.000000 37.647059 50.196078 49.320648 31.187246 23.849934
60 100.000000 37.647059 62.745098 51.769714 32.166721 36.749266
61 100.000000 37.647059 75.294118 54.939293 33.434357 53.443564
62 100.000000 37.647059 87.843137 58.879586 35.010231 74.197243
63 100.000000 37.647059 100.000000 63.475324 36.848242 98.403180
64 100.000000 50.196078 0.000000 48.960677 36.701031 4.505659
65 100.000000 50.196078 12.549020 49.221389 36.805300 5.878841
66 100.000000 50.196078 25.098039 49.886119 37.071151 9.379999
67 100.000000 50.196078 37.647059 51.072072 37.545459 15.626463
68 100.000000 50.196078 50.196078 52.857200 38.259400 25.028802
69 100.000000 50.196078 62.745098 55.306267 39.238875 37.928134
70 100.000000 50.196078 75.294118 58.475845 40.506511 54.622431
71 100.000000 50.196078 87.843137 62.416138 42.082385 75.376110
72 100.000000 50.196078 100.000000 67.011876 43.920396 99.582048
73 100.000000 62.745098 0.000000 53.812572 46.403518 6.122981
74 100.000000 62.745098 12.549020 54.073284 46.507787 7.496163
75 100.000000 62.745098 25.098039 54.738014 46.773638 10.997321
76 100.000000 62.745098 37.647059 55.923968 47.247946 17.243785
77 100.000000 62.745098 50.196078 57.709095 47.961886 26.646123
78 100.000000 62.745098 62.745098 60.158162 48.941362 39.545455
79 100.000000 62.745098 75.294118 63.327741 50.208997 56.239753
80 100.000000 62.745098 87.843137 67.268033 51.784871 76.993432
81 100.000000 62.745098 100.000000 71.863772 53.622882 101.199369
82 100.000000 75.294118 0.000000 60.091888 58.960462 8.216116
83 100.000000 75.294118 12.549020 60.352601 59.064731 9.589298
84 100.000000 75.294118 25.098039 61.017330 59.330582 13.090456
85 100.000000 75.294118 37.647059 62.203284 59.804890 19.336920
86 100.000000 75.294118 50.196078 63.988411 60.518831 28.739258
87 100.000000 75.294118 62.745098 66.437478 61.498306 41.638590
88 100.000000 75.294118 75.294118 69.607057 62.765942 58.332888
89 100.000000 75.294118 87.843137 73.547349 64.341815 79.086567
90 100.000000 75.294118 100.000000 78.143088 66.179827 103.292504
91 100.000000 87.843137 0.000000 67.898082 74.570750 10.818217
92 100.000000 87.843137 12.549020 68.158794 74.675019 12.191399
93 100.000000 87.843137 25.098039 68.823524 74.940870 15.692557
94 100.000000 87.843137 37.647059 70.009477 75.415178 21.939021
95 100.000000 87.843137 50.196078 71.794605 76.129119 31.341359
96 100.000000 87.843137 62.745098 74.243671 77.108594 44.240692
97 100.000000 87.843137 75.294118 77.413250 78.376230 60.934989
98 100.000000 87.843137 87.843137 81.353543 79.952103 81.688668
99 100.000000 87.843137 100.000000 85.949281 81.790115 105.894606
100 100.000000 100.000000 0.000000 77.002791 92.777723 13.853163
101 100.000000 100.000000 12.549020 77.263504 92.881992 15.226345
102 100.000000 100.000000 25.098039 77.928233 93.147842 18.727503
103 100.000000 100.000000 37.647059 79.114187 93.622151 24.973967
104 100.000000 100.000000 50.196078 80.899314 94.336091 34.376306
105 100.000000 100.000000 62.745098 83.348381 95.315567 47.275638
106 100.000000 100.000000 75.294118 86.517960 96.583202 63.969935
107 100.000000 100.000000 87.843137 90.458252 98.159076 84.723614
108 100.000000 100.000000 100.000000 95.053991 99.997087 108.929552
END_DATA

CTI1

DESCRIPTOR "Argyll Calibration Target chart information 1"
ORIGINATOR "Argyll targen"
DENSITY_EXTREME_VALUES "8"
CREATED "Sun Nov 30 22:58:22 2025"

NUMBER_OF_FIELDS "7"
BEGIN_DATA_FORMAT
INDEX RGB_R RGB_G RGB_B XYZ_X XYZ_Y XYZ_Z
END_DATA_FORMAT

NUMBER_OF_SETS "8"
BEGIN_DATA
0 0.000000 49.995270 43.750000 10.553522 16.464078 17.827876
1 0.000000 50.001230 50.000000 11.518815 16.853276 22.902426
2 0.000000 40.085320 59.909980 10.503940 11.836369 31.777250
3 0.000000 0.000000 78.363740 10.405823 4.161686 54.807888
4 30.559800 50.011200 0.000000 10.794151 16.931419 2.699745
5 0.000000 32.571370 0.000000 3.097963 6.195092 1.032669
6 100.000000 0.000000 0.000000 41.241196 21.264146 1.932463
7 0.000000 0.000000 21.872990 0.708368 0.283303 3.731003
END_DATA

CTI1

DESCRIPTOR "Argyll Calibration Target chart information 1"
ORIGINATOR "Argyll targen"
DEVICE_COMBINATION_VALUES "9"
CREATED "Sun Nov 30 22:58:22 2025"

NUMBER_OF_FIELDS "7"
BEGIN_DATA_FORMAT
INDEX RGB_R RGB_G RGB_B XYZ_X XYZ_Y XYZ_Z
END_DATA_FORMAT

NUMBER_OF_SETS "9"
BEGIN_DATA
0 100.000000 100.000000 100.000000 95.053991 99.997087 108.929552
1 0.000000 100.000000 100.000000 53.812794 78.732942 106.997089
2 100.000000 0.000000 100.000000 59.292396 28.483510 97.008851
3 0.000000 0.000000 100.000000 18.051199 7.219365 95.076389
4 100.000000 100.000000 0.000000 77.002791 92.777723 13.853163
5 0.000000 100.000000 0.000000 35.761595 71.513577 11.920700
6 100.000000 0.000000 0.000000 41.241196 21.264146 1.932463
7 0.000000 0.000000 0.000000 0.000000 0.000000 0.000000
8 50.000000 50.000000 50.000000 20.345920 21.403970 23.315927
END_DATA
