Example Targets Read/SpyderPrint Targets/EZ 729 Colors Plus Grays (9-pages, 996-patches)/EZ 729 Colors Plus Grays 8 of 9 (120-patches).ti1
CTI1

DESCRIPTOR "Argyll Calibration Target chart information 1"
ORIGINATOR "read_image_patch_colors.py"
CREATED "Mon Dec  1 04:06:22 2025"
ACCURATE_EXPECTED_VALUES "true"
APPROX_WHITE_POINT "92.732049 99.068454 96.699794"
COLOR_REP "iRGB"
WHITE_COLOR_PATCHES "1"
BLACK_COLOR_PATCHES "2"
COMP_GREY_STEPS "22"
SINGLE_DIM_STEPS "3"

NUMBER_OF_FIELDS 7
BEGIN_DATA_FORMAT
SAMPLE_ID RGB_R RGB_G RGB_B XYZ_X XYZ_Y XYZ_Z
END_DATA_FORMAT

NUMBER_OF_SETS 120
BEGIN_DATA
1 3.137255 0.000000 0.000000 0.100355 0.051743 0.004702
2 9.411765 6.274510 6.274510 0.655286 0.601861 0.571644
3 15.686275 12.549020 12.549020 1.652275 1.588320 1.586355
4 21.960784 18.823529 18.823529 3.221136 3.167625 3.238458
5 28.235294 25.098039 25.098039 5.431218 5.414334 5.610707
6 34.509804 31.372549 31.372549 8.341322 8.390862 8.771630
7 40.784314 37.647059 37.647059 12.003514 12.152844 12.782652
8 47.058824 43.921569 43.921569 16.465325 16.751182 17.700092
9 0.000000 0.000000 0.000000 0.000000 0.000000 0.000000
10 34.509804 34.509804 34.509804 9.276001 9.758381 10.630070
11 100.000000 94.117647 94.117647 88.132005 89.869601 95.166424
12 94.117647 87.843137 87.843137 76.048652 77.216878 81.440094
13 87.843137 81.568627 81.568627 64.684176 65.511719 68.929571
14 81.568627 75.294118 75.294118 54.379011 54.914293 57.619338
15 75.294118 69.019608 69.019608 45.102203 45.391087 47.471971
16 69.019608 62.745098 62.745098 36.822040 36.909153 38.451981
17 62.745098 56.470588 56.470588 29.505923 29.433515 30.520611
18 56.470588 50.196078 50.196078 23.118096 22.925784 23.635299
19 0.000000 0.000000 0.000000 0.000000 0.000000 0.000000
20 37.647059 37.647059 37.647059 11.118184 11.696364 12.741168
21 0.000000 3.137255 0.000000 0.087021 0.174019 0.029007
22 6.274510 9.411765 6.274510 0.633612 0.800622 0.611152
23 12.549020 15.686275 12.549020 1.615150 1.928769 1.654027
24 18.823529 21.960784 18.823529 3.166389 3.669671 3.338252
25 25.098039 28.235294 25.098039 5.357075 6.094249 5.745856
26 31.372549 34.509804 31.372549 8.246147 9.263649 8.945116
27 37.647059 40.784314 37.647059 11.885883 13.231554 12.997071
28 43.921569 47.058824 43.921569 16.324038 18.046821 17.957630
29 3.137255 3.137255 3.137255 0.231301 0.243329 0.265065
30 40.784314 40.784314 40.784314 13.158719 13.843012 15.079570
31 94.117647 100.000000 94.117647 87.427159 96.333229 96.451220
32 87.843137 94.117647 87.843137 75.358421 83.546486 82.698250
33 81.568627 87.843137 81.568627 64.055946 71.272762 70.074712
34 75.294118 81.568627 75.294118 53.811130 60.121909 58.654473
35 69.019608 75.294118 69.019608 44.592787 50.062577 48.400538
36 62.745098 69.019608 62.745098 36.369303 41.060872 39.277231
37 56.470588 62.745098 56.470588 29.107913 33.083370 31.246104
38 50.196078 56.470588 50.196078 22.772669 26.093439 24.264944
39 6.274510 6.274510 6.274510 0.492157 0.517750 0.564000
40 43.921569 43.921569 43.921569 15.401955 16.202904 17.650265
41 0.000000 0.000000 3.137255 0.043925 0.017567 0.231356
42 6.274510 6.274510 9.411765 0.563558 0.546307 0.940074
43 12.549020 12.549020 15.686275 1.495159 1.493164 2.217422
44 18.823529 18.823529 21.960784 2.989443 3.027303 4.169066
45 25.098039 25.098039 28.235294 5.117439 5.224297 6.871019
46 31.372549 31.372549 34.509804 7.938533 8.146918 10.389454
47 37.647059 37.647059 40.784314 11.505692 11.851343 14.782183
48 43.921569 43.921569 47.058824 15.867390 16.389049 20.101729
49 9.411765 9.411765 9.411765 0.868143 0.913289 0.994870
50 47.058824 47.058824 47.058824 17.852842 18.781244 20.458921
51 94.117647 94.117647 100.000000 85.149055 88.063009 107.147607
52 87.843137 87.843137 94.117647 73.127553 75.447745 93.172853
53 81.568627 81.568627 87.843137 62.025468 63.901500 79.608423
54 75.294118 75.294118 81.568627 51.975708 53.458757 67.272340
55 69.019608 69.019608 75.294118 42.946321 44.085399 56.131193
56 62.745098 62.745098 69.019608 34.906031 35.748742 46.147739
57 56.470588 56.470588 62.745098 27.821523 28.413376 37.286096
58 50.196078 50.196078 56.470588 21.656230 22.040421 29.506963
59 12.549020 12.549020 12.549020 1.372858 1.444251 1.573262
60 50.196078 50.196078 50.196078 20.518308 21.585322 23.513480
61 0.000000 3.137255 3.137255 0.130946 0.191586 0.260363
62 6.274510 9.411765 9.411765 0.705013 0.829178 0.987226
63 12.549020 15.686275 15.686275 1.737450 1.977682 2.298187
64 18.823529 21.960784 21.960784 3.346740 3.741800 4.288166
65 25.098039 28.235294 28.235294 5.601322 6.191933 7.032315
66 31.372549 34.509804 34.509804 8.559679 9.389042 10.596505
67 37.647059 40.784314 40.784314 12.273390 13.386533 15.038086
68 43.921569 47.058824 47.058824 16.789473 18.232966 20.409094
69 15.686275 15.686275 15.686275 2.016867 2.121750 2.311280
70 53.333333 53.333333 53.333333 23.402703 24.619715 26.818926
71 94.117647 100.000000 100.000000 89.749100 97.261862 108.680977
72 87.843137 94.117647 94.117647 77.632218 84.455864 94.674429
73 81.568627 87.843137 87.843137 66.125496 72.100455 80.975118
74 75.294118 81.568627 81.568627 55.681872 60.870090 68.507745
75 69.019608 75.294118 75.294118 46.270935 50.733733 57.239414
76 62.745098 69.019608 69.019608 37.860734 41.657352 47.132654
77 56.470588 62.745098 62.745098 30.419058 33.607746 38.151953
78 50.196078 56.470588 56.470588 23.910592 26.548537 30.258427
79 18.823529 18.823529 18.823529 2.809092 2.955174 3.219151
80 56.470588 56.470588 56.470588 26.510379 27.889000 30.380247
81 3.137255 0.000000 3.137255 0.144280 0.069311 0.236058
82 9.411765 6.274510 9.411765 0.726688 0.630417 0.947718
83 15.686275 12.549020 15.686275 1.774575 1.637232 2.230515
84 21.960784 18.823529 21.960784 3.401487 3.239754 4.188373
85 28.235294 25.098039 28.235294 5.675466 5.512018 6.897167
86 34.509804 31.372549 34.509804 8.654855 8.516256 10.423019
87 40.784314 37.647059 40.784314 12.391021 12.307822 14.823667
88 47.058824 43.921569 47.058824 16.930760 16.937327 20.151556
89 21.960784 21.960784 21.960784 3.758783 3.954251 4.307474
90 59.607843 59.607843 59.607843 29.845995 31.398077 34.202781
91 100.000000 94.117647 100.000000 90.453946 90.798234 107.396182
92 94.117647 87.843137 94.117647 78.322449 78.126256 93.416273
93 87.843137 81.568627 87.843137 66.753727 66.339411 79.829978
94 81.568627 75.294118 81.568627 56.249753 55.662474 67.472611
95 75.294118 69.019608 75.294118 46.780352 46.062242 56.310847
96 69.019608 62.745098 69.019608 38.313470 37.505633 46.307403
97 62.745098 56.470588 62.745098 30.817067 29.957892 37.426460
98 56.470588 50.196078 56.470588 24.256018 23.380883 29.628783
99 25.098039 25.098039 25.098039 4.873192 5.126613 5.584559
100 62.745098 62.745098 62.745098 33.414601 35.152262 38.292317
101 3.137255 3.137255 0.000000 0.187376 0.225762 0.033710
102 9.411765 9.411765 6.274510 0.796741 0.884733 0.618796
103 15.686275 15.686275 12.549020 1.894567 2.072838 1.667120
104 21.960784 21.960784 18.823529 3.578432 3.882122 3.357559
105 28.235294 28.235294 25.098039 5.915102 6.381970 5.772003
106 34.509804 34.509804 31.372549 8.962468 9.632987 8.978681
107 40.784314 40.784314 37.647059 12.771212 13.688033 13.038555
108 47.058824 47.058824 43.921569 17.387407 18.595099 18.007457
109 28.235294 28.235294 28.235294 6.159349 6.479654 7.058463
110 65.882353 65.882353 65.882353 37.220958 39.156561 42.654309
111 100.000000 100.000000 94.117647 92.732049 99.068454 96.699794
112 94.117647 94.117647 87.843137 80.553317 86.224997 82.941670
113 87.843137 87.843137 81.568627 68.784205 73.710674 70.296267
114 81.568627 81.568627 75.294118 58.085175 62.325626 58.854744
115 75.294118 75.294118 69.019608 48.426817 52.039421 48.580192
116 69.019608 69.019608 62.745098 39.776743 42.817763 39.436896
117 62.745098 62.745098 56.470588 32.103457 34.627885 31.386468
118 56.470588 56.470588 50.196078 25.372457 27.433901 24.386764
119 31.372549 31.372549 31.372549 7.625001 8.021524 8.738065
120 69.019608 69.019608 69.019608 41.268173 43.414243 47.292318
END_DATA

CTI1

DESCRIPTOR "Argyll Calibration Target chart information 1"
ORIGINATOR "Argyll targen"
DENSITY_EXTREME_VALUES "8"
CREATED "Mon Dec  1 04:06:22 2025"

NUMBER_OF_FIELDS "7"
BEGIN_DATA_FORMAT
INDEX RGB_R RGB_G RGB_B XYZ_X XYZ_Y XYZ_Z
END_DATA_FORMAT

NUMBER_OF_SETS "8"
BEGIN_DATA
0 0.000000 49.995270 43.750000 10.553522 16.464078 17.827876
1 0.000000 50.001230 50.000000 11.518815 16.853276 22.902426
2 0.000000 40.085320 59.909980 10.503940 11.836369 31.777250
3 0.000000 0.000000 78.363740 10.405823 4.161686 54.807888
4 30.559800 50.011200 0.000000 10.794151 16.931419 2.699745
5 0.000000 32.571370 0.000000 3.097963 6.195092 1.032669
6 100.000000 0.000000 0.000000 41.241196 21.264146 1.932463
7 0.000000 0.000000 21.872990 0.708368 0.283303 3.731003
END_DATA

CTI1

DESCRIPTOR "Argyll Calibration Target chart information 1"
ORIGINATOR "Argyll targen"
DEVICE_COMBINATION_VALUES "9"
CREATED "Mon Dec  1 04:06:22 2025"

NUMBER_OF_FIELDS "7"
BEGIN_DATA_FORMAT
INDEX RGB_R RGB_G RGB_B XYZ_X XYZ_Y XYZ_Z
END_DATA_FORMAT

NUMBER_OF_SETS "9"
BEGIN_DATA
0 100.000000 100.000000 100.000000 95.053991 99.997087 108.929552
1 0.000000 100.000000 100.000000 53.812794 78.732942 106.997089
2 100.000000 0.000000 100.000000 59.292396 28.483510 97.008851
3 0.000000 0.000000 100.000000 18.051199 7.219365 95.076389
4 100.000000 100.000000 0.000000 77.002791 92.777723 13.853163
5 0.000000 100.000000 0.000000 35.761595 71.513577 11.920700
6 100.000000 0.000000 0.000000 41.241196 21.264146 1.932463
7 0.000000 0.000000 0.000000 0.000000 0.000000 0.000000
8 50.000000 50.000000 50.000000 20.345920 21.403970 23.315927
END_DATA
