Example Targets Read/SpyderPrint Targets/EZ 729 Colors Plus Grays (9-pages, 996-patches)/EZ 729 Colors Plus Grays 1 of 9 (108-patches).ti2
CTI2

DESCRIPTOR "Argyll Calibration Target chart information 2"
ORIGINATOR "read_image_patch_colors.py (colormath backend)"
CREATED "Sun Nov 30 22:58:17 2025"
ACCURATE_EXPECTED_VALUES "true"
APPROX_WHITE_POINT "95.053991 99.997087 108.929552"
COLOR_REP "iRGB"
STEPS_IN_PASS "12"
PASSES_IN_STRIPS2 "9"
STRIP_INDEX_PATTERN "0-9,@-9;1-99"
PATCH_INDEX_PATTERN "A-Z, A-Z"
INDEX_ORDER "STRIP_THEN_PATCH"

NUMBER_OF_FIELDS 8
BEGIN_DATA_FORMAT
SAMPLE_ID SAMPLE_LOC RGB_R RGB_G RGB_B XYZ_X XYZ_Y XYZ_Z
END_DATA_FORMAT

NUMBER_OF_SETS 108
BEGIN_DATA
1 "A1" 0.000000 0.000000 0.000000 0.000000 0.000000 0.000000
2 "B1" 0.000000 0.000000 50.196078 3.896523 1.558368 20.523143
3 "C1" 0.000000 0.000000 100.000000 18.051199 7.219365 95.076389
4 "D1" 50.196078 0.000000 0.000000 8.902304 4.590068 0.417140
5 "E1" 50.196078 0.000000 50.196078 12.798827 6.148437 20.940283
6 "F1" 50.196078 0.000000 100.000000 26.953504 11.809433 95.493529
7 "G1" 100.000000 0.000000 0.000000 41.241196 21.264146 1.932463
8 "H1" 100.000000 0.000000 50.196078 45.137720 22.822514 22.455605
9 "I1" 100.000000 0.000000 100.000000 59.292396 28.483510 97.008851
10 "A2" 0.000000 50.196078 0.000000 7.719480 15.436886 2.573197
11 "B2" 0.000000 50.196078 50.196078 11.616003 16.995254 23.096339
12 "C2" 0.000000 50.196078 100.000000 25.770680 22.656250 97.649585
13 "D2" 50.196078 50.196078 0.000000 16.621785 20.026954 2.990337
14 "E2" 50.196078 50.196078 50.196078 20.518308 21.585322 23.513480
15 "F2" 50.196078 50.196078 100.000000 34.672984 27.246318 98.066726
16 "G2" 100.000000 50.196078 0.000000 48.960677 36.701031 4.505659
17 "H2" 100.000000 50.196078 50.196078 52.857200 38.259400 25.028802
18 "I2" 100.000000 50.196078 100.000000 67.011876 43.920396 99.582048
19 "A3" 0.000000 100.000000 0.000000 35.761595 71.513577 11.920700
20 "B3" 0.000000 100.000000 50.196078 39.658118 73.071946 32.443843
21 "C3" 0.000000 100.000000 100.000000 53.812794 78.732942 106.997089
22 "D3" 50.196078 100.000000 0.000000 44.663899 76.103645 12.337841
23 "E3" 50.196078 100.000000 50.196078 48.560422 77.662014 32.860983
24 "F3" 50.196078 100.000000 100.000000 62.715099 83.323010 107.414230
25 "G3" 100.000000 100.000000 12.549020 77.263504 92.881992 15.226345
26 "H3" 100.000000 100.000000 50.196078 80.899314 94.336091 34.376306
27 "I3" 100.000000 100.000000 100.000000 95.053991 99.997087 108.929552
28 "A4" 0.000000 0.000000 0.000000 0.000000 0.000000 0.000000
29 "B4" 0.000000 0.000000 12.549020 0.260712 0.104269 1.373182
30 "C4" 0.000000 0.000000 25.098039 0.925442 0.370120 4.874340
31 "D4" 0.000000 0.000000 37.647059 2.111395 0.844428 11.120804
32 "E4" 0.000000 0.000000 50.196078 3.896523 1.558368 20.523143
33 "F4" 0.000000 0.000000 62.745098 6.345590 2.537844 33.422475
34 "G4" 0.000000 0.000000 75.294118 9.515168 3.805479 50.116772
35 "H4" 0.000000 0.000000 87.843137 13.455461 5.381353 70.870451
36 "I4" 0.000000 0.000000 100.000000 18.051199 7.219365 95.076389
37 "A5" 0.000000 12.549020 0.000000 0.516502 1.032866 0.172170
38 "B5" 0.000000 12.549020 12.549020 0.777215 1.137135 1.545352
39 "C5" 0.000000 12.549020 25.098039 1.441944 1.402985 5.046510
40 "D5" 0.000000 12.549020 37.647059 2.627898 1.877294 11.292974
41 "E5" 0.000000 12.549020 50.196078 4.413025 2.591234 20.695312
42 "F5" 0.000000 12.549020 62.745098 6.862092 3.570710 33.594645
43 "G5" 0.000000 12.549020 75.294118 10.031671 4.838345 50.288942
44 "H5" 0.000000 12.549020 87.843137 13.971963 6.414219 71.042621
45 "I5" 0.000000 12.549020 100.000000 18.567702 8.252230 95.248559
46 "A6" 0.000000 25.098039 0.000000 1.833412 3.666331 0.611146
47 "B6" 0.000000 25.098039 12.549020 2.094124 3.770600 1.984328
48 "C6" 0.000000 25.098039 25.098039 2.758854 4.036451 5.485486
49 "D6" 0.000000 25.098039 37.647059 3.944807 4.510759 11.731950
50 "E6" 0.000000 25.098039 50.196078 5.729935 5.224699 21.134289
51 "F6" 0.000000 25.098039 62.745098 8.179002 6.204175 34.033621
52 "G6" 0.000000 25.098039 75.294118 11.348580 7.471810 50.727918
53 "H6" 0.000000 25.098039 87.843137 15.288873 9.047684 71.481597
54 "I6" 0.000000 25.098039 100.000000 19.884611 10.885695 95.687535
55 "A7" 0.000000 37.647059 0.000000 4.182928 8.364732 1.394329
56 "B7" 0.000000 37.647059 12.549020 4.443640 8.469001 2.767511
57 "C7" 0.000000 37.647059 25.098039 5.108370 8.734851 6.268669
58 "D7" 0.000000 37.647059 37.647059 6.294324 9.209160 12.515133
59 "E7" 0.000000 37.647059 50.196078 8.079451 9.923100 21.917472
60 "F7" 0.000000 37.647059 62.745098 10.528518 10.902576 34.816804
61 "G7" 0.000000 37.647059 75.294118 13.698096 12.170211 51.511101
62 "H7" 0.000000 37.647059 87.843137 17.638389 13.746085 72.264780
63 "I7" 0.000000 37.647059 100.000000 22.234127 15.584096 96.470718
64 "A8" 0.000000 50.196078 0.000000 7.719480 15.436886 2.573197
65 "B8" 0.000000 50.196078 12.549020 7.980193 15.541154 3.946379
66 "C8" 0.000000 50.196078 25.098039 8.644922 15.807005 7.447537
67 "D8" 0.000000 50.196078 37.647059 9.830876 16.281313 13.694001
68 "E8" 0.000000 50.196078 50.196078 11.616003 16.995254 23.096339
69 "F8" 0.000000 50.196078 62.745098 14.065070 17.974730 35.995671
70 "G8" 0.000000 50.196078 75.294118 17.234649 19.242365 52.689969
71 "H8" 0.000000 50.196078 87.843137 21.174941 20.818239 73.443648
72 "I8" 0.000000 50.196078 100.000000 25.770680 22.656250 97.649585
73 "A9" 0.000000 62.745098 0.000000 12.571376 25.139372 4.190518
74 "B9" 0.000000 62.745098 12.549020 12.832088 25.243641 5.563700
75 "C9" 0.000000 62.745098 25.098039 13.496818 25.509492 9.064858
76 "D9" 0.000000 62.745098 37.647059 14.682771 25.983800 15.311322
77 "E9" 0.000000 62.745098 50.196078 16.467899 26.697741 24.713660
78 "F9" 0.000000 62.745098 62.745098 18.916965 27.677216 37.612993
79 "G9" 0.000000 62.745098 75.294118 22.086544 28.944852 54.307290
80 "H9" 0.000000 62.745098 87.843137 26.026837 30.520725 75.060969
81 "I9" 0.000000 62.745098 100.000000 30.622575 32.358737 99.266907
82 "A10" 0.000000 75.294118 0.000000 18.850692 37.696317 6.283653
83 "B10" 0.000000 75.294118 12.549020 19.111404 37.800585 7.656835
84 "C10" 0.000000 75.294118 25.098039 19.776134 38.066436 11.157993
85 "D10" 0.000000 75.294118 37.647059 20.962087 38.540744 17.404457
86 "E10" 0.000000 75.294118 50.196078 22.747215 39.254685 26.806796
87 "F10" 0.000000 75.294118 62.745098 25.196282 40.234160 39.706128
88 "G10" 0.000000 75.294118 75.294118 28.365860 41.501796 56.400425
89 "H10" 0.000000 75.294118 87.843137 32.306153 43.077670 77.154104
90 "I10" 0.000000 75.294118 100.000000 36.901891 44.915681 101.360042
91 "A11" 0.000000 87.843137 0.000000 26.656885 53.306605 8.885754
92 "B11" 0.000000 87.843137 12.549020 26.917597 53.410873 10.258936
93 "C11" 0.000000 87.843137 25.098039 27.582327 53.676724 13.760094
94 "D11" 0.000000 87.843137 37.647059 28.768281 54.151032 20.006558
95 "E11" 0.000000 87.843137 50.196078 30.553408 54.864973 29.408897
96 "F11" 0.000000 87.843137 62.745098 33.002475 55.844448 42.308229
97 "G11" 0.000000 87.843137 75.294118 36.172053 57.112084 59.002526
98 "H11" 0.000000 87.843137 87.843137 40.112346 58.687958 79.756205
99 "I11" 0.000000 87.843137 100.000000 44.708084 60.525969 103.962143
100 "A12" 0.000000 100.000000 0.000000 35.761595 71.513577 11.920700
101 "B12" 0.000000 100.000000 12.549020 36.022307 71.617846 13.293882
102 "C12" 0.000000 100.000000 25.098039 36.687037 71.883697 16.795041
103 "D12" 0.000000 100.000000 37.647059 37.872990 72.358005 23.041505
104 "E12" 0.000000 100.000000 50.196078 39.658118 73.071946 32.443843
105 "F12" 0.000000 100.000000 62.745098 42.107185 74.051421 45.343175
106 "G12" 0.000000 100.000000 75.294118 45.276763 75.319057 62.037473
107 "H12" 0.000000 100.000000 87.843137 49.217056 76.894930 82.791151
108 "I12" 0.000000 100.000000 100.000000 53.812794 78.732942 106.997089
END_DATA
