Example Targets Read/SpyderPrint Targets/EZ 729 Colors Plus Grays (9-pages, 996-patches)/EZ 729 Colors Plus Grays 8 of 9 (120-patches).ti2
CTI2

DESCRIPTOR "Argyll Calibration Target chart information 2"
ORIGINATOR "read_image_patch_colors.py"
CREATED "Fri Dec  5 19:01:09 2025"
ACCURATE_EXPECTED_VALUES "true"
APPROX_WHITE_POINT "92.732049 99.068454 96.699794"
COLOR_REP "iRGB"
STEPS_IN_PASS "12"
PASSES_IN_STRIPS2 "10"
STRIP_INDEX_PATTERN "0-9,@-9;1-99"
PATCH_INDEX_PATTERN "A-Z, A-Z"
INDEX_ORDER "STRIP_THEN_PATCH"

NUMBER_OF_FIELDS 8
BEGIN_DATA_FORMAT
SAMPLE_ID SAMPLE_LOC RGB_R RGB_G RGB_B XYZ_X XYZ_Y XYZ_Z
END_DATA_FORMAT

NUMBER_OF_SETS 120
BEGIN_DATA
1 "A1" 3.137255 0.000000 0.000000 0.100355 0.051743 0.004702
2 "B1" 9.411765 6.274510 6.274510 0.655286 0.601861 0.571644
3 "C1" 15.686275 12.549020 12.549020 1.652275 1.588320 1.586355
4 "D1" 21.960784 18.823529 18.823529 3.221136 3.167625 3.238458
5 "E1" 28.235294 25.098039 25.098039 5.431218 5.414334 5.610707
6 "F1" 34.509804 31.372549 31.372549 8.341322 8.390862 8.771630
7 "G1" 40.784314 37.647059 37.647059 12.003514 12.152844 12.782652
8 "H1" 47.058824 43.921569 43.921569 16.465325 16.751182 17.700092
9 "I1" 0.000000 0.000000 0.000000 0.000000 0.000000 0.000000
10 "J1" 34.509804 34.509804 34.509804 9.276001 9.758381 10.630070
11 "A2" 100.000000 94.117647 94.117647 88.132005 89.869601 95.166424
12 "B2" 94.117647 87.843137 87.843137 76.048652 77.216878 81.440094
13 "C2" 87.843137 81.568627 81.568627 64.684176 65.511719 68.929571
14 "D2" 81.568627 75.294118 75.294118 54.379011 54.914293 57.619338
15 "E2" 75.294118 69.019608 69.019608 45.102203 45.391087 47.471971
16 "F2" 69.019608 62.745098 62.745098 36.822040 36.909153 38.451981
17 "G2" 62.745098 56.470588 56.470588 29.505923 29.433515 30.520611
18 "H2" 56.470588 50.196078 50.196078 23.118096 22.925784 23.635299
19 "I2" 0.000000 0.000000 0.000000 0.000000 0.000000 0.000000
20 "J2" 37.647059 37.647059 37.647059 11.118184 11.696364 12.741168
21 "A3" 0.000000 3.137255 0.000000 0.087021 0.174019 0.029007
22 "B3" 6.274510 9.411765 6.274510 0.633612 0.800622 0.611152
23 "C3" 12.549020 15.686275 12.549020 1.615150 1.928769 1.654027
24 "D3" 18.823529 21.960784 18.823529 3.166389 3.669671 3.338252
25 "E3" 25.098039 28.235294 25.098039 5.357075 6.094249 5.745856
26 "F3" 31.372549 34.509804 31.372549 8.246147 9.263649 8.945116
27 "G3" 37.647059 40.784314 37.647059 11.885883 13.231554 12.997071
28 "H3" 43.921569 47.058824 43.921569 16.324038 18.046821 17.957630
29 "I3" 3.137255 3.137255 3.137255 0.231301 0.243329 0.265065
30 "J3" 40.784314 40.784314 40.784314 13.158719 13.843012 15.079570
31 "A4" 94.117647 100.000000 94.117647 87.427159 96.333229 96.451220
32 "B4" 87.843137 94.117647 87.843137 75.358421 83.546486 82.698250
33 "C4" 81.568627 87.843137 81.568627 64.055946 71.272762 70.074712
34 "D4" 75.294118 81.568627 75.294118 53.811130 60.121909 58.654473
35 "E4" 69.019608 75.294118 69.019608 44.592787 50.062577 48.400538
36 "F4" 62.745098 69.019608 62.745098 36.369303 41.060872 39.277231
37 "G4" 56.470588 62.745098 56.470588 29.107913 33.083370 31.246104
38 "H4" 50.196078 56.470588 50.196078 22.772669 26.093439 24.264944
39 "I4" 6.274510 6.274510 6.274510 0.492157 0.517750 0.564000
40 "J4" 43.921569 43.921569 43.921569 15.401955 16.202904 17.650265
41 "A5" 0.000000 0.000000 3.137255 0.043925 0.017567 0.231356
42 "B5" 6.274510 6.274510 9.411765 0.563558 0.546307 0.940074
43 "C5" 12.549020 12.549020 15.686275 1.495159 1.493164 2.217422
44 "D5" 18.823529 18.823529 21.960784 2.989443 3.027303 4.169066
45 "E5" 25.098039 25.098039 28.235294 5.117439 5.224297 6.871019
46 "F5" 31.372549 31.372549 34.509804 7.938533 8.146918 10.389454
47 "G5" 37.647059 37.647059 40.784314 11.505692 11.851343 14.782183
48 "H5" 43.921569 43.921569 47.058824 15.867390 16.389049 20.101729
49 "I5" 9.411765 9.411765 9.411765 0.868143 0.913289 0.994870
50 "J5" 47.058824 47.058824 47.058824 17.852842 18.781244 20.458921
51 "A6" 94.117647 94.117647 100.000000 85.149055 88.063009 107.147607
52 "B6" 87.843137 87.843137 94.117647 73.127553 75.447745 93.172853
53 "C6" 81.568627 81.568627 87.843137 62.025468 63.901500 79.608423
54 "D6" 75.294118 75.294118 81.568627 51.975708 53.458757 67.272340
55 "E6" 69.019608 69.019608 75.294118 42.946321 44.085399 56.131193
56 "F6" 62.745098 62.745098 69.019608 34.906031 35.748742 46.147739
57 "G6" 56.470588 56.470588 62.745098 27.821523 28.413376 37.286096
58 "H6" 50.196078 50.196078 56.470588 21.656230 22.040421 29.506963
59 "I6" 12.549020 12.549020 12.549020 1.372858 1.444251 1.573262
60 "J6" 50.196078 50.196078 50.196078 20.518308 21.585322 23.513480
61 "A7" 0.000000 3.137255 3.137255 0.130946 0.191586 0.260363
62 "B7" 6.274510 9.411765 9.411765 0.705013 0.829178 0.987226
63 "C7" 12.549020 15.686275 15.686275 1.737450 1.977682 2.298187
64 "D7" 18.823529 21.960784 21.960784 3.346740 3.741800 4.288166
65 "E7" 25.098039 28.235294 28.235294 5.601322 6.191933 7.032315
66 "F7" 31.372549 34.509804 34.509804 8.559679 9.389042 10.596505
67 "G7" 37.647059 40.784314 40.784314 12.273390 13.386533 15.038086
68 "H7" 43.921569 47.058824 47.058824 16.789473 18.232966 20.409094
69 "I7" 15.686275 15.686275 15.686275 2.016867 2.121750 2.311280
70 "J7" 53.333333 53.333333 53.333333 23.402703 24.619715 26.818926
71 "A8" 94.117647 100.000000 100.000000 89.749100 97.261862 108.680977
72 "B8" 87.843137 94.117647 94.117647 77.632218 84.455864 94.674429
73 "C8" 81.568627 87.843137 87.843137 66.125496 72.100455 80.975118
74 "D8" 75.294118 81.568627 81.568627 55.681872 60.870090 68.507745
75 "E8" 69.019608 75.294118 75.294118 46.270935 50.733733 57.239414
76 "F8" 62.745098 69.019608 69.019608 37.860734 41.657352 47.132654
77 "G8" 56.470588 62.745098 62.745098 30.419058 33.607746 38.151953
78 "H8" 50.196078 56.470588 56.470588 23.910592 26.548537 30.258427
79 "I8" 18.823529 18.823529 18.823529 2.809092 2.955174 3.219151
80 "J8" 56.470588 56.470588 56.470588 26.510379 27.889000 30.380247
81 "A9" 3.137255 0.000000 3.137255 0.144280 0.069311 0.236058
82 "B9" 9.411765 6.274510 9.411765 0.726688 0.630417 0.947718
83 "C9" 15.686275 12.549020 15.686275 1.774575 1.637232 2.230515
84 "D9" 21.960784 18.823529 21.960784 3.401487 3.239754 4.188373
85 "E9" 28.235294 25.098039 28.235294 5.675466 5.512018 6.897167
86 "F9" 34.509804 31.372549 34.509804 8.654855 8.516256 10.423019
87 "G9" 40.784314 37.647059 40.784314 12.391021 12.307822 14.823667
88 "H9" 47.058824 43.921569 47.058824 16.930760 16.937327 20.151556
89 "I9" 21.960784 21.960784 21.960784 3.758783 3.954251 4.307474
90 "J9" 59.607843 59.607843 59.607843 29.845995 31.398077 34.202781
91 "A10" 100.000000 94.117647 100.000000 90.453946 90.798234 107.396182
92 "B10" 94.117647 87.843137 94.117647 78.322449 78.126256 93.416273
93 "C10" 87.843137 81.568627 87.843137 66.753727 66.339411 79.829978
94 "D10" 81.568627 75.294118 81.568627 56.249753 55.662474 67.472611
95 "E10" 75.294118 69.019608 75.294118 46.780352 46.062242 56.310847
96 "F10" 69.019608 62.745098 69.019608 38.313470 37.505633 46.307403
97 "G10" 62.745098 56.470588 62.745098 30.817067 29.957892 37.426460
98 "H10" 56.470588 50.196078 56.470588 24.256018 23.380883 29.628783
99 "I10" 25.098039 25.098039 25.098039 4.873192 5.126613 5.584559
100 "J10" 62.745098 62.745098 62.745098 33.414601 35.152262 38.292317
101 "A11" 3.137255 3.137255 0.000000 0.187376 0.225762 0.033710
102 "B11" 9.411765 9.411765 6.274510 0.796741 0.884733 0.618796
103 "C11" 15.686275 15.686275 12.549020 1.894567 2.072838 1.667120
104 "D11" 21.960784 21.960784 18.823529 3.578432 3.882122 3.357559
105 "E11" 28.235294 28.235294 25.098039 5.915102 6.381970 5.772003
106 "F11" 34.509804 34.509804 31.372549 8.962468 9.632987 8.978681
107 "G11" 40.784314 40.784314 37.647059 12.771212 13.688033 13.038555
108 "H11" 47.058824 47.058824 43.921569 17.387407 18.595099 18.007457
109 "I11" 28.235294 28.235294 28.235294 6.159349 6.479654 7.058463
110 "J11" 65.882353 65.882353 65.882353 37.220958 39.156561 42.654309
111 "A12" 100.000000 100.000000 94.117647 92.732049 99.068454 96.699794
112 "B12" 94.117647 94.117647 87.843137 80.553317 86.224997 82.941670
113 "C12" 87.843137 87.843137 81.568627 68.784205 73.710674 70.296267
114 "D12" 81.568627 81.568627 75.294118 58.085175 62.325626 58.854744
115 "E12" 75.294118 75.294118 69.019608 48.426817 52.039421 48.580192
116 "F12" 69.019608 69.019608 62.745098 39.776743 42.817763 39.436896
117 "G12" 62.745098 62.745098 56.470588 32.103457 34.627885 31.386468
118 "H12" 56.470588 56.470588 50.196078 25.372457 27.433901 24.386764
119 "I12" 31.372549 31.372549 31.372549 7.625001 8.021524 8.738065
120 "J12" 69.019608 69.019608 69.019608 41.268173 43.414243 47.292318
END_DATA
