Example Targets Read/SpyderPrint Targets/EZ 729 Colors Plus Grays (9-pages, 996-patches)/EZ 729 Colors Plus Grays 9 of 9 (120-patches).ti2
CTI2

DESCRIPTOR "Argyll Calibration Target chart information 2"
ORIGINATOR "read_image_patch_colors.py"
CREATED "Mon Dec  1 04:06:23 2025"
ACCURATE_EXPECTED_VALUES "true"
APPROX_WHITE_POINT "95.053991 99.997087 108.929552"
COLOR_REP "iRGB"
STEPS_IN_PASS "12"
PASSES_IN_STRIPS2 "10"
STRIP_INDEX_PATTERN "0-9,@-9;1-99"
PATCH_INDEX_PATTERN "A-Z, A-Z"
INDEX_ORDER "STRIP_THEN_PATCH"

NUMBER_OF_FIELDS 8
BEGIN_DATA_FORMAT
SAMPLE_ID SAMPLE_LOC RGB_R RGB_G RGB_B XYZ_X XYZ_Y XYZ_Z
END_DATA_FORMAT

NUMBER_OF_SETS 120
BEGIN_DATA
1 "A1" 53.333333 50.196078 50.196078 21.769764 22.230579 23.572120
2 "B1" 59.607843 56.470588 56.470588 27.957607 28.635197 30.448061
3 "C1" 65.882353 62.745098 62.745098 35.066070 36.003767 38.369701
4 "D1" 72.156863 69.019608 69.019608 43.131087 44.374770 47.379610
5 "E1" 78.431373 75.294118 75.294118 52.185766 53.783446 57.516568
6 "F1" 84.705882 81.568627 81.568627 62.262740 64.263215 68.816109
7 "G1" 90.980392 87.843137 87.843137 73.391864 75.847027 81.315603
8 "H1" 97.254902 94.117647 94.117647 85.603143 88.565709 95.047928
9 "I1" 100.000000 97.254902 97.254902 91.754253 95.169276 102.368616
10 "J1" 72.156863 72.156863 72.156863 45.561875 47.931231 52.212796
11 "A2" 50.196078 43.921569 43.921569 17.621794 17.347462 17.754281
12 "B2" 43.921569 37.647059 37.647059 12.976790 12.654669 12.828258
13 "C2" 37.647059 31.372549 31.372549 9.140593 8.802970 8.809082
14 "D2" 31.372549 25.098039 25.098039 6.067123 5.742209 5.640504
15 "E2" 25.098039 18.823529 18.823529 3.704646 3.416925 3.261115
16 "F2" 18.823529 12.549020 12.549020 1.995999 1.765545 1.602461
17 "G2" 12.549020 6.274510 6.274510 0.874268 0.714769 0.581904
18 "H2" 6.274510 0.000000 0.000000 0.213533 0.110098 0.010006
19 "I2" 6.274510 0.000000 0.000000 0.213533 0.110098 0.010006
20 "J2" 75.294118 75.294118 75.294118 50.104966 52.710576 57.419067
21 "A3" 50.196078 53.333333 50.196078 21.603487 23.755388 23.875211
22 "B3" 56.470588 59.607843 56.470588 27.765318 30.398540 30.798566
23 "C3" 62.745098 65.882353 62.745098 34.846644 38.015963 38.769671
24 "D3" 69.019608 72.156863 69.019608 42.883567 46.644597 47.830790
25 "E3" 75.294118 78.431373 75.294118 51.909296 56.318751 58.020519
26 "F3" 81.568627 84.705882 81.568627 61.956239 67.073912 69.374800
27 "G3" 87.843137 90.980392 87.843137 73.054633 78.939530 81.930309
28 "H3" 94.117647 97.254902 94.117647 85.234300 91.948100 95.720256
29 "I3" 97.254902 100.000000 97.254902 91.418251 98.250512 102.981083
30 "J3" 78.431373 78.431373 78.431373 54.900858 57.755870 62.915043
31 "A4" 43.921569 50.196078 43.921569 17.326850 20.052176 18.291905
32 "B4" 37.647059 43.921569 37.647059 12.729842 14.919246 13.278395
33 "C4" 31.372549 37.647059 31.372549 8.939220 10.649610 9.176144
34 "D4" 25.098039 31.372549 25.098039 5.908489 7.196928 5.929663
35 "E4" 18.823529 25.098039 18.823529 3.585656 4.508093 3.478009
36 "F4" 12.549020 18.823529 12.549020 1.913204 2.524797 1.753380
37 "G4" 6.274510 12.549020 6.274510 0.823498 1.180344 0.674448
38 "H4" 0.000000 6.274510 0.000000 0.185161 0.370273 0.061721
39 "I4" 0.000000 6.274510 0.000000 0.185161 0.370273 0.061721
40 "J4" 81.568627 81.568627 81.568627 59.955917 63.073807 68.708017
41 "A5" 50.196078 50.196078 53.333333 21.066068 21.804392 26.398554
42 "B5" 56.470588 56.470588 59.607843 27.143828 28.142340 33.716649
43 "C5" 62.745098 62.745098 65.882353 34.137446 35.441355 42.099571
44 "D5" 69.019608 69.019608 72.156863 42.083567 43.740350 51.587032
45 "E5" 75.294118 75.294118 78.431373 51.015728 53.074825 62.216090
46 "F5" 81.568627 81.568627 84.705882 60.965609 63.477622 74.026106
47 "G5" 87.843137 87.843137 90.980392 71.964681 74.982668 87.047964
48 "H5" 94.117647 94.117647 97.254902 84.042177 87.620326 101.317635
49 "I5" 97.254902 97.254902 100.000000 90.332270 94.308066 108.080092
50 "J5" 84.705882 84.705882 84.705882 65.272753 68.667135 74.800981
51 "A6" 43.921569 43.921569 50.196078 16.373575 16.591492 22.767823
52 "B6" 37.647059 37.647059 43.921569 11.931693 12.021717 17.025948
53 "C6" 31.372549 31.372549 37.647059 8.288373 8.286832 12.232071
54 "D6" 25.098039 25.098039 31.372549 5.395773 5.335613 8.337016
55 "E6" 18.823529 18.823529 25.098039 3.201074 3.111942 5.283737
56 "F6" 12.549020 12.549020 18.823529 1.645606 1.553333 3.009834
57 "G6" 6.274510 6.274510 12.549020 0.659406 0.584640 1.444909
58 "H6" 0.000000 0.000000 6.274510 0.093463 0.037379 0.492273
59 "I6" 0.000000 0.000000 6.274510 0.093463 0.037379 0.492273
60 "J6" 87.843137 87.843137 87.843137 70.853756 74.538366 81.196673
61 "A7" 50.196078 53.333333 53.333333 22.151247 23.974458 26.760286
62 "B7" 56.470588 59.607843 59.607843 28.398767 30.651880 34.134968
63 "C7" 62.745098 65.882353 65.882353 35.569489 38.305057 42.576925
64 "D7" 69.019608 72.156863 72.156863 43.698961 46.970704 52.125504
65 "E7" 75.294118 78.431373 78.431373 52.820058 56.683000 62.817541
66 "F7" 81.568627 84.705882 84.705882 62.965931 67.477727 74.692889
67 "G7" 87.843137 90.980392 90.980392 74.165559 79.383831 87.781600
68 "H7" 94.117647 97.254902 97.254902 86.449363 92.434050 102.120041
69 "I7" 97.254902 100.000000 100.000000 92.525129 98.693195 108.811055
70 "J7" 90.980392 90.980392 90.980392 76.703668 80.692492 87.900530
71 "A8" 43.921569 50.196078 50.196078 18.298469 20.440764 23.409463
72 "B8" 37.647059 43.921569 43.921569 13.543350 15.244599 17.563175
73 "C8" 31.372549 37.647059 37.647059 9.602592 10.914918 12.670151
74 "D8" 25.098039 31.372549 31.372549 6.431070 7.405928 8.682120
75 "E8" 18.823529 25.098039 25.098039 3.977638 4.664861 5.542595
76 "F8" 12.549020 18.823529 18.823529 2.185952 2.633879 3.189952
77 "G8" 6.274510 12.549020 12.549020 0.990747 1.247233 1.555357
78 "H8" 0.000000 6.274510 6.274510 0.278624 0.407652 0.553994
79 "I8" 0.000000 6.274510 6.274510 0.278624 0.407652 0.553994
80 "J8" 94.117647 94.117647 94.117647 82.827114 87.134376 94.917850
81 "A9" 53.333333 50.196078 53.333333 22.317524 22.449649 26.457195
82 "B9" 59.607843 56.470588 59.607843 28.591056 28.888537 33.784462
83 "C9" 65.882353 62.745098 65.882353 35.788915 36.292860 42.176955
84 "D9" 72.156863 69.019608 72.156863 43.946481 44.700877 51.674323
85 "E9" 78.431373 75.294118 78.431373 53.096528 54.147695 62.313591
86 "F9" 84.705882 81.568627 84.705882 63.272432 64.667030 74.134198
87 "G9" 90.980392 87.843137 90.980392 74.502790 76.291328 87.166893
88 "H9" 97.254902 94.117647 97.254902 86.818206 89.051659 101.447713
89 "I9" 100.000000 97.254902 100.000000 92.861132 95.611959 108.198588
90 "J9" 97.254902 97.254902 97.254902 89.225391 93.865383 102.250119
91 "A10" 50.196078 43.921569 50.196078 18.593413 17.736050 22.871839
92 "B10" 43.921569 37.647059 43.921569 13.790298 12.980022 17.113038
93 "C10" 37.647059 31.372549 37.647059 9.803965 9.068278 12.303088
94 "D10" 31.372549 25.098039 31.372549 6.589704 5.951209 8.392961
95 "E10" 25.098039 18.823529 25.098039 4.096628 3.573694 5.325701
96 "F10" 18.823529 12.549020 18.823529 2.268747 1.874628 3.039033
97 "G10" 12.549020 6.274510 12.549020 1.041517 0.781658 1.462814
98 "H10" 6.274510 0.000000 6.274510 0.306996 0.147478 0.502278
99 "I10" 6.274510 0.000000 6.274510 0.306996 0.147478 0.502278
100 "J10" 100.000000 100.000000 100.000000 95.053991 99.997087 108.929552
101 "A11" 53.333333 53.333333 50.196078 22.854943 24.400644 23.933851
102 "B11" 59.607843 59.607843 56.470588 29.212546 31.144737 30.866380
103 "C11" 65.882353 65.882353 62.745098 36.498113 38.867468 38.847055
104 "D11" 72.156863 72.156863 69.019608 44.746481 47.605123 47.918082
105 "E11" 78.431373 78.431373 75.294118 53.990096 57.391621 58.118020
106 "F11" 84.705882 84.705882 81.568627 64.263061 68.263320 69.482892
107 "G11" 90.980392 90.980392 87.843137 75.592742 80.248190 82.049239
108 "H11" 97.254902 97.254902 94.117647 88.010329 93.379433 95.850334
109 "I11" 100.000000 100.000000 97.254902 93.947112 99.554404 103.099579
110 "J11" 81.568627 81.568627 81.568627 59.955917 63.073807 68.708017
111 "A12" 50.196078 50.196078 43.921569 19.546688 21.196734 18.395922
112 "B12" 43.921569 43.921569 37.647059 14.588447 15.877551 13.365484
113 "C12" 37.647059 37.647059 31.372549 10.454812 11.431056 9.247161
114 "D12" 31.372549 31.372549 25.098039 7.102419 7.812524 5.985607
115 "E12" 25.098039 25.098039 18.823529 4.481210 4.969844 3.519973
116 "F12" 18.823529 18.823529 12.549020 2.536345 2.846091 1.782579
117 "G12" 12.549020 12.549020 6.274510 1.205609 1.377362 0.692353
118 "H12" 6.274510 6.274510 0.000000 0.398694 0.480371 0.071727
119 "I12" 6.274510 6.274510 0.000000 0.398694 0.480371 0.071727
120 "J12" 0.000000 0.000000 0.000000 0.000000 0.000000 0.000000
END_DATA
