Example Targets Read/SpyderPrint Targets/EZ 729 Colors Plus Grays (9-pages, 996-patches)/EZ 729 Colors Plus Grays 6 of 9 (108-patches).ti1
CTI1

DESCRIPTOR "Argyll Calibration Target chart information 1"
ORIGINATOR "read_image_patch_colors.py"
CREATED "Fri Dec  5 19:01:06 2025"
ACCURATE_EXPECTED_VALUES "true"
APPROX_WHITE_POINT "75.551900 89.941722 108.015731"
COLOR_REP "iRGB"
WHITE_COLOR_PATCHES "1"
BLACK_COLOR_PATCHES "1"
COMP_GREY_STEPS "1"
SINGLE_DIM_STEPS "6"

NUMBER_OF_FIELDS 7
BEGIN_DATA_FORMAT
SAMPLE_ID RGB_R RGB_G RGB_B XYZ_X XYZ_Y XYZ_Z
END_DATA_FORMAT

NUMBER_OF_SETS 108
BEGIN_DATA
1 75.294118 37.647059 0.000000 25.922034 19.573512 2.412971
2 75.294118 37.647059 12.549020 26.182746 19.677781 3.786153
3 75.294118 37.647059 25.098039 26.847476 19.943632 7.287311
4 75.294118 37.647059 37.647059 28.033429 20.417940 13.533775
5 75.294118 37.647059 50.196078 29.818557 21.131881 22.936114
6 75.294118 37.647059 62.745098 32.267623 22.111356 35.835446
7 75.294118 37.647059 75.294118 35.437202 23.378992 52.529743
8 75.294118 37.647059 87.843137 39.377495 24.954865 73.283422
9 75.294118 37.647059 100.000000 43.973233 26.792877 97.489360
10 75.294118 50.196078 0.000000 29.458586 26.645666 3.591838
11 75.294118 50.196078 12.549020 29.719298 26.749935 4.965020
12 75.294118 50.196078 25.098039 30.384028 27.015786 8.466179
13 75.294118 50.196078 37.647059 31.569981 27.490094 14.712643
14 75.294118 50.196078 50.196078 33.355109 28.204034 24.114981
15 75.294118 50.196078 62.745098 35.804176 29.183510 37.014313
16 75.294118 50.196078 75.294118 38.973754 30.451145 53.708611
17 75.294118 50.196078 87.843137 42.914047 32.027019 74.462289
18 75.294118 50.196078 100.000000 47.509785 33.865030 98.668227
19 75.294118 62.745098 0.000000 34.310481 36.348152 5.209160
20 75.294118 62.745098 12.549020 34.571194 36.452421 6.582342
21 75.294118 62.745098 25.098039 35.235923 36.718272 10.083500
22 75.294118 62.745098 37.647059 36.421877 37.192580 16.329964
23 75.294118 62.745098 50.196078 38.207004 37.906521 25.732302
24 75.294118 62.745098 62.745098 40.656071 38.885996 38.631634
25 75.294118 62.745098 75.294118 43.825650 40.153632 55.325932
26 75.294118 62.745098 87.843137 47.765942 41.729506 76.079611
27 75.294118 62.745098 100.000000 52.361681 43.567517 100.285548
28 75.294118 75.294118 0.000000 40.589797 48.905097 7.302295
29 75.294118 75.294118 12.549020 40.850510 49.009366 8.675477
30 75.294118 75.294118 25.098039 41.515239 49.275216 12.176635
31 75.294118 75.294118 37.647059 42.701193 49.749525 18.423099
32 75.294118 75.294118 50.196078 44.486320 50.463465 27.825437
33 75.294118 75.294118 62.745098 46.935387 51.442941 40.724769
34 75.294118 75.294118 75.294118 50.104966 52.710576 57.419067
35 75.294118 75.294118 87.843137 54.045258 54.286450 78.172746
36 75.294118 75.294118 100.000000 58.640997 56.124461 102.378683
37 75.294118 87.843137 0.000000 48.395991 64.515385 9.904396
38 75.294118 87.843137 12.549020 48.656703 64.619654 11.277578
39 75.294118 87.843137 25.098039 49.321433 64.885505 14.778736
40 75.294118 87.843137 37.647059 50.507386 65.359813 21.025200
41 75.294118 87.843137 50.196078 52.292514 66.073753 30.427539
42 75.294118 87.843137 62.745098 54.741580 67.053229 43.326871
43 75.294118 87.843137 75.294118 57.911159 68.320864 60.021168
44 75.294118 87.843137 87.843137 61.851452 69.896738 80.774847
45 75.294118 87.843137 100.000000 66.447190 71.734749 104.980785
46 75.294118 100.000000 0.000000 57.500700 82.722357 12.939342
47 75.294118 100.000000 12.549020 57.761413 82.826626 14.312524
48 75.294118 100.000000 25.098039 58.426143 83.092477 17.813683
49 75.294118 100.000000 37.647059 59.612096 83.566785 24.060147
50 75.294118 100.000000 50.196078 61.397224 84.280726 33.462485
51 75.294118 100.000000 62.745098 63.846290 85.260201 46.361817
52 75.294118 100.000000 75.294118 67.015869 86.527837 63.056114
53 75.294118 100.000000 87.843137 70.956161 88.103710 83.809793
54 75.294118 100.000000 100.000000 75.551900 89.941722 108.015731
55 87.843137 0.000000 0.000000 30.741409 15.850409 1.440468
56 87.843137 0.000000 12.549020 31.002122 15.954677 2.813650
57 87.843137 0.000000 25.098039 31.666852 16.220528 6.314808
58 87.843137 0.000000 37.647059 32.852805 16.694836 12.561272
59 87.843137 0.000000 50.196078 34.637933 17.408777 21.963611
60 87.843137 0.000000 62.745098 37.086999 18.388252 34.862943
61 87.843137 0.000000 75.294118 40.256578 19.655888 51.557240
62 87.843137 0.000000 87.843137 44.196870 21.231762 72.310919
63 87.843137 0.000000 100.000000 48.792609 23.069773 96.516857
64 87.843137 12.549020 0.000000 31.257912 16.883274 1.612638
65 87.843137 12.549020 12.549020 31.518624 16.987543 2.985820
66 87.843137 12.549020 25.098039 32.183354 17.253394 6.486978
67 87.843137 12.549020 37.647059 33.369307 17.727702 12.733442
68 87.843137 12.549020 50.196078 35.154435 18.441643 22.135781
69 87.843137 12.549020 62.745098 37.603502 19.421118 35.035113
70 87.843137 12.549020 75.294118 40.773080 20.688754 51.729410
71 87.843137 12.549020 87.843137 44.713373 22.264627 72.483089
72 87.843137 12.549020 100.000000 49.309111 24.102639 96.689027
73 87.843137 25.098039 0.000000 32.574821 19.516739 2.051614
74 87.843137 25.098039 12.549020 32.835534 19.621008 3.424796
75 87.843137 25.098039 25.098039 33.500263 19.886859 6.925954
76 87.843137 25.098039 37.647059 34.686217 20.361167 13.172418
77 87.843137 25.098039 50.196078 36.471344 21.075108 22.574757
78 87.843137 25.098039 62.745098 38.920411 22.054583 35.474089
79 87.843137 25.098039 75.294118 42.089990 23.322219 52.168386
80 87.843137 25.098039 87.843137 46.030282 24.898093 72.922065
81 87.843137 25.098039 100.000000 50.626021 26.736104 97.128003
82 87.843137 37.647059 0.000000 34.924338 24.215140 2.834797
83 87.843137 37.647059 12.549020 35.185050 24.319409 4.207979
84 87.843137 37.647059 25.098039 35.849780 24.585260 7.709137
85 87.843137 37.647059 37.647059 37.035733 25.059568 13.955601
86 87.843137 37.647059 50.196078 38.820861 25.773509 23.357940
87 87.843137 37.647059 62.745098 41.269927 26.752984 36.257272
88 87.843137 37.647059 75.294118 44.439506 28.020620 52.951569
89 87.843137 37.647059 87.843137 48.379799 29.596493 73.705248
90 87.843137 37.647059 100.000000 52.975537 31.434505 97.911186
91 87.843137 50.196078 0.000000 38.460890 31.287294 4.013665
92 87.843137 50.196078 12.549020 38.721602 31.391563 5.386847
93 87.843137 50.196078 25.098039 39.386332 31.657414 8.888005
94 87.843137 50.196078 37.647059 40.572285 32.131722 15.134469
95 87.843137 50.196078 50.196078 42.357413 32.845663 24.536807
96 87.843137 50.196078 62.745098 44.806480 33.825138 37.436139
97 87.843137 50.196078 75.294118 47.976058 35.092774 54.130437
98 87.843137 50.196078 87.843137 51.916351 36.668647 74.884116
99 87.843137 50.196078 100.000000 56.512089 38.506659 99.090053
100 87.843137 62.745098 0.000000 43.312785 40.989781 5.630986
101 87.843137 62.745098 12.549020 43.573497 41.094049 7.004168
102 87.843137 62.745098 25.098039 44.238227 41.359900 10.505326
103 87.843137 62.745098 37.647059 45.424181 41.834208 16.751790
104 87.843137 62.745098 50.196078 47.209308 42.548149 26.154129
105 87.843137 62.745098 62.745098 49.658375 43.527625 39.053461
106 87.843137 62.745098 75.294118 52.827954 44.795260 55.747758
107 87.843137 62.745098 87.843137 56.768246 46.371134 76.501437
108 87.843137 62.745098 100.000000 61.363985 48.209145 100.707375
END_DATA

CTI1

DESCRIPTOR "Argyll Calibration Target chart information 1"
ORIGINATOR "Argyll targen"
DENSITY_EXTREME_VALUES "8"
CREATED "Fri Dec  5 19:01:06 2025"

NUMBER_OF_FIELDS "7"
BEGIN_DATA_FORMAT
INDEX RGB_R RGB_G RGB_B XYZ_X XYZ_Y XYZ_Z
END_DATA_FORMAT

NUMBER_OF_SETS "8"
BEGIN_DATA
0 100.000000 100.000000 100.000000 95.053991 99.997087 108.929552
1 0.000000 47.360690 100.000000 24.861096 20.837326 97.346386
2 100.000000 0.000000 79.351380 51.943508 25.544409 58.301966
3 0.000000 0.000000 58.997140 5.541230 2.216150 29.185882
4 100.000000 66.659300 0.000000 55.613237 50.004364 6.723211
5 0.000000 35.601140 0.000000 3.722560 7.444120 1.240871
6 84.444360 0.000000 0.000000 28.123075 14.500383 1.317779
7 0.000000 0.000000 0.000000 0.000000 0.000000 0.000000
END_DATA

CTI1

DESCRIPTOR "Argyll Calibration Target chart information 1"
ORIGINATOR "Argyll targen"
DEVICE_COMBINATION_VALUES "9"
CREATED "Fri Dec  5 19:01:06 2025"

NUMBER_OF_FIELDS "7"
BEGIN_DATA_FORMAT
INDEX RGB_R RGB_G RGB_B XYZ_X XYZ_Y XYZ_Z
END_DATA_FORMAT

NUMBER_OF_SETS "9"
BEGIN_DATA
0 100.000000 100.000000 100.000000 95.053991 99.997087 108.929552
1 0.000000 100.000000 100.000000 53.812794 78.732942 106.997089
2 100.000000 0.000000 100.000000 59.292396 28.483510 97.008851
3 0.000000 0.000000 100.000000 18.051199 7.219365 95.076389
4 100.000000 100.000000 0.000000 77.002791 92.777723 13.853163
5 0.000000 100.000000 0.000000 35.761595 71.513577 11.920700
6 100.000000 0.000000 0.000000 41.241196 21.264146 1.932463
7 0.000000 0.000000 0.000000 0.000000 0.000000 0.000000
8 50.000000 50.000000 50.000000 20.345920 21.403970 23.315927
END_DATA
