Example Targets Read/SpyderPrint Targets/EZ 729 Colors Plus Grays (9-pages, 996-patches)/EZ 729 Colors Plus Grays 4 of 9 (108-patches).ti1
CTI1

DESCRIPTOR "Argyll Calibration Target chart information 1"
ORIGINATOR "read_image_patch_colors.py"
CREATED "Mon Dec  1 04:06:18 2025"
ACCURATE_EXPECTED_VALUES "true"
APPROX_WHITE_POINT "62.715099 83.323010 107.414230"
COLOR_REP "iRGB"
WHITE_COLOR_PATCHES "1"
BLACK_COLOR_PATCHES "1"
COMP_GREY_STEPS "1"
SINGLE_DIM_STEPS "9"

NUMBER_OF_FIELDS 7
BEGIN_DATA_FORMAT
SAMPLE_ID RGB_R RGB_G RGB_B XYZ_X XYZ_Y XYZ_Z
END_DATA_FORMAT

NUMBER_OF_SETS 108
BEGIN_DATA
1 37.647059 75.294118 0.000000 23.674553 40.183521 6.509687
2 37.647059 75.294118 12.549020 23.935265 40.287790 7.882869
3 37.647059 75.294118 25.098039 24.599995 40.553640 11.384028
4 37.647059 75.294118 37.647059 25.785948 41.027949 17.630492
5 37.647059 75.294118 50.196078 27.571076 41.741889 27.032830
6 37.647059 75.294118 62.745098 30.020142 42.721365 39.932162
7 37.647059 75.294118 75.294118 33.189721 43.989000 56.626459
8 37.647059 75.294118 87.843137 37.130014 45.564874 77.380138
9 37.647059 75.294118 100.000000 41.725752 47.402885 101.586076
10 37.647059 87.843137 0.000000 31.480746 55.793809 9.111789
11 37.647059 87.843137 12.549020 31.741458 55.898078 10.484971
12 37.647059 87.843137 25.098039 32.406188 56.163929 13.986129
13 37.647059 87.843137 37.647059 33.592141 56.638237 20.232593
14 37.647059 87.843137 50.196078 35.377269 57.352177 29.634931
15 37.647059 87.843137 62.745098 37.826336 58.331653 42.534263
16 37.647059 87.843137 75.294118 40.995914 59.599288 59.228561
17 37.647059 87.843137 87.843137 44.936207 61.175162 79.982240
18 37.647059 87.843137 100.000000 49.531945 63.013173 104.188177
19 37.647059 100.000000 0.000000 40.585456 74.000781 12.146735
20 37.647059 100.000000 12.549020 40.846168 74.105050 13.519917
21 37.647059 100.000000 25.098039 41.510898 74.370901 17.021075
22 37.647059 100.000000 37.647059 42.696851 74.845209 23.267539
23 37.647059 100.000000 50.196078 44.481979 75.559150 32.669877
24 37.647059 100.000000 62.745098 46.931046 76.538625 45.569210
25 37.647059 100.000000 75.294118 50.100624 77.806261 62.263507
26 37.647059 100.000000 87.843137 54.040917 79.382134 83.017186
27 37.647059 100.000000 100.000000 58.636655 81.220146 107.223124
28 50.196078 0.000000 0.000000 8.902304 4.590068 0.417140
29 50.196078 0.000000 12.549020 9.163017 4.694337 1.790322
30 50.196078 0.000000 25.098039 9.827746 4.960188 5.291481
31 50.196078 0.000000 37.647059 11.013700 5.434496 11.537945
32 50.196078 0.000000 50.196078 12.798827 6.148437 20.940283
33 50.196078 0.000000 62.745098 15.247894 7.127912 33.839615
34 50.196078 0.000000 75.294118 18.417473 8.395548 50.533913
35 50.196078 0.000000 87.843137 22.357765 9.971421 71.287591
36 50.196078 0.000000 100.000000 26.953504 11.809433 95.493529
37 50.196078 12.549020 0.000000 9.418807 5.622934 0.589310
38 50.196078 12.549020 12.549020 9.679519 5.727203 1.962492
39 50.196078 12.549020 25.098039 10.344249 5.993054 5.463651
40 50.196078 12.549020 37.647059 11.530202 6.467362 11.710115
41 50.196078 12.549020 50.196078 13.315330 7.181302 21.112453
42 50.196078 12.549020 62.745098 15.764396 8.160778 34.011785
43 50.196078 12.549020 75.294118 18.933975 9.428413 50.706082
44 50.196078 12.549020 87.843137 22.874268 11.004287 71.459761
45 50.196078 12.549020 100.000000 27.470006 12.842298 95.665699
46 50.196078 25.098039 0.000000 10.735716 8.256399 1.028286
47 50.196078 25.098039 12.549020 10.996429 8.360668 2.401468
48 50.196078 25.098039 25.098039 11.661158 8.626519 5.902627
49 50.196078 25.098039 37.647059 12.847112 9.100827 12.149091
50 50.196078 25.098039 50.196078 14.632239 9.814768 21.551429
51 50.196078 25.098039 62.745098 17.081306 10.794243 34.450761
52 50.196078 25.098039 75.294118 20.250885 12.061879 51.145059
53 50.196078 25.098039 87.843137 24.191177 13.637752 71.898737
54 50.196078 25.098039 100.000000 28.786916 15.475764 96.104675
55 50.196078 37.647059 0.000000 13.085233 12.954800 1.811470
56 50.196078 37.647059 12.549020 13.345945 13.059069 3.184652
57 50.196078 37.647059 25.098039 14.010675 13.324919 6.685810
58 50.196078 37.647059 37.647059 15.196628 13.799228 12.932274
59 50.196078 37.647059 50.196078 16.981756 14.513168 22.334612
60 50.196078 37.647059 62.745098 19.430822 15.492644 35.233944
61 50.196078 37.647059 75.294118 22.600401 16.760279 51.928242
62 50.196078 37.647059 87.843137 26.540694 18.336153 72.681921
63 50.196078 37.647059 100.000000 31.136432 20.174164 96.887858
64 50.196078 50.196078 0.000000 16.621785 20.026954 2.990337
65 50.196078 50.196078 12.549020 16.882497 20.131223 4.363519
66 50.196078 50.196078 25.098039 17.547227 20.397073 7.864677
67 50.196078 50.196078 37.647059 18.733180 20.871381 14.111141
68 50.196078 50.196078 50.196078 20.518308 21.585322 23.513480
69 50.196078 50.196078 62.745098 22.967374 22.564798 36.412812
70 50.196078 50.196078 75.294118 26.136953 23.832433 53.107109
71 50.196078 50.196078 87.843137 30.077246 25.408307 73.860788
72 50.196078 50.196078 100.000000 34.672984 27.246318 98.066726
73 50.196078 62.745098 0.000000 21.473680 29.729440 4.607658
74 50.196078 62.745098 12.549020 21.734392 29.833709 5.980840
75 50.196078 62.745098 25.098039 22.399122 30.099560 9.481999
76 50.196078 62.745098 37.647059 23.585076 30.573868 15.728463
77 50.196078 62.745098 50.196078 25.370203 31.287809 25.130801
78 50.196078 62.745098 62.745098 27.819270 32.267284 38.030133
79 50.196078 62.745098 75.294118 30.988848 33.534920 54.724430
80 50.196078 62.745098 87.843137 34.929141 35.110793 75.478109
81 50.196078 62.745098 100.000000 39.524879 36.948805 99.684047
82 50.196078 75.294118 0.000000 27.752996 42.286385 6.700793
83 50.196078 75.294118 12.549020 28.013709 42.390653 8.073975
84 50.196078 75.294118 25.098039 28.678438 42.656504 11.575134
85 50.196078 75.294118 37.647059 29.864392 43.130812 17.821598
86 50.196078 75.294118 50.196078 31.649519 43.844753 27.223936
87 50.196078 75.294118 62.745098 34.098586 44.824228 40.123268
88 50.196078 75.294118 75.294118 37.268165 46.091864 56.817565
89 50.196078 75.294118 87.843137 41.208457 47.667738 77.571244
90 50.196078 75.294118 100.000000 45.804196 49.505749 101.777182
91 50.196078 87.843137 0.000000 35.559190 57.896673 9.302895
92 50.196078 87.843137 12.549020 35.819902 58.000941 10.676077
93 50.196078 87.843137 25.098039 36.484632 58.266792 14.177235
94 50.196078 87.843137 37.647059 37.670585 58.741100 20.423699
95 50.196078 87.843137 50.196078 39.455713 59.455041 29.826037
96 50.196078 87.843137 62.745098 41.904779 60.434517 42.725369
97 50.196078 87.843137 75.294118 45.074358 61.702152 59.419667
98 50.196078 87.843137 87.843137 49.014650 63.278026 80.173346
99 50.196078 87.843137 100.000000 53.610389 65.116037 104.379283
100 50.196078 100.000000 0.000000 44.663899 76.103645 12.337841
101 50.196078 100.000000 12.549020 44.924612 76.207914 13.711023
102 50.196078 100.000000 25.098039 45.589341 76.473765 17.212181
103 50.196078 100.000000 37.647059 46.775295 76.948073 23.458645
104 50.196078 100.000000 50.196078 48.560422 77.662014 32.860983
105 50.196078 100.000000 62.745098 51.009489 78.641489 45.760316
106 50.196078 100.000000 75.294118 54.179068 79.909125 62.454613
107 50.196078 100.000000 87.843137 58.119360 81.484998 83.208292
108 50.196078 100.000000 100.000000 62.715099 83.323010 107.414230
END_DATA

CTI1

DESCRIPTOR "Argyll Calibration Target chart information 1"
ORIGINATOR "Argyll targen"
DENSITY_EXTREME_VALUES "8"
CREATED "Mon Dec  1 04:06:18 2025"

NUMBER_OF_FIELDS "7"
BEGIN_DATA_FORMAT
INDEX RGB_R RGB_G RGB_B XYZ_X XYZ_Y XYZ_Z
END_DATA_FORMAT

NUMBER_OF_SETS "8"
BEGIN_DATA
0 0.000000 49.995270 43.750000 10.553522 16.464078 17.827876
1 0.000000 50.001230 50.000000 11.518815 16.853276 22.902426
2 0.000000 40.085320 59.909980 10.503940 11.836369 31.777250
3 0.000000 0.000000 78.363740 10.405823 4.161686 54.807888
4 30.559800 50.011200 0.000000 10.794151 16.931419 2.699745
5 0.000000 32.571370 0.000000 3.097963 6.195092 1.032669
6 100.000000 0.000000 0.000000 41.241196 21.264146 1.932463
7 0.000000 0.000000 21.872990 0.708368 0.283303 3.731003
END_DATA

CTI1

DESCRIPTOR "Argyll Calibration Target chart information 1"
ORIGINATOR "Argyll targen"
DEVICE_COMBINATION_VALUES "9"
CREATED "Mon Dec  1 04:06:18 2025"

NUMBER_OF_FIELDS "7"
BEGIN_DATA_FORMAT
INDEX RGB_R RGB_G RGB_B XYZ_X XYZ_Y XYZ_Z
END_DATA_FORMAT

NUMBER_OF_SETS "9"
BEGIN_DATA
0 100.000000 100.000000 100.000000 95.053991 99.997087 108.929552
1 0.000000 100.000000 100.000000 53.812794 78.732942 106.997089
2 100.000000 0.000000 100.000000 59.292396 28.483510 97.008851
3 0.000000 0.000000 100.000000 18.051199 7.219365 95.076389
4 100.000000 100.000000 0.000000 77.002791 92.777723 13.853163
5 0.000000 100.000000 0.000000 35.761595 71.513577 11.920700
6 100.000000 0.000000 0.000000 41.241196 21.264146 1.932463
7 0.000000 0.000000 0.000000 0.000000 0.000000 0.000000
8 50.000000 50.000000 50.000000 20.345920 21.403970 23.315927
END_DATA
