Example Targets Read/SpyderPrint Targets/EZ 729 Colors Plus Grays (9-pages, 996-patches)/EZ 729 Colors Plus Grays 2 of 9 (108-patches).ti1
CTI1

DESCRIPTOR "Argyll Calibration Target chart information 1"
ORIGINATOR "read_image_patch_colors.py"
CREATED "Fri Dec  5 19:01:00 2025"
ACCURATE_EXPECTED_VALUES "true"
APPROX_WHITE_POINT "54.408438 79.040058 107.024999"
COLOR_REP "iRGB"
WHITE_COLOR_PATCHES "1"
BLACK_COLOR_PATCHES "1"
COMP_GREY_STEPS "2"
SINGLE_DIM_STEPS "9"

NUMBER_OF_FIELDS 7
BEGIN_DATA_FORMAT
SAMPLE_ID RGB_R RGB_G RGB_B XYZ_X XYZ_Y XYZ_Z
END_DATA_FORMAT

NUMBER_OF_SETS 108
BEGIN_DATA
1 12.549020 0.000000 0.000000 0.595644 0.307117 0.027910
2 12.549020 0.000000 12.549020 0.856356 0.411385 1.401092
3 12.549020 0.000000 25.098039 1.521086 0.677236 4.902251
4 12.549020 0.000000 37.647059 2.707039 1.151544 11.148715
5 12.549020 0.000000 50.196078 4.492167 1.865485 20.551053
6 12.549020 0.000000 62.745098 6.941234 2.844960 33.450385
7 12.549020 0.000000 75.294118 10.110812 4.112596 50.144683
8 12.549020 0.000000 87.843137 14.051105 5.688470 70.898361
9 12.549020 0.000000 100.000000 18.646843 7.526481 95.104299
10 12.549020 12.549020 0.000000 1.112146 1.339982 0.200080
11 12.549020 12.549020 12.549020 1.372858 1.444251 1.573262
12 12.549020 12.549020 25.098039 2.037588 1.710102 5.074421
13 12.549020 12.549020 37.647059 3.223542 2.184410 11.320885
14 12.549020 12.549020 50.196078 5.008669 2.898351 20.723223
15 12.549020 12.549020 62.745098 7.457736 3.877826 33.622555
16 12.549020 12.549020 75.294118 10.627315 5.145462 50.316852
17 12.549020 12.549020 87.843137 14.567607 6.721336 71.070531
18 12.549020 12.549020 100.000000 19.163346 8.559347 95.276469
19 12.549020 25.098039 0.000000 2.429056 3.973448 0.639056
20 12.549020 25.098039 12.549020 2.689768 4.077716 2.012238
21 12.549020 25.098039 25.098039 3.354498 4.343567 5.513397
22 12.549020 25.098039 37.647059 4.540451 4.817875 11.759861
23 12.549020 25.098039 50.196078 6.325579 5.531816 21.162199
24 12.549020 25.098039 62.745098 8.774645 6.511291 34.061531
25 12.549020 25.098039 75.294118 11.944224 7.778927 50.755828
26 12.549020 25.098039 87.843137 15.884517 9.354801 71.509507
27 12.549020 25.098039 100.000000 20.480255 11.192812 95.715445
28 12.549020 37.647059 0.000000 4.778572 8.671848 1.422240
29 12.549020 37.647059 12.549020 5.039284 8.776117 2.795421
30 12.549020 37.647059 25.098039 5.704014 9.041968 6.296580
31 12.549020 37.647059 37.647059 6.889967 9.516276 12.543044
32 12.549020 37.647059 50.196078 8.675095 10.230217 21.945382
33 12.549020 37.647059 62.745098 11.124162 11.209692 34.844714
34 12.549020 37.647059 75.294118 14.293740 12.477328 51.539012
35 12.549020 37.647059 87.843137 18.234033 14.053202 72.292691
36 12.549020 37.647059 100.000000 22.829771 15.891213 96.498628
37 12.549020 50.196078 0.000000 8.315124 15.744002 2.601107
38 12.549020 50.196078 12.549020 8.575836 15.848271 3.974289
39 12.549020 50.196078 25.098039 9.240566 16.114122 7.475447
40 12.549020 50.196078 37.647059 10.426520 16.588430 13.721911
41 12.549020 50.196078 50.196078 12.211647 17.302371 23.124250
42 12.549020 50.196078 62.745098 14.660714 18.281846 36.023582
43 12.549020 50.196078 75.294118 17.830293 19.549482 52.717879
44 12.549020 50.196078 87.843137 21.770585 21.125355 73.471558
45 12.549020 50.196078 100.000000 26.366324 22.963367 97.677496
46 12.549020 62.745098 0.000000 13.167020 25.446489 4.218428
47 12.549020 62.745098 12.549020 13.427732 25.550758 5.591610
48 12.549020 62.745098 25.098039 14.092462 25.816608 9.092769
49 12.549020 62.745098 37.647059 15.278415 26.290917 15.339233
50 12.549020 62.745098 50.196078 17.063543 27.004857 24.741571
51 12.549020 62.745098 62.745098 19.512609 27.984333 37.640903
52 12.549020 62.745098 75.294118 22.682188 29.251968 54.335200
53 12.549020 62.745098 87.843137 26.622481 30.827842 75.088879
54 12.549020 62.745098 100.000000 31.218219 32.665853 99.294817
55 12.549020 75.294118 0.000000 19.446336 38.003433 6.311563
56 12.549020 75.294118 12.549020 19.707048 38.107702 7.684745
57 12.549020 75.294118 25.098039 20.371778 38.373553 11.185904
58 12.549020 75.294118 37.647059 21.557731 38.847861 17.432368
59 12.549020 75.294118 50.196078 23.342859 39.561802 26.834706
60 12.549020 75.294118 62.745098 25.791925 40.541277 39.734038
61 12.549020 75.294118 75.294118 28.961504 41.808913 56.428335
62 12.549020 75.294118 87.843137 32.901797 43.384786 77.182014
63 12.549020 75.294118 100.000000 37.497535 45.222798 101.387952
64 12.549020 87.843137 0.000000 27.252529 53.613721 8.913665
65 12.549020 87.843137 12.549020 27.513241 53.717990 10.286847
66 12.549020 87.843137 25.098039 28.177971 53.983841 13.788005
67 12.549020 87.843137 37.647059 29.363924 54.458149 20.034469
68 12.549020 87.843137 50.196078 31.149052 55.172090 29.436807
69 12.549020 87.843137 62.745098 33.598119 56.151565 42.336139
70 12.549020 87.843137 75.294118 36.767697 57.419201 59.030437
71 12.549020 87.843137 87.843137 40.707990 58.995074 79.784116
72 12.549020 87.843137 100.000000 45.303728 60.833086 103.990053
73 12.549020 100.000000 0.000000 36.357239 71.820694 11.948611
74 12.549020 100.000000 12.549020 36.617951 71.924962 13.321793
75 12.549020 100.000000 25.098039 37.282681 72.190813 16.822951
76 12.549020 100.000000 37.647059 38.468634 72.665121 23.069415
77 12.549020 100.000000 50.196078 40.253762 73.379062 32.471753
78 12.549020 100.000000 62.745098 42.702829 74.358538 45.371086
79 12.549020 100.000000 75.294118 45.872407 75.626173 62.065383
80 12.549020 100.000000 87.843137 49.812700 77.202047 82.819062
81 12.549020 100.000000 100.000000 54.408438 79.040058 107.024999
82 25.098039 0.000000 0.000000 2.114338 1.090162 0.099073
83 25.098039 0.000000 12.549020 2.375050 1.194431 1.472255
84 25.098039 0.000000 25.098039 3.039780 1.460282 4.973413
85 25.098039 0.000000 37.647059 4.225733 1.934590 11.219877
86 25.098039 0.000000 50.196078 6.010861 2.648531 20.622215
87 25.098039 0.000000 62.745098 8.459928 3.628006 33.521547
88 25.098039 0.000000 75.294118 11.629506 4.895642 50.215845
89 25.098039 0.000000 87.843137 15.569799 6.471515 70.969524
90 25.098039 0.000000 100.000000 20.165537 8.309527 95.175461
91 25.098039 12.549020 0.000000 2.630840 2.123028 0.271243
92 25.098039 12.549020 12.549020 2.891553 2.227297 1.644425
93 25.098039 12.549020 25.098039 3.556282 2.493148 5.145583
94 25.098039 12.549020 37.647059 4.742236 2.967456 11.392047
95 25.098039 12.549020 50.196078 6.527363 3.681396 20.794385
96 25.098039 12.549020 62.745098 8.976430 4.660872 33.693717
97 25.098039 12.549020 75.294118 12.146009 5.928507 50.388015
98 25.098039 12.549020 87.843137 16.086301 7.504381 71.141694
99 25.098039 12.549020 100.000000 20.682040 9.342393 95.347631
100 25.098039 25.098039 0.000000 3.947750 4.756493 0.710219
101 25.098039 25.098039 12.549020 4.208462 4.860762 2.083401
102 25.098039 25.098039 25.098039 4.873192 5.126613 5.584559
103 25.098039 25.098039 37.647059 6.059145 5.600921 11.831023
104 25.098039 25.098039 50.196078 7.844273 6.314862 21.233361
105 25.098039 25.098039 62.745098 10.293340 7.294337 34.132693
106 25.098039 25.098039 75.294118 13.462918 8.561973 50.826991
107 25.098039 25.098039 87.843137 17.403211 10.137846 71.580670
108 25.098039 25.098039 100.000000 21.998949 11.975858 95.786607
END_DATA

CTI1

DESCRIPTOR "Argyll Calibration Target chart information 1"
ORIGINATOR "Argyll targen"
DENSITY_EXTREME_VALUES "8"
CREATED "Fri Dec  5 19:01:00 2025"

NUMBER_OF_FIELDS "7"
BEGIN_DATA_FORMAT
INDEX RGB_R RGB_G RGB_B XYZ_X XYZ_Y XYZ_Z
END_DATA_FORMAT

NUMBER_OF_SETS "8"
BEGIN_DATA
0 100.000000 100.000000 100.000000 95.053991 99.997087 108.929552
1 0.000000 47.360690 100.000000 24.861096 20.837326 97.346386
2 100.000000 0.000000 79.351380 51.943508 25.544409 58.301966
3 0.000000 0.000000 58.997140 5.541230 2.216150 29.185882
4 100.000000 66.659300 0.000000 55.613237 50.004364 6.723211
5 0.000000 35.601140 0.000000 3.722560 7.444120 1.240871
6 84.444360 0.000000 0.000000 28.123075 14.500383 1.317779
7 0.000000 0.000000 0.000000 0.000000 0.000000 0.000000
END_DATA

CTI1

DESCRIPTOR "Argyll Calibration Target chart information 1"
ORIGINATOR "Argyll targen"
DEVICE_COMBINATION_VALUES "9"
CREATED "Fri Dec  5 19:01:00 2025"

NUMBER_OF_FIELDS "7"
BEGIN_DATA_FORMAT
INDEX RGB_R RGB_G RGB_B XYZ_X XYZ_Y XYZ_Z
END_DATA_FORMAT

NUMBER_OF_SETS "9"
BEGIN_DATA
0 100.000000 100.000000 100.000000 95.053991 99.997087 108.929552
1 0.000000 100.000000 100.000000 53.812794 78.732942 106.997089
2 100.000000 0.000000 100.000000 59.292396 28.483510 97.008851
3 0.000000 0.000000 100.000000 18.051199 7.219365 95.076389
4 100.000000 100.000000 0.000000 77.002791 92.777723 13.853163
5 0.000000 100.000000 0.000000 35.761595 71.513577 11.920700
6 100.000000 0.000000 0.000000 41.241196 21.264146 1.932463
7 0.000000 0.000000 0.000000 0.000000 0.000000 0.000000
8 50.000000 50.000000 50.000000 20.345920 21.403970 23.315927
END_DATA
