Example Targets Read/SpyderPrint Targets/Expert Target (large) (1-page, 729-patches)/Expert Target (large)(729-patches).ti2
CTI2

DESCRIPTOR "Argyll Calibration Target chart information 2"
ORIGINATOR "read_image_patch_colors.py (colormath backend)"
CREATED "Sun Nov 30 22:58:12 2025"
ACCURATE_EXPECTED_VALUES "true"
APPROX_WHITE_POINT "95.053991 99.997087 108.929552"
COLOR_REP "iRGB"
STEPS_IN_PASS "27"
PASSES_IN_STRIPS2 "27"
STRIP_INDEX_PATTERN "0-9,@-9;1-99"
PATCH_INDEX_PATTERN "A-Z, A-Z"
INDEX_ORDER "STRIP_THEN_PATCH"

NUMBER_OF_FIELDS 8
BEGIN_DATA_FORMAT
SAMPLE_ID SAMPLE_LOC RGB_R RGB_G RGB_B XYZ_X XYZ_Y XYZ_Z
END_DATA_FORMAT

NUMBER_OF_SETS 729
BEGIN_DATA
1 "A1" 0.000000 0.000000 0.000000 0.000000 0.000000 0.000000
2 "B1" 0.000000 0.000000 12.549020 0.260712 0.104269 1.373182
3 "C1" 0.000000 0.000000 25.098039 0.925442 0.370120 4.874340
4 "D1" 0.000000 0.000000 37.647059 2.111395 0.844428 11.120804
5 "E1" 0.000000 0.000000 50.196078 3.896523 1.558368 20.523143
6 "F1" 0.000000 0.000000 62.745098 6.345590 2.537844 33.422475
7 "G1" 0.000000 0.000000 75.294118 9.515168 3.805479 50.116772
8 "H1" 0.000000 0.000000 87.843137 13.455461 5.381353 70.870451
9 "I1" 0.000000 0.000000 100.000000 18.051199 7.219365 95.076389
10 "J1" 12.549020 0.000000 0.000000 0.595644 0.307117 0.027910
11 "K1" 12.549020 0.000000 12.549020 0.856356 0.411385 1.401092
12 "L1" 12.549020 0.000000 25.098039 1.521086 0.677236 4.902251
13 "M1" 12.549020 0.000000 37.647059 2.707039 1.151544 11.148715
14 "N1" 12.549020 0.000000 50.196078 4.492167 1.865485 20.551053
15 "O1" 12.549020 0.000000 62.745098 6.941234 2.844960 33.450385
16 "P1" 12.549020 0.000000 75.294118 10.110812 4.112596 50.144683
17 "Q1" 12.549020 0.000000 87.843137 14.051105 5.688470 70.898361
18 "R1" 12.549020 0.000000 100.000000 18.646843 7.526481 95.104299
19 "S1" 25.098039 0.000000 0.000000 2.114338 1.090162 0.099073
20 "T1" 25.098039 0.000000 12.549020 2.375050 1.194431 1.472255
21 "U1" 25.098039 0.000000 25.098039 3.039780 1.460282 4.973413
22 "V1" 25.098039 0.000000 37.647059 4.225733 1.934590 11.219877
23 "W1" 25.098039 0.000000 50.196078 6.010861 2.648531 20.622215
24 "X1" 25.098039 0.000000 62.745098 8.459928 3.628006 33.521547
25 "Y1" 25.098039 0.000000 75.294118 11.629506 4.895642 50.215845
26 "Z1" 25.098039 0.000000 87.843137 15.569799 6.471515 70.969524
27 "AA1" 25.098039 0.000000 100.000000 20.165537 8.309527 95.175461
28 "A2" 0.000000 12.549020 0.000000 0.516502 1.032866 0.172170
29 "B2" 0.000000 12.549020 12.549020 0.777215 1.137135 1.545352
30 "C2" 0.000000 12.549020 25.098039 1.441944 1.402985 5.046510
31 "D2" 0.000000 12.549020 37.647059 2.627898 1.877294 11.292974
32 "E2" 0.000000 12.549020 50.196078 4.413025 2.591234 20.695312
33 "F2" 0.000000 12.549020 62.745098 6.862092 3.570710 33.594645
34 "G2" 0.000000 12.549020 75.294118 10.031671 4.838345 50.288942
35 "H2" 0.000000 12.549020 87.843137 13.971963 6.414219 71.042621
36 "I2" 0.000000 12.549020 100.000000 18.567702 8.252230 95.248559
37 "J2" 12.549020 12.549020 0.000000 1.112146 1.339982 0.200080
38 "K2" 12.549020 12.549020 12.549020 1.372858 1.444251 1.573262
39 "L2" 12.549020 12.549020 25.098039 2.037588 1.710102 5.074421
40 "M2" 12.549020 12.549020 37.647059 3.223542 2.184410 11.320885
41 "N2" 12.549020 12.549020 50.196078 5.008669 2.898351 20.723223
42 "O2" 12.549020 12.549020 62.745098 7.457736 3.877826 33.622555
43 "P2" 12.549020 12.549020 75.294118 10.627315 5.145462 50.316852
44 "Q2" 12.549020 12.549020 87.843137 14.567607 6.721336 71.070531
45 "R2" 12.549020 12.549020 100.000000 19.163346 8.559347 95.276469
46 "S2" 25.098039 12.549020 0.000000 2.630840 2.123028 0.271243
47 "T2" 25.098039 12.549020 12.549020 2.891553 2.227297 1.644425
48 "U2" 25.098039 12.549020 25.098039 3.556282 2.493148 5.145583
49 "V2" 25.098039 12.549020 37.647059 4.742236 2.967456 11.392047
50 "W2" 25.098039 12.549020 50.196078 6.527363 3.681396 20.794385
51 "X2" 25.098039 12.549020 62.745098 8.976430 4.660872 33.693717
52 "Y2" 25.098039 12.549020 75.294118 12.146009 5.928507 50.388015
53 "Z2" 25.098039 12.549020 87.843137 16.086301 7.504381 71.141694
54 "AA2" 25.098039 12.549020 100.000000 20.682040 9.342393 95.347631
55 "A3" 0.000000 25.098039 0.000000 1.833412 3.666331 0.611146
56 "B3" 0.000000 25.098039 12.549020 2.094124 3.770600 1.984328
57 "C3" 0.000000 25.098039 25.098039 2.758854 4.036451 5.485486
58 "D3" 0.000000 25.098039 37.647059 3.944807 4.510759 11.731950
59 "E3" 0.000000 25.098039 50.196078 5.729935 5.224699 21.134289
60 "F3" 0.000000 25.098039 62.745098 8.179002 6.204175 34.033621
61 "G3" 0.000000 25.098039 75.294118 11.348580 7.471810 50.727918
62 "H3" 0.000000 25.098039 87.843137 15.288873 9.047684 71.481597
63 "I3" 0.000000 25.098039 100.000000 19.884611 10.885695 95.687535
64 "J3" 12.549020 25.098039 0.000000 2.429056 3.973448 0.639056
65 "K3" 12.549020 25.098039 12.549020 2.689768 4.077716 2.012238
66 "L3" 12.549020 25.098039 25.098039 3.354498 4.343567 5.513397
67 "M3" 12.549020 25.098039 37.647059 4.540451 4.817875 11.759861
68 "N3" 12.549020 25.098039 50.196078 6.325579 5.531816 21.162199
69 "O3" 12.549020 25.098039 62.745098 8.774645 6.511291 34.061531
70 "P3" 12.549020 25.098039 75.294118 11.944224 7.778927 50.755828
71 "Q3" 12.549020 25.098039 87.843137 15.884517 9.354801 71.509507
72 "R3" 12.549020 25.098039 100.000000 20.480255 11.192812 95.715445
73 "S3" 25.098039 25.098039 0.000000 3.947750 4.756493 0.710219
74 "T3" 25.098039 25.098039 12.549020 4.208462 4.860762 2.083401
75 "U3" 25.098039 25.098039 25.098039 4.873192 5.126613 5.584559
76 "V3" 25.098039 25.098039 37.647059 6.059145 5.600921 11.831023
77 "W3" 25.098039 25.098039 50.196078 7.844273 6.314862 21.233361
78 "X3" 25.098039 25.098039 62.745098 10.293340 7.294337 34.132693
79 "Y3" 25.098039 25.098039 75.294118 13.462918 8.561973 50.826991
80 "Z3" 25.098039 25.098039 87.843137 17.403211 10.137846 71.580670
81 "AA3" 25.098039 25.098039 100.000000 21.998949 11.975858 95.786607
82 "A4" 0.000000 37.647059 0.000000 4.182928 8.364732 1.394329
83 "B4" 0.000000 37.647059 12.549020 4.443640 8.469001 2.767511
84 "C4" 0.000000 37.647059 25.098039 5.108370 8.734851 6.268669
85 "D4" 0.000000 37.647059 37.647059 6.294324 9.209160 12.515133
86 "E4" 0.000000 37.647059 50.196078 8.079451 9.923100 21.917472
87 "F4" 0.000000 37.647059 62.745098 10.528518 10.902576 34.816804
88 "G4" 0.000000 37.647059 75.294118 13.698096 12.170211 51.511101
89 "H4" 0.000000 37.647059 87.843137 17.638389 13.746085 72.264780
90 "I4" 0.000000 37.647059 100.000000 22.234127 15.584096 96.470718
91 "J4" 12.549020 37.647059 0.000000 4.778572 8.671848 1.422240
92 "K4" 12.549020 37.647059 12.549020 5.039284 8.776117 2.795421
93 "L4" 12.549020 37.647059 25.098039 5.704014 9.041968 6.296580
94 "M4" 12.549020 37.647059 37.647059 6.889967 9.516276 12.543044
95 "N4" 12.549020 37.647059 50.196078 8.675095 10.230217 21.945382
96 "O4" 12.549020 37.647059 62.745098 11.124162 11.209692 34.844714
97 "P4" 12.549020 37.647059 75.294118 14.293740 12.477328 51.539012
98 "Q4" 12.549020 37.647059 87.843137 18.234033 14.053202 72.292691
99 "R4" 12.549020 37.647059 100.000000 22.829771 15.891213 96.498628
100 "S4" 25.098039 37.647059 0.000000 6.297266 9.454894 1.493402
101 "T4" 25.098039 37.647059 12.549020 6.557978 9.559163 2.866584
102 "U4" 25.098039 37.647059 25.098039 7.222708 9.825014 6.367742
103 "V4" 25.098039 37.647059 37.647059 8.408662 10.299322 12.614206
104 "W4" 25.098039 37.647059 50.196078 10.193789 11.013262 22.016544
105 "X4" 25.098039 37.647059 62.745098 12.642856 11.992738 34.915877
106 "Y4" 25.098039 37.647059 75.294118 15.812434 13.260373 51.610174
107 "Z4" 25.098039 37.647059 87.843137 19.752727 14.836247 72.363853
108 "AA4" 25.098039 37.647059 100.000000 24.348465 16.674258 96.569791
109 "A5" 0.000000 50.196078 0.000000 7.719480 15.436886 2.573197
110 "B5" 0.000000 50.196078 12.549020 7.980193 15.541154 3.946379
111 "C5" 0.000000 50.196078 25.098039 8.644922 15.807005 7.447537
112 "D5" 0.000000 50.196078 37.647059 9.830876 16.281313 13.694001
113 "E5" 0.000000 50.196078 50.196078 11.616003 16.995254 23.096339
114 "F5" 0.000000 50.196078 62.745098 14.065070 17.974730 35.995671
115 "G5" 0.000000 50.196078 75.294118 17.234649 19.242365 52.689969
116 "H5" 0.000000 50.196078 87.843137 21.174941 20.818239 73.443648
117 "I5" 0.000000 50.196078 100.000000 25.770680 22.656250 97.649585
118 "J5" 12.549020 50.196078 0.000000 8.315124 15.744002 2.601107
119 "K5" 12.549020 50.196078 12.549020 8.575836 15.848271 3.974289
120 "L5" 12.549020 50.196078 25.098039 9.240566 16.114122 7.475447
121 "M5" 12.549020 50.196078 37.647059 10.426520 16.588430 13.721911
122 "N5" 12.549020 50.196078 50.196078 12.211647 17.302371 23.124250
123 "O5" 12.549020 50.196078 62.745098 14.660714 18.281846 36.023582
124 "P5" 12.549020 50.196078 75.294118 17.830293 19.549482 52.717879
125 "Q5" 12.549020 50.196078 87.843137 21.770585 21.125355 73.471558
126 "R5" 12.549020 50.196078 100.000000 26.366324 22.963367 97.677496
127 "S5" 25.098039 50.196078 0.000000 9.833818 16.527048 2.672269
128 "T5" 25.098039 50.196078 12.549020 10.094531 16.631317 4.045451
129 "U5" 25.098039 50.196078 25.098039 10.759260 16.897167 7.546610
130 "V5" 25.098039 50.196078 37.647059 11.945214 17.371476 13.793074
131 "W5" 25.098039 50.196078 50.196078 13.730341 18.085416 23.195412
132 "X5" 25.098039 50.196078 62.745098 16.179408 19.064892 36.094744
133 "Y5" 25.098039 50.196078 75.294118 19.348987 20.332527 52.789041
134 "Z5" 25.098039 50.196078 87.843137 23.289279 21.908401 73.542720
135 "AA5" 25.098039 50.196078 100.000000 27.885018 23.746412 97.748658
136 "A6" 0.000000 62.745098 0.000000 12.571376 25.139372 4.190518
137 "B6" 0.000000 62.745098 12.549020 12.832088 25.243641 5.563700
138 "C6" 0.000000 62.745098 25.098039 13.496818 25.509492 9.064858
139 "D6" 0.000000 62.745098 37.647059 14.682771 25.983800 15.311322
140 "E6" 0.000000 62.745098 50.196078 16.467899 26.697741 24.713660
141 "F6" 0.000000 62.745098 62.745098 18.916965 27.677216 37.612993
142 "G6" 0.000000 62.745098 75.294118 22.086544 28.944852 54.307290
143 "H6" 0.000000 62.745098 87.843137 26.026837 30.520725 75.060969
144 "I6" 0.000000 62.745098 100.000000 30.622575 32.358737 99.266907
145 "J6" 12.549020 62.745098 0.000000 13.167020 25.446489 4.218428
146 "K6" 12.549020 62.745098 12.549020 13.427732 25.550758 5.591610
147 "L6" 12.549020 62.745098 25.098039 14.092462 25.816608 9.092769
148 "M6" 12.549020 62.745098 37.647059 15.278415 26.290917 15.339233
149 "N6" 12.549020 62.745098 50.196078 17.063543 27.004857 24.741571
150 "O6" 12.549020 62.745098 62.745098 19.512609 27.984333 37.640903
151 "P6" 12.549020 62.745098 75.294118 22.682188 29.251968 54.335200
152 "Q6" 12.549020 62.745098 87.843137 26.622481 30.827842 75.088879
153 "R6" 12.549020 62.745098 100.000000 31.218219 32.665853 99.294817
154 "S6" 25.098039 62.745098 0.000000 14.685714 26.229534 4.289591
155 "T6" 25.098039 62.745098 12.549020 14.946426 26.333803 5.662773
156 "U6" 25.098039 62.745098 25.098039 15.611156 26.599654 9.163931
157 "V6" 25.098039 62.745098 37.647059 16.797109 27.073962 15.410395
158 "W6" 25.098039 62.745098 50.196078 18.582237 27.787903 24.812733
159 "X6" 25.098039 62.745098 62.745098 21.031303 28.767378 37.712065
160 "Y6" 25.098039 62.745098 75.294118 24.200882 30.035014 54.406363
161 "Z6" 25.098039 62.745098 87.843137 28.141175 31.610887 75.160042
162 "AA6" 25.098039 62.745098 100.000000 32.736913 33.448899 99.365979
163 "A7" 0.000000 75.294118 0.000000 18.850692 37.696317 6.283653
164 "B7" 0.000000 75.294118 12.549020 19.111404 37.800585 7.656835
165 "C7" 0.000000 75.294118 25.098039 19.776134 38.066436 11.157993
166 "D7" 0.000000 75.294118 37.647059 20.962087 38.540744 17.404457
167 "E7" 0.000000 75.294118 50.196078 22.747215 39.254685 26.806796
168 "F7" 0.000000 75.294118 62.745098 25.196282 40.234160 39.706128
169 "G7" 0.000000 75.294118 75.294118 28.365860 41.501796 56.400425
170 "H7" 0.000000 75.294118 87.843137 32.306153 43.077670 77.154104
171 "I7" 0.000000 75.294118 100.000000 36.901891 44.915681 101.360042
172 "J7" 12.549020 75.294118 0.000000 19.446336 38.003433 6.311563
173 "K7" 12.549020 75.294118 12.549020 19.707048 38.107702 7.684745
174 "L7" 12.549020 75.294118 25.098039 20.371778 38.373553 11.185904
175 "M7" 12.549020 75.294118 37.647059 21.557731 38.847861 17.432368
176 "N7" 12.549020 75.294118 50.196078 23.342859 39.561802 26.834706
177 "O7" 12.549020 75.294118 62.745098 25.791925 40.541277 39.734038
178 "P7" 12.549020 75.294118 75.294118 28.961504 41.808913 56.428335
179 "Q7" 12.549020 75.294118 87.843137 32.901797 43.384786 77.182014
180 "R7" 12.549020 75.294118 100.000000 37.497535 45.222798 101.387952
181 "S7" 25.098039 75.294118 0.000000 20.965030 38.786479 6.382726
182 "T7" 25.098039 75.294118 12.549020 21.225742 38.890748 7.755908
183 "U7" 25.098039 75.294118 25.098039 21.890472 39.156598 11.257066
184 "V7" 25.098039 75.294118 37.647059 23.076425 39.630906 17.503530
185 "W7" 25.098039 75.294118 50.196078 24.861553 40.344847 26.905868
186 "X7" 25.098039 75.294118 62.745098 27.310620 41.324323 39.805200
187 "Y7" 25.098039 75.294118 75.294118 30.480198 42.591958 56.499498
188 "Z7" 25.098039 75.294118 87.843137 34.420491 44.167832 77.253177
189 "AA7" 25.098039 75.294118 100.000000 39.016229 46.005843 101.459114
190 "A8" 0.000000 87.843137 0.000000 26.656885 53.306605 8.885754
191 "B8" 0.000000 87.843137 12.549020 26.917597 53.410873 10.258936
192 "C8" 0.000000 87.843137 25.098039 27.582327 53.676724 13.760094
193 "D8" 0.000000 87.843137 37.647059 28.768281 54.151032 20.006558
194 "E8" 0.000000 87.843137 50.196078 30.553408 54.864973 29.408897
195 "F8" 0.000000 87.843137 62.745098 33.002475 55.844448 42.308229
196 "G8" 0.000000 87.843137 75.294118 36.172053 57.112084 59.002526
197 "H8" 0.000000 87.843137 87.843137 40.112346 58.687958 79.756205
198 "I8" 0.000000 87.843137 100.000000 44.708084 60.525969 103.962143
199 "J8" 12.549020 87.843137 0.000000 27.252529 53.613721 8.913665
200 "K8" 12.549020 87.843137 12.549020 27.513241 53.717990 10.286847
201 "L8" 12.549020 87.843137 25.098039 28.177971 53.983841 13.788005
202 "M8" 12.549020 87.843137 37.647059 29.363924 54.458149 20.034469
203 "N8" 12.549020 87.843137 50.196078 31.149052 55.172090 29.436807
204 "O8" 12.549020 87.843137 62.745098 33.598119 56.151565 42.336139
205 "P8" 12.549020 87.843137 75.294118 36.767697 57.419201 59.030437
206 "Q8" 12.549020 87.843137 87.843137 40.707990 58.995074 79.784116
207 "R8" 12.549020 87.843137 100.000000 45.303728 60.833086 103.990053
208 "S8" 25.098039 87.843137 0.000000 28.771223 54.396767 8.984827
209 "T8" 25.098039 87.843137 12.549020 29.031935 54.501036 10.358009
210 "U8" 25.098039 87.843137 25.098039 29.696665 54.766886 13.859167
211 "V8" 25.098039 87.843137 37.647059 30.882619 55.241195 20.105631
212 "W8" 25.098039 87.843137 50.196078 32.667746 55.955135 29.507970
213 "X8" 25.098039 87.843137 62.745098 35.116813 56.934611 42.407302
214 "Y8" 25.098039 87.843137 75.294118 38.286391 58.202246 59.101599
215 "Z8" 25.098039 87.843137 87.843137 42.226684 59.778120 79.855278
216 "AA8" 25.098039 87.843137 100.000000 46.822422 61.616131 104.061216
217 "A9" 0.000000 100.000000 0.000000 35.761595 71.513577 11.920700
218 "B9" 0.000000 100.000000 12.549020 36.022307 71.617846 13.293882
219 "C9" 0.000000 100.000000 25.098039 36.687037 71.883697 16.795041
220 "D9" 0.000000 100.000000 37.647059 37.872990 72.358005 23.041505
221 "E9" 0.000000 100.000000 50.196078 39.658118 73.071946 32.443843
222 "F9" 0.000000 100.000000 62.745098 42.107185 74.051421 45.343175
223 "G9" 0.000000 100.000000 75.294118 45.276763 75.319057 62.037473
224 "H9" 0.000000 100.000000 87.843137 49.217056 76.894930 82.791151
225 "I9" 0.000000 100.000000 100.000000 53.812794 78.732942 106.997089
226 "J9" 12.549020 100.000000 0.000000 36.357239 71.820694 11.948611
227 "K9" 12.549020 100.000000 12.549020 36.617951 71.924962 13.321793
228 "L9" 12.549020 100.000000 25.098039 37.282681 72.190813 16.822951
229 "M9" 12.549020 100.000000 37.647059 38.468634 72.665121 23.069415
230 "N9" 12.549020 100.000000 50.196078 40.253762 73.379062 32.471753
231 "O9" 12.549020 100.000000 62.745098 42.702829 74.358538 45.371086
232 "P9" 12.549020 100.000000 75.294118 45.872407 75.626173 62.065383
233 "Q9" 12.549020 100.000000 87.843137 49.812700 77.202047 82.819062
234 "R9" 12.549020 100.000000 100.000000 54.408438 79.040058 107.024999
235 "S9" 25.098039 100.000000 0.000000 37.875933 72.603739 12.019773
236 "T9" 25.098039 100.000000 12.549020 38.136645 72.708008 13.392955
237 "U9" 25.098039 100.000000 25.098039 38.801375 72.973859 16.894113
238 "V9" 25.098039 100.000000 37.647059 39.987328 73.448167 23.140577
239 "W9" 25.098039 100.000000 50.196078 41.772456 74.162108 32.542916
240 "X9" 25.098039 100.000000 62.745098 44.221523 75.141583 45.442248
241 "Y9" 25.098039 100.000000 75.294118 47.391101 76.409219 62.136545
242 "Z9" 25.098039 100.000000 87.843137 51.331394 77.985092 82.890224
243 "AA9" 25.098039 100.000000 100.000000 55.927132 79.823104 107.096162
244 "A10" 37.647059 0.000000 0.000000 4.823861 2.487204 0.226034
245 "B10" 37.647059 0.000000 12.549020 5.084573 2.591473 1.599216
246 "C10" 37.647059 0.000000 25.098039 5.749303 2.857324 5.100375
247 "D10" 37.647059 0.000000 37.647059 6.935256 3.331632 11.346839
248 "E10" 37.647059 0.000000 50.196078 8.720384 4.045573 20.749177
249 "F10" 37.647059 0.000000 62.745098 11.169451 5.025048 33.648509
250 "G10" 37.647059 0.000000 75.294118 14.339029 6.292684 50.342807
251 "H10" 37.647059 0.000000 87.843137 18.279322 7.868557 71.096485
252 "I10" 37.647059 0.000000 100.000000 22.875060 9.706569 95.302423
253 "J10" 50.196078 0.000000 0.000000 8.902304 4.590068 0.417140
254 "K10" 50.196078 0.000000 12.549020 9.163017 4.694337 1.790322
255 "L10" 50.196078 0.000000 25.098039 9.827746 4.960188 5.291481
256 "M10" 50.196078 0.000000 37.647059 11.013700 5.434496 11.537945
257 "N10" 50.196078 0.000000 50.196078 12.798827 6.148437 20.940283
258 "O10" 50.196078 0.000000 62.745098 15.247894 7.127912 33.839615
259 "P10" 50.196078 0.000000 75.294118 18.417473 8.395548 50.533913
260 "Q10" 50.196078 0.000000 87.843137 22.357765 9.971421 71.287591
261 "R10" 50.196078 0.000000 100.000000 26.953504 11.809433 95.493529
262 "S10" 62.745098 0.000000 0.000000 14.497636 7.475046 0.679324
263 "T10" 62.745098 0.000000 12.549020 14.758348 7.579315 2.052506
264 "U10" 62.745098 0.000000 25.098039 15.423078 7.845166 5.553664
265 "V10" 62.745098 0.000000 37.647059 16.609031 8.319474 11.800128
266 "W10" 62.745098 0.000000 50.196078 18.394159 9.033414 21.202467
267 "X10" 62.745098 0.000000 62.745098 20.843225 10.012890 34.101799
268 "Y10" 62.745098 0.000000 75.294118 24.012804 11.280525 50.796096
269 "Z10" 62.745098 0.000000 87.843137 27.953097 12.856399 71.549775
270 "AA10" 62.745098 0.000000 100.000000 32.548835 14.694410 95.755713
271 "A11" 37.647059 12.549020 0.000000 5.340363 3.520070 0.398204
272 "B11" 37.647059 12.549020 12.549020 5.601075 3.624339 1.771386
273 "C11" 37.647059 12.549020 25.098039 6.265805 3.890190 5.272545
274 "D11" 37.647059 12.549020 37.647059 7.451759 4.364498 11.519009
275 "E11" 37.647059 12.549020 50.196078 9.236886 5.078439 20.921347
276 "F11" 37.647059 12.549020 62.745098 11.685953 6.057914 33.820679
277 "G11" 37.647059 12.549020 75.294118 14.855532 7.325550 50.514976
278 "H11" 37.647059 12.549020 87.843137 18.795824 8.901423 71.268655
279 "I11" 37.647059 12.549020 100.000000 23.391563 10.739435 95.474593
280 "J11" 50.196078 12.549020 0.000000 9.418807 5.622934 0.589310
281 "K11" 50.196078 12.549020 12.549020 9.679519 5.727203 1.962492
282 "L11" 50.196078 12.549020 25.098039 10.344249 5.993054 5.463651
283 "M11" 50.196078 12.549020 37.647059 11.530202 6.467362 11.710115
284 "N11" 50.196078 12.549020 50.196078 13.315330 7.181302 21.112453
285 "O11" 50.196078 12.549020 62.745098 15.764396 8.160778 34.011785
286 "P11" 50.196078 12.549020 75.294118 18.933975 9.428413 50.706082
287 "Q11" 50.196078 12.549020 87.843137 22.874268 11.004287 71.459761
288 "R11" 50.196078 12.549020 100.000000 27.470006 12.842298 95.665699
289 "S11" 62.745098 12.549020 0.000000 15.014138 8.507912 0.851494
290 "T11" 62.745098 12.549020 12.549020 15.274850 8.612181 2.224676
291 "U11" 62.745098 12.549020 25.098039 15.939580 8.878031 5.725834
292 "V11" 62.745098 12.549020 37.647059 17.125533 9.352340 11.972298
293 "W11" 62.745098 12.549020 50.196078 18.910661 10.066280 21.374637
294 "X11" 62.745098 12.549020 62.745098 21.359728 11.045756 34.273969
295 "Y11" 62.745098 12.549020 75.294118 24.529306 12.313391 50.968266
296 "Z11" 62.745098 12.549020 87.843137 28.469599 13.889265 71.721945
297 "AA11" 62.745098 12.549020 100.000000 33.065337 15.727276 95.927883
298 "A12" 37.647059 25.098039 0.000000 6.657273 6.153535 0.837180
299 "B12" 37.647059 25.098039 12.549020 6.917985 6.257804 2.210362
300 "C12" 37.647059 25.098039 25.098039 7.582715 6.523655 5.711521
301 "D12" 37.647059 25.098039 37.647059 8.768668 6.997963 11.957985
302 "E12" 37.647059 25.098039 50.196078 10.553796 7.711904 21.360323
303 "F12" 37.647059 25.098039 62.745098 13.002862 8.691379 34.259655
304 "G12" 37.647059 25.098039 75.294118 16.172441 9.959015 50.953953
305 "H12" 37.647059 25.098039 87.843137 20.112734 11.534888 71.707631
306 "I12" 37.647059 25.098039 100.000000 24.708472 13.372900 95.913569
307 "J12" 50.196078 25.098039 0.000000 10.735716 8.256399 1.028286
308 "K12" 50.196078 25.098039 12.549020 10.996429 8.360668 2.401468
309 "L12" 50.196078 25.098039 25.098039 11.661158 8.626519 5.902627
310 "M12" 50.196078 25.098039 37.647059 12.847112 9.100827 12.149091
311 "N12" 50.196078 25.098039 50.196078 14.632239 9.814768 21.551429
312 "O12" 50.196078 25.098039 62.745098 17.081306 10.794243 34.450761
313 "P12" 50.196078 25.098039 75.294118 20.250885 12.061879 51.145059
314 "Q12" 50.196078 25.098039 87.843137 24.191177 13.637752 71.898737
315 "R12" 50.196078 25.098039 100.000000 28.786916 15.475764 96.104675
316 "S12" 62.745098 25.098039 0.000000 16.331048 11.141377 1.290470
317 "T12" 62.745098 25.098039 12.549020 16.591760 11.245646 2.663652
318 "U12" 62.745098 25.098039 25.098039 17.256490 11.511497 6.164810
319 "V12" 62.745098 25.098039 37.647059 18.442443 11.985805 12.411274
320 "W12" 62.745098 25.098039 50.196078 20.227571 12.699745 21.813613
321 "X12" 62.745098 25.098039 62.745098 22.676637 13.679221 34.712945
322 "Y12" 62.745098 25.098039 75.294118 25.846216 14.946856 51.407242
323 "Z12" 62.745098 25.098039 87.843137 29.786509 16.522730 72.160921
324 "AA12" 62.745098 25.098039 100.000000 34.382247 18.360741 96.366859
325 "A13" 37.647059 37.647059 0.000000 9.006789 10.851936 1.620364
326 "B13" 37.647059 37.647059 12.549020 9.267501 10.956205 2.993546
327 "C13" 37.647059 37.647059 25.098039 9.932231 11.222056 6.494704
328 "D13" 37.647059 37.647059 37.647059 11.118184 11.696364 12.741168
329 "E13" 37.647059 37.647059 50.196078 12.903312 12.410305 22.143506
330 "F13" 37.647059 37.647059 62.745098 15.352379 13.389780 35.042838
331 "G13" 37.647059 37.647059 75.294118 18.521957 14.657416 51.737136
332 "H13" 37.647059 37.647059 87.843137 22.462250 16.233289 72.490815
333 "I13" 37.647059 37.647059 100.000000 27.057988 18.071301 96.696752
334 "J13" 50.196078 37.647059 0.000000 13.085233 12.954800 1.811470
335 "K13" 50.196078 37.647059 12.549020 13.345945 13.059069 3.184652
336 "L13" 50.196078 37.647059 25.098039 14.010675 13.324919 6.685810
337 "M13" 50.196078 37.647059 37.647059 15.196628 13.799228 12.932274
338 "N13" 50.196078 37.647059 50.196078 16.981756 14.513168 22.334612
339 "O13" 50.196078 37.647059 62.745098 19.430822 15.492644 35.233944
340 "P13" 50.196078 37.647059 75.294118 22.600401 16.760279 51.928242
341 "Q13" 50.196078 37.647059 87.843137 26.540694 18.336153 72.681921
342 "R13" 50.196078 37.647059 100.000000 31.136432 20.174164 96.887858
343 "S13" 62.745098 37.647059 0.000000 18.680564 15.839778 2.073653
344 "T13" 62.745098 37.647059 12.549020 18.941276 15.944047 3.446835
345 "U13" 62.745098 37.647059 25.098039 19.606006 16.209897 6.947993
346 "V13" 62.745098 37.647059 37.647059 20.791959 16.684205 13.194457
