Example Targets Read/SpyderPrint Targets/Expert Target Plus Grays (4-pages, 967-patches)/Expert Target Plus Grays 1 of 4 (243-patches).ti2
CTI2

DESCRIPTOR "Argyll Calibration Target chart information 2"
ORIGINATOR "read_image_patch_colors.py (colormath backend)"
CREATED "Sat Nov 29 07:59:56 2025"
ACCURATE_EXPECTED_VALUES "true"
APPROX_WHITE_POINT "95.053991 99.997087 108.929552"
COLOR_REP "iRGB"
STEPS_IN_PASS "14"
PASSES_IN_STRIPS2 "18"
STRIP_INDEX_PATTERN "0-9,@-9;1-99"
PATCH_INDEX_PATTERN "A-Z, A-Z"
INDEX_ORDER "STRIP_THEN_PATCH"

NUMBER_OF_FIELDS 8
BEGIN_DATA_FORMAT
SAMPLE_ID SAMPLE_LOC RGB_R RGB_G RGB_B XYZ_X XYZ_Y XYZ_Z
END_DATA_FORMAT

NUMBER_OF_SETS 252
BEGIN_DATA
1 "A1" 0.000000 0.000000 0.000000 0.000000 0.000000 0.000000
2 "B1" 0.000000 0.000000 12.549020 0.260712 0.104269 1.373182
3 "C1" 0.000000 0.000000 25.098039 0.925442 0.370120 4.874340
4 "D1" 0.000000 0.000000 37.647059 2.111395 0.844428 11.120804
5 "E1" 0.000000 0.000000 50.196078 3.896523 1.558368 20.523143
6 "F1" 0.000000 0.000000 62.745098 6.345590 2.537844 33.422475
7 "G1" 0.000000 0.000000 75.294118 9.515168 3.805479 50.116772
8 "H1" 0.000000 0.000000 87.843137 13.455461 5.381353 70.870451
9 "I1" 0.000000 0.000000 100.000000 18.051199 7.219365 95.076389
10 "J1" 12.549020 0.000000 0.000000 0.595644 0.307117 0.027910
11 "K1" 12.549020 0.000000 12.549020 0.856356 0.411385 1.401092
12 "L1" 12.549020 0.000000 25.098039 1.521086 0.677236 4.902251
13 "M1" 12.549020 0.000000 37.647059 2.707039 1.151544 11.148715
14 "N1" 12.549020 0.000000 50.196078 4.492167 1.865485 20.551053
15 "O1" 12.549020 0.000000 62.745098 6.941234 2.844960 33.450385
16 "P1" 12.549020 0.000000 75.294118 10.110812 4.112596 50.144683
17 "Q1" 12.549020 0.000000 87.843137 14.051105 5.688470 70.898361
18 "R1" 12.549020 0.000000 100.000000 18.646843 7.526481 95.104299
19 "A2" 25.098039 0.000000 0.000000 2.114338 1.090162 0.099073
20 "B2" 25.098039 0.000000 12.549020 2.375050 1.194431 1.472255
21 "C2" 25.098039 0.000000 25.098039 3.039780 1.460282 4.973413
22 "D2" 25.098039 0.000000 37.647059 4.225733 1.934590 11.219877
23 "E2" 25.098039 0.000000 50.196078 6.010861 2.648531 20.622215
24 "F2" 25.098039 0.000000 62.745098 8.459928 3.628006 33.521547
25 "G2" 25.098039 0.000000 75.294118 11.629506 4.895642 50.215845
26 "H2" 25.098039 0.000000 87.843137 15.569799 6.471515 70.969524
27 "I2" 25.098039 0.000000 100.000000 20.165537 8.309527 95.175461
28 "J2" 0.000000 12.549020 0.000000 0.516502 1.032866 0.172170
29 "K2" 0.000000 12.549020 12.549020 0.777215 1.137135 1.545352
30 "L2" 0.000000 12.549020 25.098039 1.441944 1.402985 5.046510
31 "M2" 0.000000 12.549020 37.647059 2.627898 1.877294 11.292974
32 "N2" 0.000000 12.549020 50.196078 4.413025 2.591234 20.695312
33 "O2" 0.000000 12.549020 62.745098 6.862092 3.570710 33.594645
34 "P2" 0.000000 12.549020 75.294118 10.031671 4.838345 50.288942
35 "Q2" 0.000000 12.549020 87.843137 13.971963 6.414219 71.042621
36 "R2" 0.000000 12.549020 100.000000 18.567702 8.252230 95.248559
37 "A3" 12.549020 12.549020 0.000000 1.112146 1.339982 0.200080
38 "B3" 12.549020 12.549020 12.549020 1.372858 1.444251 1.573262
39 "C3" 12.549020 12.549020 25.098039 2.037588 1.710102 5.074421
40 "D3" 12.549020 12.549020 37.647059 3.223542 2.184410 11.320885
41 "E3" 12.549020 12.549020 50.196078 5.008669 2.898351 20.723223
42 "F3" 12.549020 12.549020 62.745098 7.457736 3.877826 33.622555
43 "G3" 12.549020 12.549020 75.294118 10.627315 5.145462 50.316852
44 "H3" 12.549020 12.549020 87.843137 14.567607 6.721336 71.070531
45 "I3" 12.549020 12.549020 100.000000 19.163346 8.559347 95.276469
46 "J3" 25.098039 12.549020 0.000000 2.630840 2.123028 0.271243
47 "K3" 25.098039 12.549020 12.549020 2.891553 2.227297 1.644425
48 "L3" 25.098039 12.549020 25.098039 3.556282 2.493148 5.145583
49 "M3" 25.098039 12.549020 37.647059 4.742236 2.967456 11.392047
50 "N3" 25.098039 12.549020 50.196078 6.527363 3.681396 20.794385
51 "O3" 25.098039 12.549020 62.745098 8.976430 4.660872 33.693717
52 "P3" 25.098039 12.549020 75.294118 12.146009 5.928507 50.388015
53 "Q3" 25.098039 12.549020 87.843137 16.086301 7.504381 71.141694
54 "R3" 25.098039 12.549020 100.000000 20.682040 9.342393 95.347631
55 "A4" 0.000000 25.098039 0.000000 1.833412 3.666331 0.611146
56 "B4" 0.000000 25.098039 12.549020 2.094124 3.770600 1.984328
57 "C4" 0.000000 25.098039 25.098039 2.758854 4.036451 5.485486
58 "D4" 0.000000 25.098039 37.647059 3.944807 4.510759 11.731950
59 "E4" 0.000000 25.098039 50.196078 5.729935 5.224699 21.134289
60 "F4" 0.000000 25.098039 62.745098 8.179002 6.204175 34.033621
61 "G4" 0.000000 25.098039 75.294118 11.348580 7.471810 50.727918
62 "H4" 0.000000 25.098039 87.843137 15.288873 9.047684 71.481597
63 "I4" 0.000000 25.098039 100.000000 19.884611 10.885695 95.687535
64 "J4" 12.549020 25.098039 0.000000 2.429056 3.973448 0.639056
65 "K4" 12.549020 25.098039 12.549020 2.689768 4.077716 2.012238
66 "L4" 12.549020 25.098039 25.098039 3.354498 4.343567 5.513397
67 "M4" 12.549020 25.098039 37.647059 4.540451 4.817875 11.759861
68 "N4" 12.549020 25.098039 50.196078 6.325579 5.531816 21.162199
69 "O4" 12.549020 25.098039 62.745098 8.774645 6.511291 34.061531
70 "P4" 12.549020 25.098039 75.294118 11.944224 7.778927 50.755828
71 "Q4" 12.549020 25.098039 87.843137 15.884517 9.354801 71.509507
72 "R4" 12.549020 25.098039 100.000000 20.480255 11.192812 95.715445
73 "A5" 25.098039 25.098039 0.000000 3.947750 4.756493 0.710219
74 "B5" 25.098039 25.098039 12.549020 4.208462 4.860762 2.083401
75 "C5" 25.098039 25.098039 25.098039 4.873192 5.126613 5.584559
76 "D5" 25.098039 25.098039 37.647059 6.059145 5.600921 11.831023
77 "E5" 25.098039 25.098039 50.196078 7.844273 6.314862 21.233361
78 "F5" 25.098039 25.098039 62.745098 10.293340 7.294337 34.132693
79 "G5" 25.098039 25.098039 75.294118 13.462918 8.561973 50.826991
80 "H5" 25.098039 25.098039 87.843137 17.403211 10.137846 71.580670
81 "I5" 25.098039 25.098039 100.000000 21.998949 11.975858 95.786607
82 "J5" 0.000000 37.647059 0.000000 4.182928 8.364732 1.394329
83 "K5" 0.000000 37.647059 12.549020 4.443640 8.469001 2.767511
84 "L5" 0.000000 37.647059 25.098039 5.108370 8.734851 6.268669
85 "M5" 0.000000 37.647059 37.647059 6.294324 9.209160 12.515133
86 "N5" 0.000000 37.647059 50.196078 8.079451 9.923100 21.917472
87 "O5" 0.000000 37.647059 62.745098 10.528518 10.902576 34.816804
88 "P5" 0.000000 37.647059 75.294118 13.698096 12.170211 51.511101
89 "Q5" 0.000000 37.647059 87.843137 17.638389 13.746085 72.264780
90 "R5" 0.000000 37.647059 100.000000 22.234127 15.584096 96.470718
91 "A6" 12.549020 37.647059 0.000000 4.778572 8.671848 1.422240
92 "B6" 12.549020 37.647059 12.549020 5.039284 8.776117 2.795421
93 "C6" 12.549020 37.647059 25.098039 5.704014 9.041968 6.296580
94 "D6" 12.549020 37.647059 37.647059 6.889967 9.516276 12.543044
95 "E6" 12.549020 37.647059 50.196078 8.675095 10.230217 21.945382
96 "F6" 12.549020 37.647059 62.745098 11.124162 11.209692 34.844714
97 "G6" 12.549020 37.647059 75.294118 14.293740 12.477328 51.539012
98 "H6" 12.549020 37.647059 87.843137 18.234033 14.053202 72.292691
99 "I6" 12.549020 37.647059 100.000000 22.829771 15.891213 96.498628
100 "J6" 25.098039 37.647059 0.000000 6.297266 9.454894 1.493402
101 "K6" 25.098039 37.647059 12.549020 6.557978 9.559163 2.866584
102 "L6" 25.098039 37.647059 25.098039 7.222708 9.825014 6.367742
103 "M6" 25.098039 37.647059 37.647059 8.408662 10.299322 12.614206
104 "N6" 25.098039 37.647059 50.196078 10.193789 11.013262 22.016544
105 "O6" 25.098039 37.647059 62.745098 12.642856 11.992738 34.915877
106 "P6" 25.098039 37.647059 75.294118 15.812434 13.260373 51.610174
107 "Q6" 25.098039 37.647059 87.843137 19.752727 14.836247 72.363853
108 "R6" 25.098039 37.647059 100.000000 24.348465 16.674258 96.569791
109 "A7" 0.000000 50.196078 0.000000 7.719480 15.436886 2.573197
110 "B7" 0.000000 50.196078 12.549020 7.980193 15.541154 3.946379
111 "C7" 0.000000 50.196078 25.098039 8.644922 15.807005 7.447537
112 "D7" 0.000000 50.196078 37.647059 9.830876 16.281313 13.694001
113 "E7" 0.000000 50.196078 50.196078 11.616003 16.995254 23.096339
114 "F7" 0.000000 50.196078 62.745098 14.065070 17.974730 35.995671
115 "G7" 0.000000 50.196078 75.294118 17.234649 19.242365 52.689969
116 "H7" 0.000000 50.196078 87.843137 21.174941 20.818239 73.443648
117 "I7" 0.000000 50.196078 100.000000 25.770680 22.656250 97.649585
118 "J7" 12.549020 50.196078 0.000000 8.315124 15.744002 2.601107
119 "K7" 12.549020 50.196078 12.549020 8.575836 15.848271 3.974289
120 "L7" 12.549020 50.196078 25.098039 9.240566 16.114122 7.475447
121 "M7" 12.549020 50.196078 37.647059 10.426520 16.588430 13.721911
122 "N7" 12.549020 50.196078 50.196078 12.211647 17.302371 23.124250
123 "O7" 12.549020 50.196078 62.745098 14.660714 18.281846 36.023582
124 "P7" 12.549020 50.196078 75.294118 17.830293 19.549482 52.717879
125 "Q7" 12.549020 50.196078 87.843137 21.770585 21.125355 73.471558
126 "R7" 12.549020 50.196078 100.000000 26.366324 22.963367 97.677496
127 "A8" 25.098039 50.196078 0.000000 9.833818 16.527048 2.672269
128 "B8" 25.098039 50.196078 12.549020 10.094531 16.631317 4.045451
129 "C8" 25.098039 50.196078 25.098039 10.759260 16.897167 7.546610
130 "D8" 25.098039 50.196078 37.647059 11.945214 17.371476 13.793074
131 "E8" 25.098039 50.196078 50.196078 13.730341 18.085416 23.195412
132 "F8" 25.098039 50.196078 62.745098 16.179408 19.064892 36.094744
133 "G8" 25.098039 50.196078 75.294118 19.348987 20.332527 52.789041
134 "H8" 25.098039 50.196078 87.843137 23.289279 21.908401 73.542720
135 "I8" 25.098039 50.196078 100.000000 27.885018 23.746412 97.748658
136 "J8" 0.000000 62.745098 0.000000 12.571376 25.139372 4.190518
137 "K8" 0.000000 62.745098 12.549020 12.832088 25.243641 5.563700
138 "L8" 0.000000 62.745098 25.098039 13.496818 25.509492 9.064858
139 "M8" 0.000000 62.745098 37.647059 14.682771 25.983800 15.311322
140 "N8" 0.000000 62.745098 50.196078 16.467899 26.697741 24.713660
141 "O8" 0.000000 62.745098 62.745098 18.916965 27.677216 37.612993
142 "P8" 0.000000 62.745098 75.294118 22.086544 28.944852 54.307290
143 "Q8" 0.000000 62.745098 87.843137 26.026837 30.520725 75.060969
144 "R8" 0.000000 62.745098 100.000000 30.622575 32.358737 99.266907
145 "A9" 12.549020 62.745098 0.000000 13.167020 25.446489 4.218428
146 "B9" 12.549020 62.745098 12.549020 13.427732 25.550758 5.591610
147 "C9" 12.549020 62.745098 25.098039 14.092462 25.816608 9.092769
148 "D9" 12.549020 62.745098 37.647059 15.278415 26.290917 15.339233
149 "E9" 12.549020 62.745098 50.196078 17.063543 27.004857 24.741571
150 "F9" 12.549020 62.745098 62.745098 19.512609 27.984333 37.640903
151 "G9" 12.549020 62.745098 75.294118 22.682188 29.251968 54.335200
152 "H9" 12.549020 62.745098 87.843137 26.622481 30.827842 75.088879
153 "I9" 12.549020 62.745098 100.000000 31.218219 32.665853 99.294817
154 "J9" 25.098039 62.745098 0.000000 14.685714 26.229534 4.289591
155 "K9" 25.098039 62.745098 12.549020 14.946426 26.333803 5.662773
156 "L9" 25.098039 62.745098 25.098039 15.611156 26.599654 9.163931
157 "M9" 25.098039 62.745098 37.647059 16.797109 27.073962 15.410395
158 "N9" 25.098039 62.745098 50.196078 18.582237 27.787903 24.812733
159 "O9" 25.098039 62.745098 62.745098 21.031303 28.767378 37.712065
160 "P9" 25.098039 62.745098 75.294118 24.200882 30.035014 54.406363
161 "Q9" 25.098039 62.745098 87.843137 28.141175 31.610887 75.160042
162 "R9" 25.098039 62.745098 100.000000 32.736913 33.448899 99.365979
163 "A10" 0.000000 75.294118 0.000000 18.850692 37.696317 6.283653
164 "B10" 0.000000 75.294118 12.549020 19.111404 37.800585 7.656835
165 "C10" 0.000000 75.294118 25.098039 19.776134 38.066436 11.157993
166 "D10" 0.000000 75.294118 37.647059 20.962087 38.540744 17.404457
167 "E10" 0.000000 75.294118 50.196078 22.747215 39.254685 26.806796
168 "F10" 0.000000 75.294118 62.745098 25.196282 40.234160 39.706128
169 "G10" 0.000000 75.294118 75.294118 28.365860 41.501796 56.400425
170 "H10" 0.000000 75.294118 87.843137 32.306153 43.077670 77.154104
171 "I10" 0.000000 75.294118 100.000000 36.901891 44.915681 101.360042
172 "J10" 12.549020 75.294118 0.000000 19.446336 38.003433 6.311563
173 "K10" 12.549020 75.294118 12.549020 19.707048 38.107702 7.684745
174 "L10" 12.549020 75.294118 25.098039 20.371778 38.373553 11.185904
175 "M10" 12.549020 75.294118 37.647059 21.557731 38.847861 17.432368
176 "N10" 12.549020 75.294118 50.196078 23.342859 39.561802 26.834706
177 "O10" 12.549020 75.294118 62.745098 25.791925 40.541277 39.734038
178 "P10" 12.549020 75.294118 75.294118 28.961504 41.808913 56.428335
179 "Q10" 12.549020 75.294118 87.843137 32.901797 43.384786 77.182014
180 "R10" 12.549020 75.294118 100.000000 37.497535 45.222798 101.387952
181 "A11" 25.098039 75.294118 0.000000 20.965030 38.786479 6.382726
182 "B11" 25.098039 75.294118 12.549020 21.225742 38.890748 7.755908
183 "C11" 25.098039 75.294118 25.098039 21.890472 39.156598 11.257066
184 "D11" 25.098039 75.294118 37.647059 23.076425 39.630906 17.503530
185 "E11" 25.098039 75.294118 50.196078 24.861553 40.344847 26.905868
186 "F11" 25.098039 75.294118 62.745098 27.310620 41.324323 39.805200
187 "G11" 25.098039 75.294118 75.294118 30.480198 42.591958 56.499498
188 "H11" 25.098039 75.294118 87.843137 34.420491 44.167832 77.253177
189 "I11" 25.098039 75.294118 100.000000 39.016229 46.005843 101.459114
190 "J11" 0.000000 87.843137 0.000000 26.656885 53.306605 8.885754
191 "K11" 0.000000 87.843137 12.549020 26.917597 53.410873 10.258936
192 "L11" 0.000000 87.843137 25.098039 27.582327 53.676724 13.760094
193 "M11" 0.000000 87.843137 37.647059 28.768281 54.151032 20.006558
194 "N11" 0.000000 87.843137 50.196078 30.553408 54.864973 29.408897
195 "O11" 0.000000 87.843137 62.745098 33.002475 55.844448 42.308229
196 "P11" 0.000000 87.843137 75.294118 36.172053 57.112084 59.002526
197 "Q11" 0.000000 87.843137 87.843137 40.112346 58.687958 79.756205
198 "R11" 0.000000 87.843137 100.000000 44.708084 60.525969 103.962143
199 "A12" 12.549020 87.843137 0.000000 27.252529 53.613721 8.913665
200 "B12" 12.549020 87.843137 12.549020 27.513241 53.717990 10.286847
201 "C12" 12.549020 87.843137 25.098039 28.177971 53.983841 13.788005
202 "D12" 12.549020 87.843137 37.647059 29.363924 54.458149 20.034469
203 "E12" 12.549020 87.843137 50.196078 31.149052 55.172090 29.436807
204 "F12" 12.549020 87.843137 62.745098 33.598119 56.151565 42.336139
205 "G12" 12.549020 87.843137 75.294118 36.767697 57.419201 59.030437
206 "H12" 12.549020 87.843137 87.843137 40.707990 58.995074 79.784116
207 "I12" 12.549020 87.843137 100.000000 45.303728 60.833086 103.990053
208 "J12" 25.098039 87.843137 0.000000 28.771223 54.396767 8.984827
209 "K12" 25.098039 87.843137 12.549020 29.031935 54.501036 10.358009
210 "L12" 25.098039 87.843137 25.098039 29.696665 54.766886 13.859167
211 "M12" 25.098039 87.843137 37.647059 30.882619 55.241195 20.105631
212 "N12" 25.098039 87.843137 50.196078 32.667746 55.955135 29.507970
213 "O12" 25.098039 87.843137 62.745098 35.116813 56.934611 42.407302
214 "P12" 25.098039 87.843137 75.294118 38.286391 58.202246 59.101599
215 "Q12" 25.098039 87.843137 87.843137 42.226684 59.778120 79.855278
216 "R12" 25.098039 87.843137 100.000000 46.822422 61.616131 104.061216
217 "A13" 0.000000 100.000000 0.000000 35.761595 71.513577 11.920700
218 "B13" 0.000000 100.000000 12.549020 36.022307 71.617846 13.293882
219 "C13" 0.000000 100.000000 25.098039 36.687037 71.883697 16.795041
220 "D13" 0.000000 100.000000 37.647059 37.872990 72.358005 23.041505
221 "E13" 0.000000 100.000000 50.196078 39.658118 73.071946 32.443843
222 "F13" 0.000000 100.000000 62.745098 42.107185 74.051421 45.343175
223 "G13" 0.000000 100.000000 75.294118 45.276763 75.319057 62.037473
224 "H13" 0.000000 100.000000 87.843137 49.217056 76.894930 82.791151
225 "I13" 0.000000 100.000000 100.000000 53.812794 78.732942 106.997089
226 "J13" 12.549020 100.000000 0.000000 36.357239 71.820694 11.948611
227 "K13" 12.549020 100.000000 12.549020 36.617951 71.924962 13.321793
228 "L13" 12.549020 100.000000 25.098039 37.282681 72.190813 16.822951
229 "M13" 12.549020 100.000000 37.647059 38.468634 72.665121 23.069415
230 "N13" 12.549020 100.000000 50.196078 40.253762 73.379062 32.471753
231 "O13" 12.549020 100.000000 62.745098 42.702829 74.358538 45.371086
232 "P13" 12.549020 100.000000 75.294118 45.872407 75.626173 62.065383
233 "Q13" 12.549020 100.000000 87.843137 49.812700 77.202047 82.819062
234 "R13" 12.549020 100.000000 100.000000 54.408438 79.040058 107.024999
235 "A14" 25.098039 100.000000 0.000000 37.875933 72.603739 12.019773
236 "B14" 25.098039 100.000000 12.549020 38.136645 72.708008 13.392955
237 "C14" 25.098039 100.000000 25.098039 38.801375 72.973859 16.894113
238 "D14" 25.098039 100.000000 37.647059 39.987328 73.448167 23.140577
239 "E14" 25.098039 100.000000 50.196078 41.772456 74.162108 32.542916
240 "F14" 25.098039 100.000000 62.745098 44.221523 75.141583 45.442248
241 "G14" 25.098039 100.000000 75.294118 47.391101 76.409219 62.136545
242 "H14" 25.098039 100.000000 87.843137 51.331394 77.985092 82.890224
243 "I14" 25.098039 100.000000 100.000000 55.927132 79.823104 107.096162
244 "J14" 100.000000 100.000000 100.000000 95.053991 99.997087 108.929552
245 "K14" 100.000000 100.000000 100.000000 95.053991 99.997087 108.929552
246 "L14" 100.000000 100.000000 100.000000 95.053991 99.997087 108.929552
247 "M14" 100.000000 100.000000 100.000000 95.053991 99.997087 108.929552
248 "N14" 100.000000 100.000000 100.000000 95.053991 99.997087 108.929552
249 "O14" 100.000000 100.000000 100.000000 95.053991 99.997087 108.929552
250 "P14" 100.000000 100.000000 100.000000 95.053991 99.997087 108.929552
251 "Q14" 100.000000 100.000000 100.000000 95.053991 99.997087 108.929552
252 "R14" 100.000000 100.000000 100.000000 95.053991 99.997087 108.929552
END_DATA
