Example Targets Read/SpyderPrint Targets/Expert Target Plus Grays (4-pages, 967-patches)/Expert Target Plus Grays 3 of 4 (243-patches).ti1
CTI1

DESCRIPTOR "Argyll Calibration Target chart information 1"
ORIGINATOR "read_image_patch_colors.py"
CREATED "Sun Nov 30 22:58:15 2025"
ACCURATE_EXPECTED_VALUES "true"
APPROX_WHITE_POINT "95.053991 99.997087 108.929552"
COLOR_REP "iRGB"
WHITE_COLOR_PATCHES "10"
BLACK_COLOR_PATCHES "1"
NEUTRAL_STEPS "2"
SINGLE_DIM_STEPS "9"

NUMBER_OF_FIELDS 7
BEGIN_DATA_FORMAT
SAMPLE_ID RGB_R RGB_G RGB_B XYZ_X XYZ_Y XYZ_Z
END_DATA_FORMAT

NUMBER_OF_SETS 252
BEGIN_DATA
1 75.294118 0.000000 0.000000 21.739106 11.208780 1.018642
2 75.294118 0.000000 12.549020 21.999818 11.313049 2.391824
3 75.294118 0.000000 25.098039 22.664548 11.578900 5.892982
4 75.294118 0.000000 37.647059 23.850501 12.053208 12.139446
5 75.294118 0.000000 50.196078 25.635629 12.767149 21.541784
6 75.294118 0.000000 62.745098 28.084695 13.746624 34.441117
7 75.294118 0.000000 75.294118 31.254274 15.014260 51.135414
8 75.294118 0.000000 87.843137 35.194567 16.590133 71.889093
9 75.294118 0.000000 100.000000 39.790305 18.428145 96.095031
10 87.843137 0.000000 0.000000 30.741409 15.850409 1.440468
11 87.843137 0.000000 12.549020 31.002122 15.954677 2.813650
12 87.843137 0.000000 25.098039 31.666852 16.220528 6.314808
13 87.843137 0.000000 37.647059 32.852805 16.694836 12.561272
14 87.843137 0.000000 50.196078 34.637933 17.408777 21.963611
15 87.843137 0.000000 62.745098 37.086999 18.388252 34.862943
16 87.843137 0.000000 75.294118 40.256578 19.655888 51.557240
17 87.843137 0.000000 87.843137 44.196870 21.231762 72.310919
18 87.843137 0.000000 100.000000 48.792609 23.069773 96.516857
19 100.000000 0.000000 0.000000 41.241196 21.264146 1.932463
20 100.000000 0.000000 12.549020 41.501909 21.368415 3.305645
21 100.000000 0.000000 25.098039 42.166639 21.634265 6.806803
22 100.000000 0.000000 37.647059 43.352592 22.108573 13.053267
23 100.000000 0.000000 50.196078 45.137720 22.822514 22.455605
24 100.000000 0.000000 62.745098 47.586786 23.801990 35.354937
25 100.000000 0.000000 75.294118 50.756365 25.069625 52.049235
26 100.000000 0.000000 87.843137 54.696657 26.645499 72.802914
27 100.000000 0.000000 100.000000 59.292396 28.483510 97.008851
28 75.294118 12.549020 0.000000 22.255608 12.241646 1.190812
29 75.294118 12.549020 12.549020 22.516320 12.345915 2.563994
30 75.294118 12.549020 25.098039 23.181050 12.611766 6.065152
31 75.294118 12.549020 37.647059 24.367003 13.086074 12.311616
32 75.294118 12.549020 50.196078 26.152131 13.800015 21.713954
33 75.294118 12.549020 62.745098 28.601198 14.779490 34.613286
34 75.294118 12.549020 75.294118 31.770776 16.047126 51.307584
35 75.294118 12.549020 87.843137 35.711069 17.622999 72.061263
36 75.294118 12.549020 100.000000 40.306807 19.461011 96.267200
37 87.843137 12.549020 0.000000 31.257912 16.883274 1.612638
38 87.843137 12.549020 12.549020 31.518624 16.987543 2.985820
39 87.843137 12.549020 25.098039 32.183354 17.253394 6.486978
40 87.843137 12.549020 37.647059 33.369307 17.727702 12.733442
41 87.843137 12.549020 50.196078 35.154435 18.441643 22.135781
42 87.843137 12.549020 62.745098 37.603502 19.421118 35.035113
43 87.843137 12.549020 75.294118 40.773080 20.688754 51.729410
44 87.843137 12.549020 87.843137 44.713373 22.264627 72.483089
45 87.843137 12.549020 100.000000 49.309111 24.102639 96.689027
46 100.000000 12.549020 0.000000 41.757699 22.297012 2.104633
47 100.000000 12.549020 12.549020 42.018411 22.401280 3.477815
48 100.000000 12.549020 25.098039 42.683141 22.667131 6.978973
49 100.000000 12.549020 37.647059 43.869094 23.141439 13.225437
50 100.000000 12.549020 50.196078 45.654222 23.855380 22.627775
51 100.000000 12.549020 62.745098 48.103289 24.834855 35.527107
52 100.000000 12.549020 75.294118 51.272867 26.102491 52.221405
53 100.000000 12.549020 87.843137 55.213160 27.678365 72.975084
54 100.000000 12.549020 100.000000 59.808898 29.516376 97.181021
55 75.294118 25.098039 0.000000 23.572517 14.875111 1.629788
56 75.294118 25.098039 12.549020 23.833230 14.979380 3.002970
57 75.294118 25.098039 25.098039 24.497959 15.245231 6.504128
58 75.294118 25.098039 37.647059 25.683913 15.719539 12.750592
59 75.294118 25.098039 50.196078 27.469040 16.433480 22.152930
60 75.294118 25.098039 62.745098 29.918107 17.412955 35.052263
61 75.294118 25.098039 75.294118 33.087686 18.680591 51.746560
62 75.294118 25.098039 87.843137 37.027978 20.256464 72.500239
63 75.294118 25.098039 100.000000 41.623717 22.094476 96.706176
64 87.843137 25.098039 0.000000 32.574821 19.516739 2.051614
65 87.843137 25.098039 12.549020 32.835534 19.621008 3.424796
66 87.843137 25.098039 25.098039 33.500263 19.886859 6.925954
67 87.843137 25.098039 37.647059 34.686217 20.361167 13.172418
68 87.843137 25.098039 50.196078 36.471344 21.075108 22.574757
69 87.843137 25.098039 62.745098 38.920411 22.054583 35.474089
70 87.843137 25.098039 75.294118 42.089990 23.322219 52.168386
71 87.843137 25.098039 87.843137 46.030282 24.898093 72.922065
72 87.843137 25.098039 100.000000 50.626021 26.736104 97.128003
73 100.000000 25.098039 0.000000 43.074608 24.930477 2.543609
74 100.000000 25.098039 12.549020 43.335321 25.034745 3.916791
75 100.000000 25.098039 25.098039 44.000050 25.300596 7.417949
76 100.000000 25.098039 37.647059 45.186004 25.774904 13.664413
77 100.000000 25.098039 50.196078 46.971131 26.488845 23.066751
78 100.000000 25.098039 62.745098 49.420198 27.468321 35.966083
79 100.000000 25.098039 75.294118 52.589777 28.735956 52.660381
80 100.000000 25.098039 87.843137 56.530069 30.311830 73.414060
81 100.000000 25.098039 100.000000 61.125808 32.149841 97.619997
82 75.294118 37.647059 0.000000 25.922034 19.573512 2.412971
83 75.294118 37.647059 12.549020 26.182746 19.677781 3.786153
84 75.294118 37.647059 25.098039 26.847476 19.943632 7.287311
85 75.294118 37.647059 37.647059 28.033429 20.417940 13.533775
86 75.294118 37.647059 50.196078 29.818557 21.131881 22.936114
87 75.294118 37.647059 62.745098 32.267623 22.111356 35.835446
88 75.294118 37.647059 75.294118 35.437202 23.378992 52.529743
89 75.294118 37.647059 87.843137 39.377495 24.954865 73.283422
90 75.294118 37.647059 100.000000 43.973233 26.792877 97.489360
91 87.843137 37.647059 0.000000 34.924338 24.215140 2.834797
92 87.843137 37.647059 12.549020 35.185050 24.319409 4.207979
93 87.843137 37.647059 25.098039 35.849780 24.585260 7.709137
94 87.843137 37.647059 37.647059 37.035733 25.059568 13.955601
95 87.843137 37.647059 50.196078 38.820861 25.773509 23.357940
96 87.843137 37.647059 62.745098 41.269927 26.752984 36.257272
97 87.843137 37.647059 75.294118 44.439506 28.020620 52.951569
98 87.843137 37.647059 87.843137 48.379799 29.596493 73.705248
99 87.843137 37.647059 100.000000 52.975537 31.434505 97.911186
100 100.000000 37.647059 0.000000 45.424125 29.628878 3.326792
101 100.000000 37.647059 12.549020 45.684837 29.733146 4.699974
102 100.000000 37.647059 25.098039 46.349567 29.998997 8.201132
103 100.000000 37.647059 37.647059 47.535520 30.473305 14.447596
104 100.000000 37.647059 50.196078 49.320648 31.187246 23.849934
105 100.000000 37.647059 62.745098 51.769714 32.166721 36.749266
106 100.000000 37.647059 75.294118 54.939293 33.434357 53.443564
107 100.000000 37.647059 87.843137 58.879586 35.010231 74.197243
108 100.000000 37.647059 100.000000 63.475324 36.848242 98.403180
109 75.294118 50.196078 0.000000 29.458586 26.645666 3.591838
110 75.294118 50.196078 12.549020 29.719298 26.749935 4.965020
111 75.294118 50.196078 25.098039 30.384028 27.015786 8.466179
112 75.294118 50.196078 37.647059 31.569981 27.490094 14.712643
113 75.294118 50.196078 50.196078 33.355109 28.204034 24.114981
114 75.294118 50.196078 62.745098 35.804176 29.183510 37.014313
115 75.294118 50.196078 75.294118 38.973754 30.451145 53.708611
116 75.294118 50.196078 87.843137 42.914047 32.027019 74.462289
117 75.294118 50.196078 100.000000 47.509785 33.865030 98.668227
118 87.843137 50.196078 0.000000 38.460890 31.287294 4.013665
119 87.843137 50.196078 12.549020 38.721602 31.391563 5.386847
120 87.843137 50.196078 25.098039 39.386332 31.657414 8.888005
121 87.843137 50.196078 37.647059 40.572285 32.131722 15.134469
122 87.843137 50.196078 50.196078 42.357413 32.845663 24.536807
123 87.843137 50.196078 62.745098 44.806480 33.825138 37.436139
124 87.843137 50.196078 75.294118 47.976058 35.092774 54.130437
125 87.843137 50.196078 87.843137 51.916351 36.668647 74.884116
126 87.843137 50.196078 100.000000 56.512089 38.506659 99.090053
127 100.000000 50.196078 0.000000 48.960677 36.701031 4.505659
128 100.000000 50.196078 12.549020 49.221389 36.805300 5.878841
129 100.000000 50.196078 25.098039 49.886119 37.071151 9.379999
130 100.000000 50.196078 37.647059 51.072072 37.545459 15.626463
131 100.000000 50.196078 50.196078 52.857200 38.259400 25.028802
132 100.000000 50.196078 62.745098 55.306267 39.238875 37.928134
133 100.000000 50.196078 75.294118 58.475845 40.506511 54.622431
134 100.000000 50.196078 87.843137 62.416138 42.082385 75.376110
135 100.000000 50.196078 100.000000 67.011876 43.920396 99.582048
136 75.294118 62.745098 0.000000 34.310481 36.348152 5.209160
137 75.294118 62.745098 12.549020 34.571194 36.452421 6.582342
138 75.294118 62.745098 25.098039 35.235923 36.718272 10.083500
139 75.294118 62.745098 37.647059 36.421877 37.192580 16.329964
140 75.294118 62.745098 50.196078 38.207004 37.906521 25.732302
141 75.294118 62.745098 62.745098 40.656071 38.885996 38.631634
142 75.294118 62.745098 75.294118 43.825650 40.153632 55.325932
143 75.294118 62.745098 87.843137 47.765942 41.729506 76.079611
144 75.294118 62.745098 100.000000 52.361681 43.567517 100.285548
145 87.843137 62.745098 0.000000 43.312785 40.989781 5.630986
146 87.843137 62.745098 12.549020 43.573497 41.094049 7.004168
147 87.843137 62.745098 25.098039 44.238227 41.359900 10.505326
148 87.843137 62.745098 37.647059 45.424181 41.834208 16.751790
149 87.843137 62.745098 50.196078 47.209308 42.548149 26.154129
150 87.843137 62.745098 62.745098 49.658375 43.527625 39.053461
151 87.843137 62.745098 75.294118 52.827954 44.795260 55.747758
152 87.843137 62.745098 87.843137 56.768246 46.371134 76.501437
153 87.843137 62.745098 100.000000 61.363985 48.209145 100.707375
154 100.000000 62.745098 0.000000 53.812572 46.403518 6.122981
155 100.000000 62.745098 12.549020 54.073284 46.507787 7.496163
156 100.000000 62.745098 25.098039 54.738014 46.773638 10.997321
157 100.000000 62.745098 37.647059 55.923968 47.247946 17.243785
158 100.000000 62.745098 50.196078 57.709095 47.961886 26.646123
159 100.000000 62.745098 62.745098 60.158162 48.941362 39.545455
160 100.000000 62.745098 75.294118 63.327741 50.208997 56.239753
161 100.000000 62.745098 87.843137 67.268033 51.784871 76.993432
162 100.000000 62.745098 100.000000 71.863772 53.622882 101.199369
163 75.294118 75.294118 0.000000 40.589797 48.905097 7.302295
164 75.294118 75.294118 12.549020 40.850510 49.009366 8.675477
165 75.294118 75.294118 25.098039 41.515239 49.275216 12.176635
166 75.294118 75.294118 37.647059 42.701193 49.749525 18.423099
167 75.294118 75.294118 50.196078 44.486320 50.463465 27.825437
168 75.294118 75.294118 62.745098 46.935387 51.442941 40.724769
169 75.294118 75.294118 75.294118 50.104966 52.710576 57.419067
170 75.294118 75.294118 87.843137 54.045258 54.286450 78.172746
171 75.294118 75.294118 100.000000 58.640997 56.124461 102.378683
172 87.843137 75.294118 0.000000 49.592101 53.546725 7.724121
173 87.843137 75.294118 12.549020 49.852814 53.650994 9.097303
174 87.843137 75.294118 25.098039 50.517543 53.916845 12.598461
175 87.843137 75.294118 37.647059 51.703497 54.391153 18.844925
176 87.843137 75.294118 50.196078 53.488624 55.105094 28.247264
177 87.843137 75.294118 62.745098 55.937691 56.084569 41.146596
178 87.843137 75.294118 75.294118 59.107270 57.352205 57.840893
179 87.843137 75.294118 87.843137 63.047562 58.928078 78.594572
180 87.843137 75.294118 100.000000 67.643301 60.766090 102.800510
181 100.000000 75.294118 0.000000 60.091888 58.960462 8.216116
182 100.000000 75.294118 12.549020 60.352601 59.064731 9.589298
183 100.000000 75.294118 25.098039 61.017330 59.330582 13.090456
184 100.000000 75.294118 37.647059 62.203284 59.804890 19.336920
185 100.000000 75.294118 50.196078 63.988411 60.518831 28.739258
186 100.000000 75.294118 62.745098 66.437478 61.498306 41.638590
187 100.000000 75.294118 75.294118 69.607057 62.765942 58.332888
188 100.000000 75.294118 87.843137 73.547349 64.341815 79.086567
189 100.000000 75.294118 100.000000 78.143088 66.179827 103.292504
190 75.294118 87.843137 0.000000 48.395991 64.515385 9.904396
191 75.294118 87.843137 12.549020 48.656703 64.619654 11.277578
192 75.294118 87.843137 25.098039 49.321433 64.885505 14.778736
193 75.294118 87.843137 37.647059 50.507386 65.359813 21.025200
194 75.294118 87.843137 50.196078 52.292514 66.073753 30.427539
195 75.294118 87.843137 62.745098 54.741580 67.053229 43.326871
196 75.294118 87.843137 75.294118 57.911159 68.320864 60.021168
197 75.294118 87.843137 87.843137 61.851452 69.896738 80.774847
198 75.294118 87.843137 100.000000 66.447190 71.734749 104.980785
199 87.843137 87.843137 0.000000 57.398295 69.157013 10.326222
200 87.843137 87.843137 12.549020 57.659007 69.261282 11.699404
201 87.843137 87.843137 25.098039 58.323737 69.527133 15.200562
202 87.843137 87.843137 37.647059 59.509690 70.001441 21.447026
203 87.843137 87.843137 50.196078 61.294818 70.715382 30.849365
204 87.843137 87.843137 62.745098 63.743884 71.694857 43.748697
205 87.843137 87.843137 75.294118 66.913463 72.962493 60.442994
206 87.843137 87.843137 87.843137 70.853756 74.538366 81.196673
207 87.843137 87.843137 100.000000 75.449494 76.376378 105.402611
208 100.000000 87.843137 0.000000 67.898082 74.570750 10.818217
209 100.000000 87.843137 12.549020 68.158794 74.675019 12.191399
210 100.000000 87.843137 25.098039 68.823524 74.940870 15.692557
211 100.000000 87.843137 37.647059 70.009477 75.415178 21.939021
212 100.000000 87.843137 50.196078 71.794605 76.129119 31.341359
213 100.000000 87.843137 62.745098 74.243671 77.108594 44.240692
214 100.000000 87.843137 75.294118 77.413250 78.376230 60.934989
215 100.000000 87.843137 87.843137 81.353543 79.952103 81.688668
216 100.000000 87.843137 100.000000 85.949281 81.790115 105.894606
217 75.294118 100.000000 0.000000 57.500700 82.722357 12.939342
218 75.294118 100.000000 12.549020 57.761413 82.826626 14.312524
219 75.294118 100.000000 25.098039 58.426143 83.092477 17.813683
220 75.294118 100.000000 37.647059 59.612096 83.566785 24.060147
221 75.294118 100.000000 50.196078 61.397224 84.280726 33.462485
222 75.294118 100.000000 62.745098 63.846290 85.260201 46.361817
223 75.294118 100.000000 75.294118 67.015869 86.527837 63.056114
224 75.294118 100.000000 87.843137 70.956161 88.103710 83.809793
225 75.294118 100.000000 100.000000 75.551900 89.941722 108.015731
226 87.843137 100.000000 0.000000 66.503004 87.363986 13.361169
227 87.843137 100.000000 12.549020 66.763717 87.468254 14.734350
228 87.843137 100.000000 25.098039 67.428446 87.734105 18.235509
229 87.843137 100.000000 37.647059 68.614400 88.208413 24.481973
230 87.843137 100.000000 50.196078 70.399527 88.922354 33.884311
231 87.843137 100.000000 62.745098 72.848594 89.901829 46.783643
232 87.843137 100.000000 75.294118 76.018173 91.169465 63.477941
233 87.843137 100.000000 87.843137 79.958465 92.745339 84.231620
234 87.843137 100.000000 100.000000 84.554204 94.583350 108.437557
235 100.000000 100.000000 0.000000 77.002791 92.777723 13.853163
236 100.000000 100.000000 12.549020 77.263504 92.881992 15.226345
237 100.000000 100.000000 25.098039 77.928233 93.147842 18.727503
238 100.000000 100.000000 37.647059 79.114187 93.622151 24.973967
239 100.000000 100.000000 50.196078 80.899314 94.336091 34.376306
240 100.000000 100.000000 62.745098 83.348381 95.315567 47.275638
241 100.000000 100.000000 75.294118 86.517960 96.583202 63.969935
242 100.000000 100.000000 87.843137 90.458252 98.159076 84.723614
243 100.000000 100.000000 100.000000 95.053991 99.997087 108.929552
244 100.000000 100.000000 100.000000 95.053991 99.997087 108.929552
245 100.000000 100.000000 100.000000 95.053991 99.997087 108.929552
246 100.000000 100.000000 100.000000 95.053991 99.997087 108.929552
247 100.000000 100.000000 100.000000 95.053991 99.997087 108.929552
248 100.000000 100.000000 100.000000 95.053991 99.997087 108.929552
249 100.000000 100.000000 100.000000 95.053991 99.997087 108.929552
250 100.000000 100.000000 100.000000 95.053991 99.997087 108.929552
251 100.000000 100.000000 100.000000 95.053991 99.997087 108.929552
252 100.000000 100.000000 100.000000 95.053991 99.997087 108.929552
END_DATA

CTI1

DESCRIPTOR "Argyll Calibration Target chart information 1"
ORIGINATOR "Argyll targen"
DENSITY_EXTREME_VALUES "8"
CREATED "Sun Nov 30 22:58:15 2025"

NUMBER_OF_FIELDS "7"
BEGIN_DATA_FORMAT
INDEX RGB_R RGB_G RGB_B XYZ_X XYZ_Y XYZ_Z
END_DATA_FORMAT

NUMBER_OF_SETS "8"
BEGIN_DATA
0 0.000000 49.995270 43.750000 10.553522 16.464078 17.827876
1 0.000000 50.001230 50.000000 11.518815 16.853276 22.902426
2 0.000000 40.085320 59.909980 10.503940 11.836369 31.777250
3 0.000000 0.000000 78.363740 10.405823 4.161686 54.807888
4 30.559800 50.011200 0.000000 10.794151 16.931419 2.699745
5 0.000000 32.571370 0.000000 3.097963 6.195092 1.032669
6 100.000000 0.000000 0.000000 41.241196 21.264146 1.932463
7 0.000000 0.000000 21.872990 0.708368 0.283303 3.731003
END_DATA

CTI1

DESCRIPTOR "Argyll Calibration Target chart information 1"
ORIGINATOR "Argyll targen"
DEVICE_COMBINATION_VALUES "9"
CREATED "Sun Nov 30 22:58:15 2025"

NUMBER_OF_FIELDS "7"
BEGIN_DATA_FORMAT
INDEX RGB_R RGB_G RGB_B XYZ_X XYZ_Y XYZ_Z
END_DATA_FORMAT

NUMBER_OF_SETS "9"
BEGIN_DATA
0 100.000000 100.000000 100.000000 95.053991 99.997087 108.929552
1 0.000000 100.000000 100.000000 53.812794 78.732942 106.997089
2 100.000000 0.000000 100.000000 59.292396 28.483510 97.008851
3 0.000000 0.000000 100.000000 18.051199 7.219365 95.076389
4 100.000000 100.000000 0.000000 77.002791 92.777723 13.853163
5 0.000000 100.000000 0.000000 35.761595 71.513577 11.920700
6 100.000000 0.000000 0.000000 41.241196 21.264146 1.932463
7 0.000000 0.000000 0.000000 0.000000 0.000000 0.000000
8 50.000000 50.000000 50.000000 20.345920 21.403970 23.315927
END_DATA
