Example Targets Read/SpyderPrint Targets/Expert Target Plus Grays (4-pages, 967-patches)/Expert Target Plus Grays 2 of 4 (243-patches).ti1
CTI1

DESCRIPTOR "Argyll Calibration Target chart information 1"
ORIGINATOR "read_image_patch_colors.py"
CREATED "Sun Nov 30 22:58:14 2025"
ACCURATE_EXPECTED_VALUES "true"
APPROX_WHITE_POINT "95.053991 99.997087 108.929552"
COLOR_REP "iRGB"
WHITE_COLOR_PATCHES "9"
BLACK_COLOR_PATCHES "1"
NEUTRAL_STEPS "3"
SINGLE_DIM_STEPS "9"

NUMBER_OF_FIELDS 7
BEGIN_DATA_FORMAT
SAMPLE_ID RGB_R RGB_G RGB_B XYZ_X XYZ_Y XYZ_Z
END_DATA_FORMAT

NUMBER_OF_SETS 252
BEGIN_DATA
1 37.647059 0.000000 0.000000 4.823861 2.487204 0.226034
2 37.647059 0.000000 12.549020 5.084573 2.591473 1.599216
3 37.647059 0.000000 25.098039 5.749303 2.857324 5.100375
4 37.647059 0.000000 37.647059 6.935256 3.331632 11.346839
5 37.647059 0.000000 50.196078 8.720384 4.045573 20.749177
6 37.647059 0.000000 62.745098 11.169451 5.025048 33.648509
7 37.647059 0.000000 75.294118 14.339029 6.292684 50.342807
8 37.647059 0.000000 87.843137 18.279322 7.868557 71.096485
9 37.647059 0.000000 100.000000 22.875060 9.706569 95.302423
10 50.196078 0.000000 0.000000 8.902304 4.590068 0.417140
11 50.196078 0.000000 12.549020 9.163017 4.694337 1.790322
12 50.196078 0.000000 25.098039 9.827746 4.960188 5.291481
13 50.196078 0.000000 37.647059 11.013700 5.434496 11.537945
14 50.196078 0.000000 50.196078 12.798827 6.148437 20.940283
15 50.196078 0.000000 62.745098 15.247894 7.127912 33.839615
16 50.196078 0.000000 75.294118 18.417473 8.395548 50.533913
17 50.196078 0.000000 87.843137 22.357765 9.971421 71.287591
18 50.196078 0.000000 100.000000 26.953504 11.809433 95.493529
19 62.745098 0.000000 0.000000 14.497636 7.475046 0.679324
20 62.745098 0.000000 12.549020 14.758348 7.579315 2.052506
21 62.745098 0.000000 25.098039 15.423078 7.845166 5.553664
22 62.745098 0.000000 37.647059 16.609031 8.319474 11.800128
23 62.745098 0.000000 50.196078 18.394159 9.033414 21.202467
24 62.745098 0.000000 62.745098 20.843225 10.012890 34.101799
25 62.745098 0.000000 75.294118 24.012804 11.280525 50.796096
26 62.745098 0.000000 87.843137 27.953097 12.856399 71.549775
27 62.745098 0.000000 100.000000 32.548835 14.694410 95.755713
28 37.647059 12.549020 0.000000 5.340363 3.520070 0.398204
29 37.647059 12.549020 12.549020 5.601075 3.624339 1.771386
30 37.647059 12.549020 25.098039 6.265805 3.890190 5.272545
31 37.647059 12.549020 37.647059 7.451759 4.364498 11.519009
32 37.647059 12.549020 50.196078 9.236886 5.078439 20.921347
33 37.647059 12.549020 62.745098 11.685953 6.057914 33.820679
34 37.647059 12.549020 75.294118 14.855532 7.325550 50.514976
35 37.647059 12.549020 87.843137 18.795824 8.901423 71.268655
36 37.647059 12.549020 100.000000 23.391563 10.739435 95.474593
37 50.196078 12.549020 0.000000 9.418807 5.622934 0.589310
38 50.196078 12.549020 12.549020 9.679519 5.727203 1.962492
39 50.196078 12.549020 25.098039 10.344249 5.993054 5.463651
40 50.196078 12.549020 37.647059 11.530202 6.467362 11.710115
41 50.196078 12.549020 50.196078 13.315330 7.181302 21.112453
42 50.196078 12.549020 62.745098 15.764396 8.160778 34.011785
43 50.196078 12.549020 75.294118 18.933975 9.428413 50.706082
44 50.196078 12.549020 87.843137 22.874268 11.004287 71.459761
45 50.196078 12.549020 100.000000 27.470006 12.842298 95.665699
46 62.745098 12.549020 0.000000 15.014138 8.507912 0.851494
47 62.745098 12.549020 12.549020 15.274850 8.612181 2.224676
48 62.745098 12.549020 25.098039 15.939580 8.878031 5.725834
49 62.745098 12.549020 37.647059 17.125533 9.352340 11.972298
50 62.745098 12.549020 50.196078 18.910661 10.066280 21.374637
51 62.745098 12.549020 62.745098 21.359728 11.045756 34.273969
52 62.745098 12.549020 75.294118 24.529306 12.313391 50.968266
53 62.745098 12.549020 87.843137 28.469599 13.889265 71.721945
54 62.745098 12.549020 100.000000 33.065337 15.727276 95.927883
55 37.647059 25.098039 0.000000 6.657273 6.153535 0.837180
56 37.647059 25.098039 12.549020 6.917985 6.257804 2.210362
57 37.647059 25.098039 25.098039 7.582715 6.523655 5.711521
58 37.647059 25.098039 37.647059 8.768668 6.997963 11.957985
59 37.647059 25.098039 50.196078 10.553796 7.711904 21.360323
60 37.647059 25.098039 62.745098 13.002862 8.691379 34.259655
61 37.647059 25.098039 75.294118 16.172441 9.959015 50.953953
62 37.647059 25.098039 87.843137 20.112734 11.534888 71.707631
63 37.647059 25.098039 100.000000 24.708472 13.372900 95.913569
64 50.196078 25.098039 0.000000 10.735716 8.256399 1.028286
65 50.196078 25.098039 12.549020 10.996429 8.360668 2.401468
66 50.196078 25.098039 25.098039 11.661158 8.626519 5.902627
67 50.196078 25.098039 37.647059 12.847112 9.100827 12.149091
68 50.196078 25.098039 50.196078 14.632239 9.814768 21.551429
69 50.196078 25.098039 62.745098 17.081306 10.794243 34.450761
70 50.196078 25.098039 75.294118 20.250885 12.061879 51.145059
71 50.196078 25.098039 87.843137 24.191177 13.637752 71.898737
72 50.196078 25.098039 100.000000 28.786916 15.475764 96.104675
73 62.745098 25.098039 0.000000 16.331048 11.141377 1.290470
74 62.745098 25.098039 12.549020 16.591760 11.245646 2.663652
75 62.745098 25.098039 25.098039 17.256490 11.511497 6.164810
76 62.745098 25.098039 37.647059 18.442443 11.985805 12.411274
77 62.745098 25.098039 50.196078 20.227571 12.699745 21.813613
78 62.745098 25.098039 62.745098 22.676637 13.679221 34.712945
79 62.745098 25.098039 75.294118 25.846216 14.946856 51.407242
80 62.745098 25.098039 87.843137 29.786509 16.522730 72.160921
81 62.745098 25.098039 100.000000 34.382247 18.360741 96.366859
82 37.647059 37.647059 0.000000 9.006789 10.851936 1.620364
83 37.647059 37.647059 12.549020 9.267501 10.956205 2.993546
84 37.647059 37.647059 25.098039 9.932231 11.222056 6.494704
85 37.647059 37.647059 37.647059 11.118184 11.696364 12.741168
86 37.647059 37.647059 50.196078 12.903312 12.410305 22.143506
87 37.647059 37.647059 62.745098 15.352379 13.389780 35.042838
88 37.647059 37.647059 75.294118 18.521957 14.657416 51.737136
89 37.647059 37.647059 87.843137 22.462250 16.233289 72.490815
90 37.647059 37.647059 100.000000 27.057988 18.071301 96.696752
91 50.196078 37.647059 0.000000 13.085233 12.954800 1.811470
92 50.196078 37.647059 12.549020 13.345945 13.059069 3.184652
93 50.196078 37.647059 25.098039 14.010675 13.324919 6.685810
94 50.196078 37.647059 37.647059 15.196628 13.799228 12.932274
95 50.196078 37.647059 50.196078 16.981756 14.513168 22.334612
96 50.196078 37.647059 62.745098 19.430822 15.492644 35.233944
97 50.196078 37.647059 75.294118 22.600401 16.760279 51.928242
98 50.196078 37.647059 87.843137 26.540694 18.336153 72.681921
99 50.196078 37.647059 100.000000 31.136432 20.174164 96.887858
100 62.745098 37.647059 0.000000 18.680564 15.839778 2.073653
101 62.745098 37.647059 12.549020 18.941276 15.944047 3.446835
102 62.745098 37.647059 25.098039 19.606006 16.209897 6.947993
103 62.745098 37.647059 37.647059 20.791959 16.684205 13.194457
104 62.745098 37.647059 50.196078 22.577087 17.398146 22.596796
105 62.745098 37.647059 62.745098 25.026153 18.377622 35.496128
106 62.745098 37.647059 75.294118 28.195732 19.645257 52.190425
107 62.745098 37.647059 87.843137 32.136025 21.221131 72.944104
108 62.745098 37.647059 100.000000 36.731763 23.059142 97.150042
109 37.647059 50.196078 0.000000 12.543341 17.924090 2.799231
110 37.647059 50.196078 12.549020 12.804053 18.028359 4.172413
111 37.647059 50.196078 25.098039 13.468783 18.294210 7.673571
112 37.647059 50.196078 37.647059 14.654737 18.768518 13.920035
113 37.647059 50.196078 50.196078 16.439864 19.482458 23.322374
114 37.647059 50.196078 62.745098 18.888931 20.461934 36.221706
115 37.647059 50.196078 75.294118 22.058510 21.729569 52.916003
116 37.647059 50.196078 87.843137 25.998802 23.305443 73.669682
117 37.647059 50.196078 100.000000 30.594541 25.143454 97.875620
118 50.196078 50.196078 0.000000 16.621785 20.026954 2.990337
119 50.196078 50.196078 12.549020 16.882497 20.131223 4.363519
120 50.196078 50.196078 25.098039 17.547227 20.397073 7.864677
121 50.196078 50.196078 37.647059 18.733180 20.871381 14.111141
122 50.196078 50.196078 50.196078 20.518308 21.585322 23.513480
123 50.196078 50.196078 62.745098 22.967374 22.564798 36.412812
124 50.196078 50.196078 75.294118 26.136953 23.832433 53.107109
125 50.196078 50.196078 87.843137 30.077246 25.408307 73.860788
126 50.196078 50.196078 100.000000 34.672984 27.246318 98.066726
127 62.745098 50.196078 0.000000 22.217116 22.911932 3.252521
128 62.745098 50.196078 12.549020 22.477828 23.016200 4.625703
129 62.745098 50.196078 25.098039 23.142558 23.282051 8.126861
130 62.745098 50.196078 37.647059 24.328511 23.756359 14.373325
131 62.745098 50.196078 50.196078 26.113639 24.470300 23.775663
132 62.745098 50.196078 62.745098 28.562706 25.449775 36.674995
133 62.745098 50.196078 75.294118 31.732284 26.717411 53.369293
134 62.745098 50.196078 87.843137 35.672577 28.293285 74.122972
135 62.745098 50.196078 100.000000 40.268315 30.131296 98.328909
136 37.647059 62.745098 0.000000 17.395237 27.626576 4.416552
137 37.647059 62.745098 12.549020 17.655949 27.730845 5.789734
138 37.647059 62.745098 25.098039 18.320679 27.996696 9.290893
139 37.647059 62.745098 37.647059 19.506632 28.471004 15.537357
140 37.647059 62.745098 50.196078 21.291760 29.184945 24.939695
141 37.647059 62.745098 62.745098 23.740826 30.164420 37.839027
142 37.647059 62.745098 75.294118 26.910405 31.432056 54.533324
143 37.647059 62.745098 87.843137 30.850698 33.007930 75.287003
144 37.647059 62.745098 100.000000 35.446436 34.845941 99.492941
145 50.196078 62.745098 0.000000 21.473680 29.729440 4.607658
146 50.196078 62.745098 12.549020 21.734392 29.833709 5.980840
147 50.196078 62.745098 25.098039 22.399122 30.099560 9.481999
148 50.196078 62.745098 37.647059 23.585076 30.573868 15.728463
149 50.196078 62.745098 50.196078 25.370203 31.287809 25.130801
150 50.196078 62.745098 62.745098 27.819270 32.267284 38.030133
151 50.196078 62.745098 75.294118 30.988848 33.534920 54.724430
152 50.196078 62.745098 87.843137 34.929141 35.110793 75.478109
153 50.196078 62.745098 100.000000 39.524879 36.948805 99.684047
154 62.745098 62.745098 0.000000 27.069011 32.614418 4.869842
155 62.745098 62.745098 12.549020 27.329724 32.718687 6.243024
156 62.745098 62.745098 25.098039 27.994453 32.984538 9.744182
157 62.745098 62.745098 37.647059 29.180407 33.458846 15.990646
158 62.745098 62.745098 50.196078 30.965534 34.172787 25.392985
159 62.745098 62.745098 62.745098 33.414601 35.152262 38.292317
160 62.745098 62.745098 75.294118 36.584180 36.419898 54.986614
161 62.745098 62.745098 87.843137 40.524472 37.995771 75.740293
162 62.745098 62.745098 100.000000 45.120211 39.833783 99.946231
163 37.647059 75.294118 0.000000 23.674553 40.183521 6.509687
164 37.647059 75.294118 12.549020 23.935265 40.287790 7.882869
165 37.647059 75.294118 25.098039 24.599995 40.553640 11.384028
166 37.647059 75.294118 37.647059 25.785948 41.027949 17.630492
167 37.647059 75.294118 50.196078 27.571076 41.741889 27.032830
168 37.647059 75.294118 62.745098 30.020142 42.721365 39.932162
169 37.647059 75.294118 75.294118 33.189721 43.989000 56.626459
170 37.647059 75.294118 87.843137 37.130014 45.564874 77.380138
171 37.647059 75.294118 100.000000 41.725752 47.402885 101.586076
172 50.196078 75.294118 0.000000 27.752996 42.286385 6.700793
173 50.196078 75.294118 12.549020 28.013709 42.390653 8.073975
174 50.196078 75.294118 25.098039 28.678438 42.656504 11.575134
175 50.196078 75.294118 37.647059 29.864392 43.130812 17.821598
176 50.196078 75.294118 50.196078 31.649519 43.844753 27.223936
177 50.196078 75.294118 62.745098 34.098586 44.824228 40.123268
178 50.196078 75.294118 75.294118 37.268165 46.091864 56.817565
179 50.196078 75.294118 87.843137 41.208457 47.667738 77.571244
180 50.196078 75.294118 100.000000 45.804196 49.505749 101.777182
181 62.745098 75.294118 0.000000 33.348328 45.171362 6.962977
182 62.745098 75.294118 12.549020 33.609040 45.275631 8.336159
183 62.745098 75.294118 25.098039 34.273770 45.541482 11.837317
184 62.745098 75.294118 37.647059 35.459723 46.015790 18.083781
185 62.745098 75.294118 50.196078 37.244851 46.729731 27.486120
186 62.745098 75.294118 62.745098 39.693917 47.709206 40.385452
187 62.745098 75.294118 75.294118 42.863496 48.976842 57.079749
188 62.745098 75.294118 87.843137 46.803789 50.552716 77.833428
189 62.745098 75.294118 100.000000 51.399527 52.390727 102.039366
190 37.647059 87.843137 0.000000 31.480746 55.793809 9.111789
191 37.647059 87.843137 12.549020 31.741458 55.898078 10.484971
192 37.647059 87.843137 25.098039 32.406188 56.163929 13.986129
193 37.647059 87.843137 37.647059 33.592141 56.638237 20.232593
194 37.647059 87.843137 50.196078 35.377269 57.352177 29.634931
195 37.647059 87.843137 62.745098 37.826336 58.331653 42.534263
196 37.647059 87.843137 75.294118 40.995914 59.599288 59.228561
197 37.647059 87.843137 87.843137 44.936207 61.175162 79.982240
198 37.647059 87.843137 100.000000 49.531945 63.013173 104.188177
199 50.196078 87.843137 0.000000 35.559190 57.896673 9.302895
200 50.196078 87.843137 12.549020 35.819902 58.000941 10.676077
201 50.196078 87.843137 25.098039 36.484632 58.266792 14.177235
202 50.196078 87.843137 37.647059 37.670585 58.741100 20.423699
203 50.196078 87.843137 50.196078 39.455713 59.455041 29.826037
204 50.196078 87.843137 62.745098 41.904779 60.434517 42.725369
205 50.196078 87.843137 75.294118 45.074358 61.702152 59.419667
206 50.196078 87.843137 87.843137 49.014650 63.278026 80.173346
207 50.196078 87.843137 100.000000 53.610389 65.116037 104.379283
208 62.745098 87.843137 0.000000 41.154521 60.781651 9.565078
209 62.745098 87.843137 12.549020 41.415233 60.885919 10.938260
210 62.745098 87.843137 25.098039 42.079963 61.151770 14.439419
211 62.745098 87.843137 37.647059 43.265916 61.626078 20.685883
212 62.745098 87.843137 50.196078 45.051044 62.340019 30.088221
213 62.745098 87.843137 62.745098 47.500110 63.319494 42.987553
214 62.745098 87.843137 75.294118 50.669689 64.587130 59.681850
215 62.745098 87.843137 87.843137 54.609982 66.163004 80.435529
216 62.745098 87.843137 100.000000 59.205720 68.001015 104.641467
217 37.647059 100.000000 0.000000 40.585456 74.000781 12.146735
218 37.647059 100.000000 12.549020 40.846168 74.105050 13.519917
219 37.647059 100.000000 25.098039 41.510898 74.370901 17.021075
220 37.647059 100.000000 37.647059 42.696851 74.845209 23.267539
221 37.647059 100.000000 50.196078 44.481979 75.559150 32.669877
222 37.647059 100.000000 62.745098 46.931046 76.538625 45.569210
223 37.647059 100.000000 75.294118 50.100624 77.806261 62.263507
224 37.647059 100.000000 87.843137 54.040917 79.382134 83.017186
225 37.647059 100.000000 100.000000 58.636655 81.220146 107.223124
226 50.196078 100.000000 0.000000 44.663899 76.103645 12.337841
227 50.196078 100.000000 12.549020 44.924612 76.207914 13.711023
228 50.196078 100.000000 25.098039 45.589341 76.473765 17.212181
229 50.196078 100.000000 37.647059 46.775295 76.948073 23.458645
230 50.196078 100.000000 50.196078 48.560422 77.662014 32.860983
231 50.196078 100.000000 62.745098 51.009489 78.641489 45.760316
232 50.196078 100.000000 75.294118 54.179068 79.909125 62.454613
233 50.196078 100.000000 87.843137 58.119360 81.484998 83.208292
234 50.196078 100.000000 100.000000 62.715099 83.323010 107.414230
235 62.745098 100.000000 0.000000 50.259231 78.988623 12.600025
236 62.745098 100.000000 12.549020 50.519943 79.092892 13.973207
237 62.745098 100.000000 25.098039 51.184673 79.358743 17.474365
238 62.745098 100.000000 37.647059 52.370626 79.833051 23.720829
239 62.745098 100.000000 50.196078 54.155754 80.546991 33.123167
240 62.745098 100.000000 62.745098 56.604820 81.526467 46.022499
241 62.745098 100.000000 75.294118 59.774399 82.794102 62.716797
242 62.745098 100.000000 87.843137 63.714692 84.369976 83.470476
243 62.745098 100.000000 100.000000 68.310430 86.207988 107.676413
244 100.000000 100.000000 100.000000 95.053991 99.997087 108.929552
245 100.000000 100.000000 100.000000 95.053991 99.997087 108.929552
246 100.000000 100.000000 100.000000 95.053991 99.997087 108.929552
247 100.000000 100.000000 100.000000 95.053991 99.997087 108.929552
248 100.000000 100.000000 100.000000 95.053991 99.997087 108.929552
249 100.000000 100.000000 100.000000 95.053991 99.997087 108.929552
250 100.000000 100.000000 100.000000 95.053991 99.997087 108.929552
251 100.000000 100.000000 100.000000 95.053991 99.997087 108.929552
252 100.000000 100.000000 100.000000 95.053991 99.997087 108.929552
END_DATA

CTI1

DESCRIPTOR "Argyll Calibration Target chart information 1"
ORIGINATOR "Argyll targen"
DENSITY_EXTREME_VALUES "8"
CREATED "Sun Nov 30 22:58:14 2025"

NUMBER_OF_FIELDS "7"
BEGIN_DATA_FORMAT
INDEX RGB_R RGB_G RGB_B XYZ_X XYZ_Y XYZ_Z
END_DATA_FORMAT

NUMBER_OF_SETS "8"
BEGIN_DATA
0 0.000000 49.995270 43.750000 10.553522 16.464078 17.827876
1 0.000000 50.001230 50.000000 11.518815 16.853276 22.902426
2 0.000000 40.085320 59.909980 10.503940 11.836369 31.777250
3 0.000000 0.000000 78.363740 10.405823 4.161686 54.807888
4 30.559800 50.011200 0.000000 10.794151 16.931419 2.699745
5 0.000000 32.571370 0.000000 3.097963 6.195092 1.032669
6 100.000000 0.000000 0.000000 41.241196 21.264146 1.932463
7 0.000000 0.000000 21.872990 0.708368 0.283303 3.731003
END_DATA

CTI1

DESCRIPTOR "Argyll Calibration Target chart information 1"
ORIGINATOR "Argyll targen"
DEVICE_COMBINATION_VALUES "9"
CREATED "Sun Nov 30 22:58:14 2025"

NUMBER_OF_FIELDS "7"
BEGIN_DATA_FORMAT
INDEX RGB_R RGB_G RGB_B XYZ_X XYZ_Y XYZ_Z
END_DATA_FORMAT

NUMBER_OF_SETS "9"
BEGIN_DATA
0 100.000000 100.000000 100.000000 95.053991 99.997087 108.929552
1 0.000000 100.000000 100.000000 53.812794 78.732942 106.997089
2 100.000000 0.000000 100.000000 59.292396 28.483510 97.008851
3 0.000000 0.000000 100.000000 18.051199 7.219365 95.076389
4 100.000000 100.000000 0.000000 77.002791 92.777723 13.853163
5 0.000000 100.000000 0.000000 35.761595 71.513577 11.920700
6 100.000000 0.000000 0.000000 41.241196 21.264146 1.932463
7 0.000000 0.000000 0.000000 0.000000 0.000000 0.000000
8 50.000000 50.000000 50.000000 20.345920 21.403970 23.315927
END_DATA
