Example Targets Read/LaserSoft Advanced Target/LaserSoft_Advanced_Target-display.ti2
CTI2

DESCRIPTOR "Argyll Calibration Target chart information 2"
ORIGINATOR "read_image_patch_colors.py (colormath backend)"
CREATED "Wed Nov 19 21:37:13 2025"
ACCURATE_EXPECTED_VALUES "true"
APPROX_WHITE_POINT "83.006462 84.935601 71.024055"
COLOR_REP "iRGB"
STEPS_IN_PASS "24"
PASSES_IN_STRIPS2 "36"
STRIP_INDEX_PATTERN "A-Z, A-Z"
PATCH_INDEX_PATTERN "0-9,@-9;1-99"
INDEX_ORDER "STRIP_THEN_PATCH"

NUMBER_OF_FIELDS 8
BEGIN_DATA_FORMAT
SAMPLE_ID SAMPLE_LOC RGB_R RGB_G RGB_B XYZ_X XYZ_Y XYZ_Z
END_DATA_FORMAT

NUMBER_OF_SETS 864
BEGIN_DATA
1 "A1" 29.411765 20.000000 20.000000 4.816477 4.139349 2.784086
2 "A2" 24.313725 15.294118 16.078431 3.199045 2.660646 1.847954
3 "A3" 19.215686 12.156863 12.549020 2.073547 1.753182 1.207534
4 "A4" 16.862745 10.588235 10.980392 1.641581 1.393588 0.969520
5 "A5" 49.019608 34.901961 35.686275 14.286119 12.358563 8.728297
6 "A6" 44.705882 31.372549 31.764706 11.603712 9.993453 6.890671
7 "A7" 40.784314 27.058824 28.235294 9.255109 7.739065 5.399494
8 "A8" 35.686275 23.137255 23.921569 6.913582 5.745786 3.903619
9 "A9" 73.725490 67.058824 66.274510 43.287024 42.788342 32.994466
10 "A10" 68.627451 61.176471 61.176471 36.251712 35.386249 27.571791
11 "A11" 63.137255 55.294118 54.901961 29.549833 28.613970 21.814959
12 "A12" 58.431373 50.588235 50.588235 24.699627 23.755092 18.230690
13 "A13" 29.019608 21.176471 17.647059 4.781935 4.327186 2.327968
14 "A14" 24.313725 16.470588 12.941176 3.209684 2.823791 1.378252
15 "A15" 19.215686 12.549020 11.372549 2.071238 1.793278 1.060642
16 "A16" 18.823529 12.156863 10.980392 1.982594 1.710282 1.003668
17 "A17" 51.764706 36.078431 30.196078 15.244323 13.255908 6.661613
18 "A18" 47.843137 31.764706 25.882353 12.434188 10.559001 4.961542
19 "A19" 42.352941 26.666667 22.745098 9.370237 7.736906 3.792445
20 "A20" 36.862745 23.137255 19.215686 7.004316 5.811848 2.774420
21 "A21" 73.725490 66.666667 64.313725 42.719225 42.256384 31.120702
22 "A22" 68.627451 61.176471 58.823529 35.858696 35.219745 25.610081
23 "A23" 63.529412 55.686275 52.549020 29.581944 28.875472 20.158242
24 "A24" 58.823529 50.980392 47.843137 24.679483 23.968319 16.493675
25 "A25" 94.509804 92.156863 93.725490 82.697285 84.360005 70.946088
26 "A26" 94.509804 92.156863 93.333333 82.580449 84.310507 70.362908
27 "A27" 94.509804 92.156863 93.333333 82.580449 84.310507 70.362908
28 "A28" 94.509804 92.156863 93.333333 82.580449 84.310507 70.362908
29 "A29" 94.117647 92.156863 93.333333 82.220485 84.126838 70.351407
30 "A30" 94.509804 92.156863 93.333333 82.580449 84.310507 70.362908
31 "A31" 25.882353 23.921569 22.352941 4.757986 4.805514 3.451524
32 "A32" 27.058824 25.098039 23.529412 5.215774 5.273420 3.808313
33 "A33" 68.627451 65.882353 65.098039 39.227672 39.920843 31.636885
34 "A34" 69.803922 67.450980 66.274510 40.975892 41.885041 32.965594
35 "A35" 38.431373 17.647059 12.156863 6.532288 4.681689 1.403679
36 "A36" 33.333333 18.431373 14.117647 5.308120 4.165883 1.662711
37 "B1" 33.333333 14.117647 17.254902 5.000828 3.438530 2.096908
38 "B2" 29.019608 12.156863 13.725490 3.754064 2.607726 1.428967
39 "B3" 25.098039 11.372549 12.156863 2.904748 2.104547 1.169443
40 "B4" 24.313725 10.980392 11.372549 2.723458 1.978711 1.057467
41 "B5" 56.470588 31.372549 33.725490 16.581613 12.520042 7.814509
42 "B6" 52.156863 27.058824 30.196078 13.580947 9.934636 6.205556
43 "B7" 46.666667 23.137255 25.882353 10.507572 7.569913 4.573093
44 "B8" 40.784314 18.823529 21.568627 7.721027 5.430422 3.208719
45 "B9" 77.254902 65.490196 64.705882 44.610424 42.405985 31.405858
46 "B10" 71.372549 59.215686 59.215686 36.742467 34.469101 25.761480
47 "B11" 67.058824 54.509804 54.117647 31.336068 29.110105 21.227960
48 "B12" 62.352941 48.627451 48.627451 25.763283 23.384915 16.836944
49 "B13" 32.941176 18.039216 13.333333 5.146691 4.028041 1.531388
50 "B14" 27.843137 14.117647 11.372549 3.602648 2.741102 1.136690
51 "B15" 25.882353 13.333333 10.588235 3.148367 2.425310 1.014085
52 "B16" 22.352941 12.156863 11.372549 2.487513 1.967078 1.067651
53 "B17" 57.254902 32.941176 24.313725 16.636771 13.042807 4.702139
54 "B18" 51.372549 27.843137 20.784314 12.832403 9.782618 3.470974
55 "B19" 45.490196 23.921569 16.862745 9.757955 7.377480 2.421974
56 "B20" 40.392157 18.431373 10.980392 7.174930 5.125882 1.294422
57 "B21" 77.647059 65.490196 60.784314 44.194417 42.253796 27.951624
58 "B22" 72.156863 60.000000 55.294118 36.978101 35.115170 22.786211
59 "B23" 67.843137 54.509804 49.411765 31.148897 29.070999 17.991735
60 "B24" 62.745098 49.019608 45.098039 25.678515 23.562290 14.726816
61 "B25" 92.941176 91.764706 92.941176 80.728820 82.960287 69.659805
62 "B26" 94.117647 91.372549 92.941176 81.491140 82.936096 69.616834
63 "B27" 93.725490 91.764706 91.372549 80.980562 83.128420 67.394895
64 "B28" 93.333333 90.196078 90.588235 79.186760 80.594007 65.953209
65 "B29" 92.941176 91.372549 91.372549 79.964802 82.196975 67.295116
66 "B30" 92.156863 90.196078 92.156863 78.583712 80.247068 68.181380
67 "B31" 24.705882 22.745098 21.176471 4.324578 4.362790 3.115047
68 "B32" 27.843137 25.882353 24.705882 5.556661 5.608847 4.167245
69 "B33" 67.058824 64.705882 63.529412 37.416322 38.224658 30.028400
70 "B34" 70.980392 68.627451 67.843137 42.635920 43.546224 34.655167
71 "B35" 20.392157 13.725490 13.333333 2.373462 2.065889 1.353628
72 "B36" 70.980392 58.431373 49.803922 34.758457 33.112790 18.721350
73 "C1" 36.862745 10.980392 16.862745 5.673556 3.469271 1.994223
74 "C2" 34.509804 9.411765 14.509804 4.871667 2.938156 1.546077
75 "C3" 31.764706 9.411765 12.941176 4.157218 2.577691 1.289637
76 "C4" 30.588235 10.196078 11.764706 3.905548 2.514264 1.133793
77 "C5" 60.000000 26.666667 31.372549 17.263786 11.717568 6.735021
78 "C6" 53.725490 21.568627 27.843137 13.280722 8.686508 5.220153
79 "C7" 46.666667 15.294118 22.745098 9.430585 5.815298 3.476220
80 "C8" 40.784314 10.588235 19.215686 6.897730 4.051836 2.493074
81 "C9" 81.176471 63.137255 63.137255 46.031161 41.592776 29.786975
82 "C10" 75.686275 57.647059 58.039216 38.725942 34.576646 24.728679
83 "C11" 70.588235 52.549020 52.941176 32.548370 28.713746 20.256416
84 "C12" 65.882353 47.058824 47.843137 27.091528 23.356439 16.270475
85 "C13" 35.686275 14.117647 10.196078 5.388858 3.654929 1.054892
86 "C14" 33.333333 13.333333 9.803922 4.716144 3.226794 0.976251
87 "C15" 29.411765 12.549020 10.980392 3.790344 2.671276 1.067714
88 "C16" 25.490196 10.980392 11.764706 2.937877 2.087254 1.113752
89 "C17" 57.647059 26.274510 16.862745 15.229407 10.661735 2.677034
90 "C18" 51.764706 21.176471 11.764706 11.667482 7.856921 1.607012
91 "C19" 47.058824 16.470588 9.803922 9.220419 5.897530 1.180852
92 "C20" 43.137255 10.980392 8.235294 7.353486 4.347086 0.865623
93 "C21" 81.568627 63.529412 56.078431 45.347000 41.600292 24.006804
94 "C22" 75.686275 58.039216 50.980392 37.850768 34.447729 19.563265
95 "C23" 70.980392 52.549020 45.490196 31.827582 28.429771 15.433379
96 "C24" 66.666667 48.235294 41.176471 27.176370 23.999179 12.573490
97 "C25" 88.627451 90.588235 91.764706 75.707014 79.195310 67.589020
98 "C26" 93.333333 89.019608 92.156863 78.748612 79.126634 67.990357
99 "C27" 92.941176 90.196078 86.666667 77.744471 79.952317 60.509981
100 "C28" 91.764706 87.058824 86.274510 74.246167 75.010447 59.359838
101 "C29" 89.803922 90.196078 88.235294 75.410478 78.724380 62.556518
102 "C30" 87.843137 87.058824 90.980392 72.177945 73.842074 65.770453
103 "C31" 23.137255 21.960784 20.392157 3.921231 4.016243 2.897761
104 "C32" 29.019608 27.450980 25.882353 6.123935 6.244475 4.581538
105 "C33" 65.490196 63.137255 61.960784 35.466559 36.220204 28.421384
106 "C34" 72.549020 70.196078 69.019608 44.725617 45.742173 36.063896
107 "C35" 69.019608 54.901961 45.882353 31.574896 29.538153 15.857603
108 "C36" 65.098039 50.196078 41.568627 27.001952 24.832497 12.922135
109 "D1" 49.411765 5.098039 23.137255 9.878244 5.195569 3.453635
110 "D2" 49.411765 5.490196 23.529412 9.913132 5.230657 3.560851
111 "D3" 49.019608 4.705882 26.666667 9.911036 5.176745 4.450315
112 "D4" 49.803922 3.921569 29.019608 10.350929 5.354604 5.216383
113 "D5" 49.803922 5.098039 19.215686 9.848611 5.196584 2.528538
114 "D6" 49.803922 5.098039 19.607843 9.865534 5.203753 2.613008
115 "D7" 49.411765 5.490196 20.784314 9.775971 5.172548 2.876223
116 "D8" 49.019608 5.098039 22.352941 9.682743 5.099310 3.247264
117 "D9" 52.156863 5.882353 20.392157 10.902706 5.769082 2.825960
118 "D10" 51.764706 5.882353 19.607843 10.701580 5.669487 2.646098
119 "D11" 50.588235 5.098039 19.215686 10.166722 5.358898 2.538701
120 "D12" 50.980392 5.098039 18.823529 10.311582 5.434245 2.461244
121 "D13" 50.196078 4.705882 13.333333 9.782870 5.163154 1.478999
122 "D14" 49.411765 5.882353 20.000000 9.755090 5.185049 2.701643
123 "D15" 49.019608 5.882353 23.529412 9.772828 5.179130 3.559637
124 "D16" 49.411765 4.705882 26.666667 10.066185 5.255909 4.455272
125 "D17" 50.980392 1.960784 5.490196 9.854922 5.101949 0.639389
126 "D18" 50.588235 2.352941 6.274510 9.716505 5.046139 0.693613
127 "D19" 50.196078 1.960784 6.274510 9.544977 4.942822 0.685559
128 "D20" 50.196078 3.921569 10.196078 9.677090 5.082831 1.068028
129 "D21" 59.607843 16.470588 5.490196 14.645581 8.672288 0.975924
130 "D22" 58.039216 12.941176 5.098039 13.556051 7.703362 0.847713
131 "D23" 56.862745 10.980392 4.705882 12.846191 7.154440 0.769823
132 "D24" 54.117647 5.490196 4.705882 11.303770 5.991655 0.659310
133 "D25" 82.745098 88.627451 90.980392 69.236887 73.905954 65.931438
134 "D26" 91.764706 84.313725 90.196078 73.367377 71.818554 64.265656
135 "D27" 91.764706 88.627451 80.392157 73.898429 76.527901 52.137712
136 "D28" 90.588235 82.745098 81.176471 68.856619 68.260054 52.006879
137 "D29" 84.313725 87.450980 81.960784 67.169470 71.884061 53.654351
138 "D30" 83.137255 82.745098 89.411765 64.893477 66.049718 62.657993
139 "D31" 22.352941 20.392157 19.607843 3.562821 3.565449 2.668722
140 "D32" 29.803922 28.235294 27.450980 6.523151 6.624908 5.104630
141 "D33" 64.313725 61.568627 60.784314 33.861107 34.417468 27.203696
142 "D34" 73.725490 71.372549 70.588235 46.472047 47.490285 37.843461
143 "D35" 72.941176 57.254902 44.705882 34.886880 32.550902 15.494370
144 "D36" 70.196078 52.941176 38.823529 30.771056 28.154587 11.892855
145 "E1" 30.980392 25.882353 20.000000 5.980883 5.845874 3.002558
146 "E2" 26.666667 21.960784 16.470588 4.374677 4.261472 2.118339
147 "E3" 21.176471 17.254902 12.549020 2.785088 2.713916 1.327661
148 "E4" 18.039216 13.725490 10.980392 2.004672 1.883149 1.030707
149 "E5" 63.137255 50.588235 38.039216 25.704351 24.391638 11.166593
150 "E6" 57.647059 45.882353 33.725490 20.903981 19.808235 8.780861
151 "E7" 53.725490 41.568627 30.196078 17.519845 16.347965 7.048977
152 "E8" 49.411765 37.254902 25.882353 14.283572 13.175881 5.293291
153 "E9" 78.431373 71.764706 66.666667 49.171384 49.234166 34.115282
154 "E10" 72.941176 66.666667 61.176471 41.646801 41.757245 28.333761
155 "E11" 67.450980 61.176471 55.294118 34.601757 34.626267 22.828205
156 "E12" 63.137255 56.078431 50.196078 29.206426 28.929296 18.582218
157 "E13" 28.627451 26.274510 20.000000 5.540223 5.706804 3.002457
158 "E14" 24.705882 22.745098 15.686275 4.100331 4.267787 1.995741
159 "E15" 19.607843 18.039216 12.941176 2.660472 2.760440 1.396046
160 "E16" 16.862745 15.294118 12.156863 2.030697 2.075001 1.209377
161 "E17" 63.137255 57.254902 42.352941 28.754860 29.444765 13.999013
162 "E18" 57.647059 52.549020 37.647059 23.576175 24.291009 11.076399
163 "E19" 52.941176 47.843137 33.333333 19.358504 19.893021 8.715995
164 "E20" 48.627451 43.529412 29.803922 15.943961 16.318171 6.986607
165 "E21" 83.137255 78.039216 70.980392 57.312381 58.392405 39.468279
166 "E22" 76.078431 72.156863 65.490196 47.510434 48.707189 33.007830
167 "E23" 70.588235 66.666667 59.607843 39.873467 40.875290 26.966786
168 "E24" 65.882353 62.352941 54.901961 34.177451 35.156564 22.644184
169 "E25" 76.862745 87.058824 90.196078 63.521222 69.444433 64.382881
170 "E26" 90.196078 79.607843 88.627451 68.383333 65.028550 61.224138
171 "E27" 91.372549 87.450980 75.294118 71.488267 74.224594 45.951371
172 "E28" 89.411765 78.431373 76.078431 63.789788 61.937507 45.223276
173 "E29" 79.607843 85.098039 76.470588 60.568589 66.338042 46.549754
174 "E30" 78.039216 78.431373 87.843137 57.810967 58.631696 59.646869
175 "E31" 20.392157 19.607843 18.823529 3.148531 3.229783 2.468748
176 "E32" 30.196078 29.019608 27.843137 6.774569 6.942251 5.269017
177 "E33" 62.352941 60.392157 59.215686 31.989454 32.755525 25.725588
178 "E34" 74.901961 72.549020 71.764706 48.175388 49.241936 39.260202
179 "E35" 71.372549 52.941176 34.509804 31.123224 28.367963 9.974807
180 "E36" 74.901961 62.352941 43.137255 38.299307 37.391458 15.229976
181 "F1" 34.117647 25.098039 14.117647 6.382472 5.902849 1.890754
182 "F2" 30.196078 21.568627 12.549020 4.913833 4.477533 1.506065
183 "F3" 26.666667 18.823529 11.372549 3.834511 3.479466 1.245139
184 "F4" 24.313725 17.254902 10.980392 3.236525 2.947767 1.141124
185 "F5" 68.235294 48.235294 24.705882 26.794505 23.917781 6.063450
186 "F6" 63.137255 43.529412 20.784314 22.171020 19.540925 4.583024
187 "F7" 57.254902 38.823529 16.078431 17.655457 15.474309 3.195870
188 "F8" 51.372549 34.117647 12.156863 13.762694 11.965206 2.220385
189 "F9" 82.745098 70.980392 59.607843 50.690249 49.522083 27.822030
190 "F10" 76.862745 66.274510 54.901961 43.100547 42.314210 23.353716
191 "F11" 71.764706 60.392157 48.235294 35.925499 34.901899 17.945239
192 "F12" 67.450980 55.294118 43.921569 30.563691 29.255466 14.734581
193 "F13" 30.196078 27.058824 13.725490 5.768115 6.019319 1.881788
194 "F14" 26.274510 23.529412 12.156863 4.383484 4.571184 1.495686
195 "F15" 22.352941 20.392157 11.764706 3.292173 3.450787 1.317807
196 "F16" 21.176471 19.215686 11.372549 2.967027 3.097029 1.227232
197 "F17" 67.058824 58.039216 29.411765 30.167520 30.716815 8.468661
198 "F18" 61.960784 53.333333 24.313725 25.078622 25.548982 6.307880
199 "F19" 56.078431 48.235294 20.784314 20.113517 20.526326 4.848940
200 "F20" 50.588235 43.137255 15.686275 15.880106 16.190937 3.335581
201 "F21" 85.098039 78.823529 63.529412 57.916957 59.499860 32.445717
202 "F22" 76.862745 72.156863 57.647059 46.702295 48.412130 26.264015
203 "F23" 72.156863 67.843137 52.156863 40.348167 42.043757 21.479075
204 "F24" 67.843137 62.745098 46.666667 34.397738 35.616614 17.172380
205 "F25" 71.372549 85.490196 89.411765 58.496582 65.371966 62.875056
206 "F26" 89.019608 76.078431 87.450980 64.827727 60.238442 59.016102
207 "F27" 90.588235 86.274510 70.588235 68.934484 71.852969 40.663459
208 "F28" 87.843137 74.509804 70.980392 58.942856 56.299291 39.043719
209 "F29" 75.294118 82.745098 72.156863 54.927038 61.331794 41.296632
210 "F30" 72.941176 74.117647 86.274510 51.247561 51.744431 56.745999
211 "F31" 19.215686 18.431373 18.039216 2.824792 2.886787 2.270292
212 "F32" 31.372549 30.588235 29.019608 7.411496 7.661552 5.742804
213 "F33" 61.568627 59.215686 58.039216 30.856136 31.482156 24.627332
214 "F34" 76.470588 74.117647 73.725490 50.587561 51.671354 41.621858
215 "F35" 70.980392 56.470588 38.039216 32.598363 30.998813 11.890308
216 "F36" 50.196078 38.431373 18.431373 14.522344 13.730886 3.517161
217 "G1" 36.470588 23.137255 10.588235 6.613910 5.637122 1.360039
218 "G2" 34.117647 21.176471 9.803922 5.715397 4.823949 1.185356
219 "G3" 31.764706 20.392157 10.588235 5.067015 4.358896 1.230943
220 "G4" 25.490196 15.686275 10.980392 3.288187 2.767638 1.109126
221 "G5" 67.450980 42.352941 9.803922 23.902109 19.987850 2.725272
222 "G6" 61.960784 37.647059 5.882353 19.481376 16.021552 1.953379
223 "G7" 57.647059 34.509804 5.882353 16.548515 13.516359 1.695301
224 "G8" 54.901961 32.549020 6.274510 14.840193 12.067229 1.575414
225 "G9" 85.490196 69.803922 52.549020 51.125654 48.959682 22.328078
226 "G10" 80.392157 64.705882 47.843137 43.893734 41.736257 18.405325
227 "G11" 74.901961 59.215686 42.352941 36.780117 34.685956 14.442217
228 "G12" 70.980392 54.509804 37.254902 31.727807 29.483107 11.324689
229 "G13" 31.372549 27.058824 10.980392 5.955669 6.121454 1.519079
230 "G14" 28.627451 25.098039 10.588235 5.036224 5.224214 1.373527
231 "G15" 26.274510 23.529412 11.372549 4.363227 4.562602 1.394573
232 "G16" 21.176471 18.823529 10.980392 2.912841 3.010025 1.167841
233 "G17" 65.490196 53.725490 13.725490 26.723197 26.632901 4.168024
234 "G18" 60.000000 48.627451 10.588235 21.808054 21.602948 3.183845
235 "G19" 54.509804 45.098039 7.450980 17.952653 18.074055 2.489606
236 "G20" 50.980392 42.745098 7.843137 15.722444 15.971977 2.295643
237 "G21" 86.274510 78.431373 55.686275 57.318767 58.968998 25.926728
238 "G22" 79.215686 72.156863 50.980392 47.404880 48.855549 21.421943
239 "G23" 73.725490 67.450980 45.490196 40.312808 41.821915 17.181272
240 "G24" 69.803922 62.352941 40.000000 34.664401 35.565341 13.477393
241 "G25" 65.882353 83.921569 88.627451 53.850992 61.529121 61.397911
242 "G26" 87.843137 71.764706 86.274510 60.978495 54.869952 56.757117
243 "G27" 90.196078 85.098039 65.882353 66.826029 69.721867 35.809407
244 "G28" 86.274510 69.411765 66.274510 53.814544 49.846940 33.605716
245 "G29" 70.196078 80.784314 67.843137 49.402728 56.809433 36.470028
246 "G30" 68.235294 69.803922 84.313725 45.323804 45.452714 53.451053
247 "G31" 18.039216 17.254902 16.862745 2.506866 2.559918 2.008166
248 "G32" 32.156863 31.372549 29.803922 7.802373 8.066248 6.058745
249 "G33" 60.392157 58.039216 56.470588 29.484704 30.110023 23.246650
250 "G34" 77.647059 74.901961 74.509804 52.054122 53.035182 42.625309
251 "G35" 58.431373 60.000000 51.372549 28.619056 30.898827 19.723633
252 "G36" 58.431373 56.862745 44.705882 26.416036 28.005344 15.187336
253 "H1" 46.274510 16.470588 7.058824 8.877615 5.727167 0.909268
254 "H2" 43.137255 12.156863 8.235294 7.433959 4.496903 0.885917
255 "H3" 37.647059 9.411765 9.411765 5.582827 3.312626 0.904076
256 "H4" 35.686275 9.411765 10.196078 5.061246 3.045011 0.972276
257 "H5" 73.333333 43.921569 2.352941 27.933581 22.682780 2.395756
258 "H6" 70.980392 41.176471 2.745098 25.618427 20.420432 2.167228
259 "H7" 67.058824 36.470588 3.137255 22.007087 16.922420 1.803704
260 "H8" 61.960784 30.588235 4.705882 17.895117 13.091047 1.478730
261 "H9" 78.431373 50.980392 4.313725 33.828526 28.873559 3.211331
262 "H10" 77.254902 49.019608 3.137255 32.277572 27.138836 2.942696
263 "H11" 76.078431 47.058824 2.352941 30.781924 25.478329 2.705476
264 "H12" 74.509804 45.098039 0.784314 29.062827 23.750267 2.425482
265 "H13" 35.686275 31.372549 8.627451 7.765523 8.127055 1.497799
266 "H14" 32.156863 29.411765 9.803922 6.527598 6.980201 1.495145
267 "H15" 25.490196 23.921569 10.980392 4.268034 4.591828 1.356221
268 "H16" 20.000000 18.823529 10.980392 2.747814 2.925821 1.162569
269 "H17" 70.980392 57.647059 9.411765 31.514289 31.252566 4.129399
270 "H18" 67.450980 55.686275 8.235294 28.511843 28.615560 3.737035
271 "H19" 63.529412 53.725490 8.235294 25.494544 26.017523 3.468150
272 "H20" 57.254902 49.019608 7.843137 20.530614 21.139367 2.891528
273 "H21" 81.960784 63.137255 9.411765 41.656340 39.790840 5.001504
274 "H22" 78.431373 61.176471 10.196078 38.134308 36.745964 4.770752
275 "H23" 75.294118 59.607843 10.196078 35.222873 34.299606 4.521164
276 "H24" 72.549020 58.039216 8.627451 32.672649 32.072281 4.124607
277 "H25" 59.607843 81.960784 88.235294 49.017704 57.258940 60.409865
278 "H26" 86.666667 67.450980 84.705882 57.240386 49.824651 54.061755
279 "H27" 89.803922 83.529412 60.784314 64.477903 67.120448 30.965302
280 "H28" 84.705882 64.313725 61.176471 48.994859 43.906812 28.307840
281 "H29" 66.274510 78.431373 63.137255 44.641045 52.393832 31.618231
282 "H30" 62.745098 65.490196 82.745098 39.530111 39.472865 50.770660
283 "H31" 17.254902 16.470588 16.470588 2.321139 2.360573 1.913715
284 "H32" 32.941176 32.156863 31.372549 8.262757 8.507609 6.672774
285 "H33" 59.215686 56.470588 54.509804 27.928055 28.444028 21.580781
286 "H34" 79.607843 76.862745 76.078431 55.016634 56.130433 44.726149
287 "H35" 20.392157 28.627451 15.686275 4.366553 5.668968 2.210441
288 "H36" 16.078431 19.215686 16.862745 2.495247 2.841596 2.054662
289 "I1" 25.490196 27.058824 20.000000 5.070259 5.643048 3.016129
290 "I2" 20.392157 22.745098 15.686275 3.430279 3.925897 1.974334
291 "I3" 16.862745 18.431373 12.941176 2.365602 2.667497 1.395998
292 "I4" 13.333333 15.686275 11.764706 1.700368 1.955765 1.155683
293 "I5" 42.352941 43.921569 32.549020 14.015920 15.476458 7.960844
294 "I6" 38.039216 40.000000 29.019608 11.308625 12.599851 6.348000
295 "I7" 34.117647 36.078431 24.705882 8.988216 10.094136 4.722458
296 "I8" 29.411765 31.764706 21.568627 6.783139 7.695756 3.625884
297 "I9" 67.843137 67.843137 61.568627 39.137755 41.299007 28.722917
298 "I10" 62.745098 63.137255 56.078431 32.982743 35.036164 23.570167
299 "I11" 57.254902 57.254902 50.196078 26.691004 28.310040 18.610091
300 "I12" 52.549020 52.156863 45.490196 21.926120 23.177414 15.084413
301 "I13" 11.372549 18.823529 16.078431 1.991191 2.526673 1.887962
302 "I14" 9.019608 14.901961 12.941176 1.337594 1.672324 1.286461
303 "I15" 7.843137 13.725490 12.156863 1.148305 1.443603 1.151664
304 "I16" 7.843137 15.294118 12.549020 1.292969 1.697661 1.238451
305 "I17" 26.666667 36.862745 31.372549 7.978667 9.796696 6.897382
306 "I18" 22.352941 32.549020 27.843137 6.016607 7.493396 5.397635
307 "I19" 17.647059 28.235294 23.529412 4.286211 5.503423 3.893384
308 "I20" 12.941176 24.313725 20.000000 2.991830 3.992433 2.853563
309 "I21" 65.098039 68.627451 67.843137 39.114850 41.749621 34.542672
310 "I22" 59.215686 63.529412 62.745098 32.437346 34.917994 29.048821
311 "I23" 52.549020 57.647059 57.254902 25.743572 27.963251 23.696642
312 "I24" 47.450980 53.333333 52.941176 21.284669 23.372626 19.962729
313 "I25" 52.549020 79.607843 87.058824 43.844426 52.544980 58.306497
314 "I26" 85.098039 63.137255 83.529412 53.501229 45.021473 51.954655
315 "I27" 89.803922 82.745098 56.078431 63.179634 65.796197 27.036658
316 "I28" 83.529412 60.392157 56.470588 45.447803 39.660446 23.985666
317 "I29" 61.568627 76.470588 58.431373 40.016625 48.445657 27.236177
318 "I30" 57.647059 61.176471 80.784314 34.356338 34.066314 47.720484
319 "I31" 15.686275 15.294118 15.294118 1.996815 2.049552 1.675741
320 "I32" 33.725490 33.333333 32.549020 8.793605 9.107157 7.190304
321 "I33" 58.039216 55.294118 53.725490 26.749129 27.199912 20.867275
322 "I34" 80.784314 78.039216 77.254902 56.894822 58.060071 46.286813
323 "I35" 13.333333 16.470588 14.117647 1.841524 2.122681 1.507243
324 "I36" 11.764706 15.686275 15.294118 1.673521 1.933014 1.673303
325 "J1" 25.490196 28.235294 14.117647 5.052763 5.928681 1.963042
326 "J2" 20.000000 23.921569 12.549020 3.447118 4.169452 1.530954
327 "J3" 16.862745 20.784314 12.156863 2.620342 3.172748 1.358072
328 "J4" 15.686275 20.000000 11.764706 2.385782 2.924035 1.278375
329 "J5" 40.392157 45.882353 24.705882 13.475384 16.071557 5.466776
330 "J6" 34.509804 41.568627 21.176471 10.333023 12.727181 4.170448
331 "J7" 30.588235 36.862745 16.470588 7.963479 9.859655 2.846853
332 "J8" 26.274510 32.549020 12.549020 5.984979 7.537436 1.949851
333 "J9" 66.274510 68.235294 55.686275 37.469678 40.810599 23.983952
334 "J10" 60.784314 63.529412 50.588235 31.346670 34.525049 19.645395
335 "J11" 56.078431 58.431373 44.705882 25.957981 28.676874 15.320217
336 "J12" 51.764706 53.333333 40.392157 21.482557 23.605741 12.400189
337 "J13" 8.235294 20.000000 14.117647 1.854206 2.647029 1.592039
338 "J14" 6.666667 17.647059 13.333333 1.483793 2.102884 1.405206
339 "J15" 6.666667 18.431373 13.333333 1.567923 2.259510 1.426422
340 "J16" 8.235294 15.686275 12.941176 1.361700 1.780204 1.302806
341 "J17" 16.078431 38.431373 29.411765 6.676908 9.675842 6.242593
342 "J18" 11.764706 34.117647 26.274510 5.039305 7.461583 4.952710
343 "J19" 4.313725 29.411765 21.960784 3.421177 5.358214 3.512598
344 "J20" 4.313725 25.882353 18.431373 2.650564 4.152398 2.564105
345 "J21" 61.960784 68.627451 63.529412 36.586703 40.529754 30.446502
