Example Targets Read/ArgyllCMS printtarg targets/High Quality Target (1 page - 225 patches)-i1/High Quality Target (1 page - 225 patches).ti2
CTI2   

DESCRIPTOR "Argyll Calibration Target chart information 2"
ORIGINATOR "Argyll printtarg"
CREATED "Fri Nov 21 13:43:42 2025"
TARGET_INSTRUMENT "GretagMacbeth i1 Pro"
ACCURATE_EXPECTED_VALUES "true"
APPROX_WHITE_POINT "96.420986 99.999714 82.531487"
COLOR_REP "iRGB"
PAPER_SIZE "210.0x297.0"
CHART_ID "147"
STEPS_IN_PASS "15"
PASSES_IN_STRIPS2 "15"
STRIP_INDEX_PATTERN "A-Z, A-Z"
PATCH_INDEX_PATTERN "0-9,@-9,@-9;1-999"
INDEX_ORDER "STRIP_THEN_PATCH"

NUMBER_OF_FIELDS 8
BEGIN_DATA_FORMAT
SAMPLE_ID SAMPLE_LOC RGB_R RGB_G RGB_B XYZ_X XYZ_Y XYZ_Z 
END_DATA_FORMAT

NUMBER_OF_SETS 225
BEGIN_DATA
1 "A1" 0.00000 0.00000 0.00000 0.00000 0.00000 0.00000 
2 "A2" 0.00000 0.00000 25.09804 0.733673 0.310825 3.662067 
3 "A3" 0.00000 0.00000 50.19608 3.088994 1.308672 15.41845 
4 "A4" 0.00000 0.00000 75.29412 7.543092 3.195680 37.65070 
5 "A5" 0.00000 0.00000 100.0000 14.31014 6.062584 71.42784 
6 "A6" 25.09804 0.00000 0.00000 2.235556 1.140678 0.0714240 
7 "A7" 25.09804 0.00000 25.09804 2.969229 1.451503 3.733491 
8 "A8" 25.09804 0.00000 50.19608 5.324550 2.449350 15.48987 
9 "A9" 25.09804 0.00000 75.29412 9.778647 4.336358 37.72212 
10 "A10" 25.09804 0.00000 100.0000 16.54570 7.203262 71.49927 
11 "A11" 50.19608 0.00000 0.00000 9.412390 4.802612 0.300717 
12 "A12" 50.19608 0.00000 25.09804 10.14606 5.113438 3.962784 
13 "A13" 50.19608 0.00000 50.19608 12.50138 6.111285 15.71917 
14 "A14" 50.19608 0.00000 75.29412 16.95548 7.998292 37.95141 
15 "A15" 50.19608 0.00000 100.0000 23.72253 10.86520 71.72856 
16 "B1" 0.00000 25.09804 0.00000 1.974223 3.675428 0.497854 
17 "B2" 0.00000 25.09804 25.09804 2.707896 3.986253 4.159921 
18 "B3" 0.00000 25.09804 50.19608 5.063217 4.984100 15.91630 
19 "B4" 0.00000 25.09804 75.29412 9.517315 6.871107 38.14855 
20 "B5" 0.00000 25.09804 100.0000 16.28436 9.738012 71.92570 
21 "B6" 25.09804 25.09804 0.00000 4.209779 4.816106 0.569278 
22 "B7" 25.09804 25.09804 25.09804 4.943452 5.126931 4.231345 
23 "B8" 25.09804 25.09804 50.19608 7.298773 6.124778 15.98773 
24 "B9" 25.09804 25.09804 75.29412 11.75287 8.011785 38.21997 
25 "B10" 25.09804 25.09804 100.0000 18.51992 10.87869 71.99712 
26 "B11" 50.19608 25.09804 0.00000 11.38661 8.478040 0.798571 
27 "B12" 50.19608 25.09804 25.09804 12.12029 8.788865 4.460638 
28 "B13" 50.19608 25.09804 50.19608 14.47561 9.786712 16.21702 
29 "B14" 50.19608 25.09804 75.29412 18.92970 11.67372 38.44927 
30 "B15" 50.19608 25.09804 100.0000 25.69675 14.54062 72.22642 
31 "C1" 0.00000 50.19608 0.00000 8.312098 15.47470 2.096120 
32 "C2" 0.00000 50.19608 25.09804 9.045771 15.78553 5.758187 
33 "C3" 0.00000 50.19608 50.19608 11.40109 16.78338 17.51457 
34 "C4" 0.00000 50.19608 75.29412 15.85519 18.67038 39.74682 
35 "C5" 0.00000 50.19608 100.0000 22.62224 21.53729 73.52396 
36 "C6" 25.09804 50.19608 0.00000 10.54765 16.61538 2.167544 
37 "C7" 25.09804 50.19608 25.09804 11.28133 16.92621 5.829611 
38 "C8" 25.09804 50.19608 50.19608 13.63665 17.92405 17.58600 
39 "C9" 25.09804 50.19608 75.29412 18.09074 19.81106 39.81824 
40 "C10" 25.09804 50.19608 100.0000 24.85779 22.67797 73.59539 
41 "C11" 50.19608 50.19608 0.00000 17.72449 20.27732 2.396838 
42 "C12" 50.19608 50.19608 25.09804 18.45816 20.58814 6.058905 
43 "C13" 50.19608 50.19608 50.19608 20.81348 21.58599 17.81529 
44 "C14" 50.19608 50.19608 75.29412 25.26758 23.47300 40.04754 
45 "C15" 50.19608 50.19608 100.0000 32.03463 26.33990 73.82468 
46 "D1" 0.00000 75.29412 0.00000 20.29752 37.78806 5.118569 
47 "D2" 0.00000 75.29412 25.09804 21.03119 38.09889 8.780636 
48 "D3" 0.00000 75.29412 50.19608 23.38651 39.09674 20.53702 
49 "D4" 0.00000 75.29412 75.29412 27.84061 40.98374 42.76927 
50 "D5" 0.00000 75.29412 100.0000 34.60766 43.85065 76.54641 
51 "D6" 25.09804 75.29412 0.00000 22.53308 38.92874 5.189993 
52 "D7" 25.09804 75.29412 25.09804 23.26675 39.23957 8.852060 
53 "D8" 25.09804 75.29412 50.19608 25.62207 40.23741 20.60844 
54 "D9" 25.09804 75.29412 75.29412 30.07617 42.12442 42.84069 
55 "D10" 25.09804 75.29412 100.0000 36.84322 44.99133 76.61784 
56 "D11" 50.19608 75.29412 0.00000 29.70991 42.59068 5.419286 
57 "D12" 50.19608 75.29412 25.09804 30.44358 42.90150 9.081353 
58 "D13" 50.19608 75.29412 50.19608 32.79890 43.89935 20.83774 
59 "D14" 50.19608 75.29412 75.29412 37.25300 45.78636 43.06998 
60 "D15" 50.19608 75.29412 100.0000 44.02005 48.65326 76.84713 
61 "E1" 0.00000 100.0000 0.00000 38.50680 71.68845 9.710533 
62 "E2" 0.00000 100.0000 25.09804 39.24048 71.99927 13.37260 
63 "E3" 0.00000 100.0000 50.19608 41.59580 72.99712 25.12898 
64 "E4" 0.00000 100.0000 75.29412 46.04990 74.88412 47.36123 
65 "E5" 0.00000 100.0000 100.0000 52.81695 77.75103 81.13838 
66 "E6" 25.09804 100.0000 0.00000 40.74236 72.82912 9.781957 
67 "E7" 25.09804 100.0000 25.09804 41.47603 73.13995 13.44402 
68 "E8" 25.09804 100.0000 50.19608 43.83136 74.13780 25.20041 
69 "E9" 25.09804 100.0000 75.29412 48.28545 76.02480 47.43265 
70 "E10" 25.09804 100.0000 100.0000 55.05250 78.89171 81.20980 
71 "E11" 50.19608 100.0000 0.00000 47.91920 76.49106 10.01125 
72 "E12" 50.19608 100.0000 25.09804 48.65287 76.80188 13.67332 
73 "E13" 50.19608 100.0000 50.19608 51.00819 77.79973 25.42970 
74 "E14" 50.19608 100.0000 75.29412 55.46229 79.68674 47.66195 
75 "E15" 50.19608 100.0000 100.0000 62.22934 82.55364 81.43909 
76 "F1" 75.29412 0.00000 0.00000 22.98435 11.72762 0.734329 
77 "F2" 75.29412 0.00000 25.09804 23.71802 12.03844 4.396396 
78 "F3" 75.29412 0.00000 50.19608 26.07334 13.03629 16.15278 
79 "F4" 75.29412 0.00000 75.29412 30.52744 14.92330 38.38503 
80 "F5" 75.29412 0.00000 100.0000 37.29449 17.79020 72.16217 
81 "F6" 100.0000 0.00000 0.00000 43.60404 22.24868 1.393110 
82 "F7" 100.0000 0.00000 25.09804 44.33771 22.55951 5.055177 
83 "F8" 100.0000 0.00000 50.19608 46.69303 23.55736 16.81156 
84 "F9" 100.0000 0.00000 75.29412 51.14713 25.44436 39.04381 
85 "F10" 100.0000 0.00000 100.0000 57.91418 28.31127 72.82095 
86 "F11" 0.00000 0.00000 12.54902 0.206693 0.0875670 1.031693 
87 "F12" 0.00000 12.54902 0.00000 0.556186 1.035457 0.140257 
88 "F13" 0.00000 12.54902 12.54902 0.762880 1.123024 1.171950 
89 "F14" 0.00000 12.54902 25.09804 1.289859 1.346282 3.802324 
90 "F15" 0.00000 25.09804 12.54902 2.180916 3.762995 1.529546 
91 "G1" 75.29412 25.09804 0.00000 24.95857 15.40305 1.232183 
92 "G2" 75.29412 25.09804 25.09804 25.69225 15.71387 4.894250 
93 "G3" 75.29412 25.09804 50.19608 28.04757 16.71172 16.65063 
94 "G4" 75.29412 25.09804 75.29412 32.50166 18.59873 38.88288 
95 "G5" 75.29412 25.09804 100.0000 39.26871 21.46563 72.66003 
96 "G6" 100.0000 25.09804 0.00000 45.57826 25.92411 1.890964 
97 "G7" 100.0000 25.09804 25.09804 46.31194 26.23494 5.553031 
98 "G8" 100.0000 25.09804 50.19608 48.66726 27.23278 17.30941 
99 "G9" 100.0000 25.09804 75.29412 53.12136 29.11979 39.54166 
100 "G10" 100.0000 25.09804 100.0000 59.88840 31.98670 73.31881 
101 "G11" 12.54902 0.00000 0.00000 0.629810 0.321357 0.0201220 
102 "G12" 12.54902 0.00000 12.54902 0.836503 0.408924 1.051814 
103 "G13" 12.54902 12.54902 0.00000 1.185996 1.356813 0.160379 
104 "G14" 12.54902 12.54902 12.54902 1.392690 1.444380 1.192072 
105 "G15" 12.54902 25.09804 25.09804 3.337706 4.307610 4.180042 
106 "H1" 75.29412 50.19608 0.00000 31.29645 27.20232 2.830450 
107 "H2" 75.29412 50.19608 25.09804 32.03012 27.51315 6.492517 
108 "H3" 75.29412 50.19608 50.19608 34.38544 28.51099 18.24890 
109 "H4" 75.29412 50.19608 75.29412 38.83954 30.39800 40.48115 
110 "H5" 75.29412 50.19608 100.0000 45.60659 33.26491 74.25829 
111 "H6" 100.0000 50.19608 0.00000 51.91614 37.72339 3.489230 
112 "H7" 100.0000 50.19608 25.09804 52.64981 38.03421 7.151297 
113 "H8" 100.0000 50.19608 50.19608 55.00513 39.03206 18.90768 
114 "H9" 100.0000 50.19608 75.29412 59.45923 40.91907 41.13993 
115 "H10" 100.0000 50.19608 100.0000 66.22628 43.78597 74.91707 
116 "H11" 25.09804 0.00000 12.54902 2.442249 1.228245 1.103117 
117 "H12" 25.09804 12.54902 0.00000 2.791742 2.176135 0.211681 
118 "H13" 25.09804 12.54902 12.54902 2.998435 2.263702 1.243374 
119 "H14" 37.64706 37.64706 37.64706 11.27843 11.69703 9.653763 
120 "H15" 62.74510 62.74510 62.74510 33.89512 35.15316 29.01251 
121 "I1" 75.29412 75.29412 0.00000 43.28187 49.51568 5.852898 
122 "I2" 75.29412 75.29412 25.09804 44.01554 49.82651 9.514965 
123 "I3" 75.29412 75.29412 50.19608 46.37086 50.82435 21.27135 
124 "I4" 75.29412 75.29412 75.29412 50.82496 52.71136 43.50359 
125 "I5" 75.29412 75.29412 100.0000 57.59201 55.57827 77.28074 
126 "I6" 100.0000 75.29412 0.00000 63.90156 60.03675 6.511679 
127 "I7" 100.0000 75.29412 25.09804 64.63523 60.34757 10.17375 
128 "I8" 100.0000 75.29412 50.19608 66.99055 61.34542 21.93013 
129 "I9" 100.0000 75.29412 75.29412 71.44465 63.23243 44.16238 
130 "I10" 100.0000 75.29412 100.0000 78.21170 66.09933 77.93952 
131 "I11" 75.29412 87.84314 87.84314 62.35432 69.68356 61.21522 
132 "I12" 75.29412 87.84314 100.0000 65.99762 71.22707 79.40045 
133 "I13" 75.29412 100.0000 87.84314 72.15799 87.93514 63.68748 
134 "I14" 87.84314 87.84314 87.84314 71.87261 74.54021 61.51932 
135 "I15" 87.84314 87.84314 100.0000 75.51591 76.08372 79.70455 
136 "J1" 75.29412 100.0000 0.00000 61.49115 83.41606 10.44486 
137 "J2" 75.29412 100.0000 25.09804 62.22483 83.72689 14.10693 
138 "J3" 75.29412 100.0000 50.19608 64.58015 84.72474 25.86331 
139 "J4" 75.29412 100.0000 75.29412 69.03425 86.61174 48.09556 
140 "J5" 75.29412 100.0000 100.0000 75.80129 89.47865 81.87271 
141 "J6" 100.0000 100.0000 0.00000 82.11084 93.93713 11.10364 
142 "J7" 100.0000 100.0000 25.09804 82.84452 94.24796 14.76571 
143 "J8" 100.0000 100.0000 50.19608 85.19984 95.24580 26.52209 
144 "J9" 100.0000 100.0000 75.29412 89.65394 97.13281 48.75434 
145 "J10" 100.0000 100.0000 100.0000 96.42099 99.99971 82.53149 
146 "J11" 87.84314 100.0000 87.84314 81.67628 92.79178 63.99158 
147 "J12" 87.84314 100.0000 100.0000 85.31958 94.33529 82.17681 
148 "J13" 100.0000 87.84314 87.84314 82.97401 80.20463 61.87400 
149 "J14" 100.0000 87.84314 100.0000 86.61732 81.74814 80.05923 
150 "J15" 100.0000 100.0000 87.84314 92.77768 98.45620 64.34626 
151 "K1" 0.00000 0.00000 37.64706 1.673867 0.709144 8.354963 
152 "K2" 0.00000 12.54902 37.64706 2.230053 1.744601 8.495220 
153 "K3" 0.00000 25.09804 37.64706 3.648090 4.384572 8.852816 
154 "K4" 0.00000 37.64706 0.00000 4.504167 8.385445 1.135848 
155 "K5" 0.00000 37.64706 12.54902 4.710860 8.473012 2.167540 
156 "K6" 37.64706 37.64706 50.19608 12.69355 12.29656 16.71725 
157 "K7" 37.64706 50.19608 25.09804 14.14616 18.38797 5.921140 
158 "K8" 37.64706 50.19608 37.64706 15.08636 18.78629 10.61404 
159 "K9" 37.64706 50.19608 50.19608 16.50149 19.38582 17.67752 
160 "K10" 50.19608 37.64706 37.64706 15.59042 13.89720 9.791528 
161 "K11" 75.29412 75.29412 87.84314 53.94871 54.03476 59.09551 
162 "K12" 75.29412 87.84314 62.74510 56.71797 67.29568 33.08182 
163 "K13" 75.29412 87.84314 75.29412 59.23057 68.36017 45.62330 
164 "K14" 75.29412 100.0000 62.74510 66.52164 85.54726 35.55408 
165 "K15" 87.84314 62.74510 62.74510 51.06951 43.91629 29.56122 
166 "L1" 0.00000 37.64706 25.09804 5.237840 8.696271 4.797914 
167 "L2" 0.00000 37.64706 37.64706 6.178033 9.094590 9.490810 
168 "L3" 12.54902 0.00000 25.09804 1.363483 0.632182 3.682189 
169 "L4" 12.54902 12.54902 25.09804 1.919669 1.667639 3.822446 
170 "L5" 12.54902 25.09804 0.00000 2.604033 3.996784 0.517976 
171 "L6" 50.19608 37.64706 50.19608 17.00555 14.49673 16.85502 
172 "L7" 50.19608 37.64706 62.74510 18.94704 15.31925 26.54578 
173 "L8" 50.19608 50.19608 37.64706 19.39835 20.98646 10.75180 
174 "L9" 50.19608 50.19608 62.74510 22.75497 22.40851 27.50605 
175 "L10" 50.19608 62.74510 37.64706 24.62265 30.71258 12.06925 
176 "L11" 87.84314 62.74510 75.29412 53.58212 44.98077 42.10270 
177 "L12" 87.84314 62.74510 87.84314 56.70587 46.30416 57.69461 
178 "L13" 87.84314 62.74510 100.0000 60.34917 47.84767 75.87984 
179 "L14" 87.84314 75.29412 62.74510 57.83063 56.50352 31.26621 
180 "L15" 87.84314 75.29412 75.29412 60.34325 57.56801 43.80770 
181 "M1" 12.54902 25.09804 12.54902 2.810726 4.084351 1.549668 
182 "M2" 12.54902 37.64706 37.64706 6.807843 9.415946 9.510932 
183 "M3" 25.09804 0.00000 37.64706 3.909422 1.849823 8.426387 
184 "M4" 25.09804 12.54902 25.09804 3.525415 2.486960 3.873748 
185 "M5" 25.09804 12.54902 37.64706 4.465609 2.885279 8.566644 
186 "M6" 50.19608 62.74510 50.19608 26.03778 31.31211 19.13274 
187 "M7" 50.19608 62.74510 62.74510 27.97927 32.13463 28.82350 
188 "M8" 62.74510 50.19608 50.19608 26.72933 24.60451 18.00429 
189 "M9" 62.74510 50.19608 62.74510 28.67082 25.42704 27.69506 
190 "M10" 62.74510 50.19608 75.29412 31.18343 26.49152 40.23654 
191 "M11" 87.84314 75.29412 87.84314 63.46699 58.89140 59.39961 
192 "M12" 87.84314 75.29412 100.0000 67.11029 60.43491 77.58484 
193 "M13" 87.84314 87.84314 62.74510 66.23625 72.15233 33.38592 
194 "M14" 87.84314 87.84314 75.29412 68.74886 73.21681 45.92740 
195 "M15" 87.84314 100.0000 62.74510 76.03992 90.40390 35.85818 
196 "N1" 25.09804 25.09804 12.54902 4.416472 4.903673 1.600970 
197 "N2" 25.09804 25.09804 37.64706 5.883645 5.525250 8.924240 
198 "N3" 25.09804 37.64706 0.00000 6.739722 9.526123 1.207272 
199 "N4" 25.09804 37.64706 12.54902 6.946416 9.613690 2.238964 
200 "N5" 25.09804 37.64706 25.09804 7.473395 9.836949 4.869338 
201 "N6" 62.74510 62.74510 50.19608 31.95363 34.33064 19.32174 
202 "N7" 62.74510 62.74510 75.29412 36.40773 36.21764 41.55399 
203 "N8" 62.74510 75.29412 50.19608 38.71475 46.91787 21.02674 
204 "N9" 62.74510 75.29412 62.74510 40.65624 47.74040 30.71751 
205 "N10" 62.74510 75.29412 75.29412 43.16885 48.80488 43.25899 
206 "N11" 87.84314 100.0000 75.29412 78.55253 91.46839 48.39966 
207 "N12" 100.0000 62.74510 62.74510 62.17092 49.58071 29.91589 
208 "N13" 100.0000 62.74510 75.29412 64.68353 50.64519 42.45738 
209 "N14" 100.0000 62.74510 87.84314 67.80728 51.96859 58.04929 
210 "N15" 100.0000 62.74510 100.0000 71.45058 53.51209 76.23452 
211 "O1" 25.09804 37.64706 37.64706 8.413589 10.23527 9.562234 
212 "O2" 37.64706 25.09804 25.09804 7.808290 6.588697 4.322874 
213 "O3" 37.64706 25.09804 37.64706 8.748483 6.987016 9.015769 
214 "O4" 37.64706 25.09804 50.19608 10.16361 7.586544 16.07926 
215 "O5" 37.64706 37.64706 25.09804 10.33823 11.29871 4.960867 
216 "O6" 75.29412 62.74510 62.74510 41.55123 39.05964 29.25711 
217 "O7" 75.29412 62.74510 75.29412 44.06384 40.12412 41.79859 
218 "O8" 75.29412 62.74510 87.84314 47.18759 41.44752 57.39051 
219 "O9" 75.29412 62.74510 100.0000 50.83089 42.99103 75.57574 
220 "O10" 75.29412 75.29412 62.74510 48.31235 51.64688 30.96211 
221 "O11" 100.0000 75.29412 62.74510 68.93204 62.16794 31.62089 
222 "O12" 100.0000 75.29412 87.84314 74.56840 64.55582 59.75429 
223 "O13" 100.0000 87.84314 62.74510 77.33766 77.81675 33.74060 
224 "O14" 100.0000 87.84314 75.29412 79.85027 78.88123 46.28208 
225 "O15" 100.0000 100.0000 62.74510 87.14133 96.06833 36.21286 
END_DATA
